; generated by PrusaSlicer 2.2.0+win64 on 2021-10-18 at 19:28:46 UTC

; 

; external perimeters extrusion width = 0.45mm
; perimeters extrusion width = 0.45mm
; infill extrusion width = 0.45mm
; solid infill extrusion width = 0.45mm
; top infill extrusion width = 0.40mm
; support material extrusion width = 0.35mm
; first layer extrusion width = 0.42mm

M73 P0 R8
M73 Q0 S8
M201 X1000 Y1000 Z1000 E5000 ; sets maximum accelerations, mm/sec^2
M203 X200 Y200 Z12 E120 ; sets maximum feedrates, mm/sec
M204 P1250 R1250 T1250 ; sets acceleration (P, T) and retract acceleration (R), mm/sec^2
M205 X8.00 Y8.00 Z0.40 E1.50 ; sets the jerk limits, mm/sec
M205 S0 T0 ; sets the minimum extruding and travel feed rate, mm/sec
M107
M190 S75 ; set bed temperature and wait for it to be reached
M104 S215 ; set temperature
M109 S215 ; set temperature and wait for it to be reached
G21 ; set units to millimeters
G90 ; use absolute coordinates
M83 ; use relative distances for extrusion
M900 K30 ; Filament gcode
;BEFORE_LAYER_CHANGE
G92 E0.0
;0.3


G1 Z0.300 F10800.000
;AFTER_LAYER_CHANGE
;0.3
G1 X-3.650 Y-0.572
M204 S1000
G1 F1200.000
G1 X-3.387 Y-1.553 E0.04507
M73 Q0 S8
M73 P0 R8
G1 X-2.904 Y-2.453 E0.04530
G1 X-2.231 Y-3.215 E0.04507
G1 X-1.397 Y-3.805 E0.04530
G1 X-0.426 Y-4.195 E0.04644
G1 X0.610 Y-4.346 E0.04644
G1 X19.505 Y-4.347 E0.83808
G1 X20.286 Y-4.277 E0.03475
G1 X21.041 Y-4.070 E0.03475
G1 X21.748 Y-3.733 E0.03475
G1 X22.389 Y-3.273 E0.03498
G1 X22.938 Y-2.707 E0.03498
G1 X23.375 Y-2.057 E0.03475
G1 X23.690 Y-1.339 E0.03475
G1 X23.874 Y-0.578 E0.03475
G1 X23.922 Y5.956 E0.28982
G1 X23.822 Y6.863 E0.04049
G1 X23.522 Y7.764 E0.04209
G1 X23.040 Y8.575 E0.04186
G1 X22.397 Y9.266 E0.04186
G1 X21.622 Y9.805 E0.04186
G1 X20.651 Y10.195 E0.04644
G1 X19.610 Y10.346 E0.04667
G1 X0.414 Y10.336 E0.85144
G1 X-0.669 Y10.122 E0.04896
G1 X-1.665 Y9.646 E0.04896
G1 X-2.512 Y8.938 E0.04896
G1 X-3.155 Y8.047 E0.04873
G1 X-3.526 Y7.146 E0.04324
G1 X-3.690 Y6.180 E0.04346
G1 X-3.650 Y-0.512 E0.29683
G1 X-3.297 Y-0.510 F10800.000
G1 F1200.000
G1 X-3.048 Y-1.442 E0.04278
G1 X-2.594 Y-2.275 E0.04211
G1 X-1.955 Y-2.984 E0.04233
G1 X-1.172 Y-3.522 E0.04211
G1 X-0.296 Y-3.862 E0.04167
G1 X0.634 Y-3.991 E0.04167
G1 X19.505 Y-3.992 E0.83701
G1 X20.228 Y-3.926 E0.03222
G1 X20.929 Y-3.733 E0.03222
G1 X21.583 Y-3.418 E0.03222
G1 X22.171 Y-2.991 E0.03222
G1 X22.674 Y-2.467 E0.03222
G1 X23.076 Y-1.862 E0.03222
G1 X23.364 Y-1.195 E0.03222
G1 X23.528 Y-0.487 E0.03222
G1 X23.567 Y5.955 E0.28574
G1 X23.478 Y6.771 E0.03640
G1 X23.199 Y7.616 E0.03948
G1 X22.742 Y8.380 E0.03948
G1 X22.134 Y9.023 E0.03926
G1 X21.397 Y9.522 E0.03948
G1 X20.521 Y9.862 E0.04167
G1 X19.591 Y9.991 E0.04167
G1 X0.441 Y9.982 E0.84937
G1 X-0.572 Y9.779 E0.04584
G1 X-1.498 Y9.331 E0.04562
G1 X-2.281 Y8.664 E0.04562
G1 X-2.872 Y7.822 E0.04562
G1 X-3.197 Y6.999 E0.03926
G1 X-3.337 Y6.130 E0.03904
G1 X-3.298 Y-0.450 E0.29187
G1 X-2.945 Y-0.448 F10800.000
G1 F1200.000
G1 X-2.713 Y-1.322 E0.04012
G1 X-2.286 Y-2.095 E0.03917
G1 X-1.691 Y-2.742 E0.03896
G1 X-0.957 Y-3.233 E0.03917
G1 X-0.174 Y-3.526 E0.03707
G1 X0.654 Y-3.636 E0.03707
G1 X19.505 Y-3.636 E0.83611
G1 X20.167 Y-3.576 E0.02951
G1 X20.813 Y-3.396 E0.02972
G1 X21.412 Y-3.106 E0.02951
G1 X21.949 Y-2.713 E0.02951
G1 X22.408 Y-2.231 E0.02951
G1 X22.775 Y-1.671 E0.02972
G1 X23.036 Y-1.053 E0.02972
G1 X23.180 Y-0.404 E0.02951
G1 X23.211 Y5.949 E0.28177
G1 X23.134 Y6.677 E0.03246
G1 X22.876 Y7.466 E0.03687
G1 X22.451 Y8.175 E0.03666
G1 X21.876 Y8.776 E0.03687
G1 X21.182 Y9.233 E0.03687
G1 X20.399 Y9.526 E0.03707
G1 X19.571 Y9.636 E0.03707
G1 X0.473 Y9.628 E0.84708
G1 X-0.463 Y9.441 E0.04231
G1 X-1.320 Y9.022 E0.04231
G1 X-2.045 Y8.395 E0.04252
G1 X-2.583 Y7.607 E0.04231
G1 X-2.864 Y6.870 E0.03498
G1 X-2.983 Y6.091 E0.03498
G1 X-2.946 Y-0.388 E0.28738
G1 X-2.595 Y-0.386 F10800.000
G1 F1200.000
G1 X-2.379 Y-1.200 E0.03734
G1 X-1.984 Y-1.905 E0.03584
G1 X-1.432 Y-2.495 E0.03584
G1 X-0.751 Y-2.939 E0.03604
G1 X-0.063 Y-3.187 E0.03245
G1 X0.668 Y-3.280 E0.03265
G1 X19.505 Y-3.281 E0.83551
G1 X20.112 Y-3.224 E0.02706
G1 X20.695 Y-3.061 E0.02686
G1 X21.239 Y-2.795 E0.02686
G1 X21.727 Y-2.435 E0.02686
G1 X22.142 Y-1.994 E0.02686
G1 X22.473 Y-1.482 E0.02706
G1 X22.705 Y-0.918 E0.02706
G1 X22.832 Y-0.325 E0.02686
G1 X22.856 Y5.948 E0.27825
G1 X22.790 Y6.586 E0.02846
G1 X22.554 Y7.316 E0.03405
G1 X22.157 Y7.974 E0.03405
G1 X21.622 Y8.524 E0.03405
G1 X20.976 Y8.939 E0.03405
G1 X20.283 Y9.188 E0.03265
G1 X19.553 Y9.280 E0.03265
G1 X0.503 Y9.273 E0.84494
G1 X-0.355 Y9.102 E0.03883
G1 X-1.144 Y8.712 E0.03903
G1 X-1.801 Y8.134 E0.03883
G1 X-2.289 Y7.401 E0.03903
G1 X-2.529 Y6.744 E0.03106
G1 X-2.628 Y6.055 E0.03086
G1 X-2.595 Y-0.326 E0.28303
G1 X0.935 Y0.285 F10800.000
G1 F1200.000
G1 X19.290 Y0.285 E0.81413
G1 X19.290 Y5.715 E0.24085
G1 X0.935 Y5.715 E0.81413
G1 X0.935 Y0.345 E0.23819
G1 X1.333 Y0.323 F10800.000
G1 X1.291 Y0.641
G1 F1200.000
G1 X18.934 Y0.641 E0.78259
G1 X18.934 Y5.359 E0.20930
G1 X1.291 Y5.359 E0.78259
G1 X1.291 Y0.701 E0.20664
G1 X1.646 Y0.996 F10800.000
G1 F1200.000
G1 X18.579 Y0.996 E0.75104
G1 X18.579 Y5.004 E0.17775
G1 X1.646 Y5.004 E0.75104
G1 X1.646 Y1.056 E0.17509
G1 X18.525 Y1.775 F10800.000
G1 F1200.000
G1 X17.960 Y1.210 E0.03577
G1 X17.453 Y1.210 E0.02269
G1 X18.365 Y2.122 E0.05774
G1 X18.365 Y2.629 E0.02269
G1 X16.946 Y1.210 E0.08983
G1 X16.438 Y1.210 E0.02269
G1 X18.365 Y3.137 E0.12193
G1 X18.365 Y3.644 E0.02269
G1 X15.931 Y1.210 E0.15402
G1 X15.424 Y1.210 E0.02269
G1 X18.365 Y4.151 E0.18612
G1 X18.365 Y4.659 E0.02269
G1 X14.916 Y1.210 E0.21821
G1 X14.409 Y1.210 E0.02269
G1 X17.990 Y4.790 E0.22655
G1 X17.483 Y4.790 E0.02269
G1 X13.902 Y1.210 E0.22655
G1 X13.395 Y1.210 E0.02269
G1 X16.975 Y4.790 E0.22655
G1 X16.468 Y4.790 E0.02269
G1 X12.887 Y1.210 E0.22655
G1 X12.380 Y1.210 E0.02269
G1 X15.961 Y4.790 E0.22655
G1 X15.454 Y4.790 E0.02269
G1 X11.873 Y1.210 E0.22655
G1 X11.366 Y1.210 E0.02269
G1 X14.946 Y4.790 E0.22655
G1 X14.439 Y4.790 E0.02269
G1 X10.858 Y1.210 E0.22655
G1 X10.351 Y1.210 E0.02269
G1 X13.932 Y4.790 E0.22655
G1 X13.425 Y4.790 E0.02269
G1 X9.844 Y1.210 E0.22655
G1 X9.337 Y1.210 E0.02269
G1 X12.917 Y4.790 E0.22655
G1 X12.410 Y4.790 E0.02269
G1 X8.829 Y1.210 E0.22655
G1 X8.322 Y1.210 E0.02269
G1 X11.903 Y4.790 E0.22655
G1 X11.396 Y4.790 E0.02269
G1 X7.815 Y1.210 E0.22655
G1 X7.308 Y1.210 E0.02269
G1 X10.888 Y4.790 E0.22655
G1 X10.381 Y4.790 E0.02269
G1 X6.800 Y1.210 E0.22655
G1 X6.293 Y1.210 E0.02269
G1 X9.874 Y4.790 E0.22655
G1 X9.367 Y4.790 E0.02269
G1 X5.786 Y1.210 E0.22655
G1 X5.278 Y1.210 E0.02269
G1 X8.859 Y4.790 E0.22655
G1 X8.352 Y4.790 E0.02269
G1 X4.771 Y1.210 E0.22655
G1 X4.264 Y1.210 E0.02269
G1 X7.845 Y4.790 E0.22655
G1 X7.337 Y4.790 E0.02269
G1 X3.757 Y1.210 E0.22655
G1 X3.249 Y1.210 E0.02269
G1 X6.830 Y4.790 E0.22655
G1 X6.323 Y4.790 E0.02269
G1 X2.742 Y1.210 E0.22655
G1 X2.235 Y1.210 E0.02269
G1 X5.816 Y4.790 E0.22655
G1 X5.308 Y4.790 E0.02269
G1 X1.860 Y1.342 E0.21820
G1 X1.860 Y1.849 E0.02269
G1 X4.801 Y4.790 E0.18611
G1 X4.294 Y4.790 E0.02269
G1 X1.860 Y2.356 E0.15401
G1 X1.860 Y2.863 E0.02269
G1 X3.787 Y4.790 E0.12192
G1 X3.279 Y4.790 E0.02269
G1 X1.860 Y3.371 E0.08983
G1 X1.860 Y3.878 E0.02269
G1 X2.772 Y4.790 E0.05773
G1 X2.265 Y4.790 E0.02269
G1 X1.700 Y4.225 E0.03576
M106 S255
;BEFORE_LAYER_CHANGE
G92 E0.0
;0.6


G1 Z0.600 F10800.000
;AFTER_LAYER_CHANGE
;0.6
M104 S210 ; set temperature
G1 X-3.650 Y-0.572
G1 F1741
G1 X-3.387 Y-1.553 E0.04507
G1 X-2.904 Y-2.453 E0.04530
G1 X-2.231 Y-3.215 E0.04507
G1 X-1.397 Y-3.805 E0.04530
G1 X-0.426 Y-4.195 E0.04644
G1 X0.610 Y-4.346 E0.04644
G1 X19.505 Y-4.347 E0.83808
G1 X20.286 Y-4.277 E0.03475
G1 X21.041 Y-4.070 E0.03475
G1 X21.748 Y-3.733 E0.03475
G1 X22.389 Y-3.273 E0.03498
G1 X22.938 Y-2.707 E0.03498
G1 X23.375 Y-2.057 E0.03475
G1 X23.690 Y-1.339 E0.03475
G1 X23.874 Y-0.578 E0.03475
G1 X23.922 Y5.956 E0.28982
G1 X23.822 Y6.863 E0.04049
G1 X23.522 Y7.764 E0.04209
G1 X23.040 Y8.575 E0.04186
G1 X22.397 Y9.266 E0.04186
G1 X21.622 Y9.805 E0.04186
G1 X20.651 Y10.195 E0.04644
G1 X19.610 Y10.346 E0.04667
G1 X0.414 Y10.336 E0.85144
G1 X-0.669 Y10.122 E0.04896
G1 X-1.665 Y9.646 E0.04896
G1 X-2.512 Y8.938 E0.04896
G1 X-3.155 Y8.047 E0.04873
G1 X-3.526 Y7.146 E0.04324
G1 X-3.690 Y6.180 E0.04346
G1 X-3.650 Y-0.512 E0.29683
G1 X-3.297 Y-0.510 F10800.000
G1 F1741
G1 X-3.048 Y-1.442 E0.04278
G1 X-2.594 Y-2.275 E0.04211
G1 X-1.955 Y-2.984 E0.04233
G1 X-1.172 Y-3.522 E0.04211
G1 X-0.296 Y-3.862 E0.04167
G1 X0.634 Y-3.991 E0.04167
G1 X19.505 Y-3.992 E0.83701
G1 X20.228 Y-3.926 E0.03222
G1 X20.929 Y-3.733 E0.03222
G1 X21.583 Y-3.418 E0.03222
G1 X22.171 Y-2.991 E0.03222
G1 X22.674 Y-2.467 E0.03222
G1 X23.076 Y-1.862 E0.03222
G1 X23.364 Y-1.195 E0.03222
G1 X23.528 Y-0.487 E0.03222
G1 X23.567 Y5.955 E0.28574
G1 X23.478 Y6.771 E0.03640
G1 X23.199 Y7.616 E0.03948
G1 X22.742 Y8.380 E0.03948
G1 X22.134 Y9.023 E0.03926
G1 X21.397 Y9.522 E0.03948
G1 X20.521 Y9.862 E0.04167
G1 X19.591 Y9.991 E0.04167
G1 X0.441 Y9.982 E0.84937
G1 X-0.572 Y9.779 E0.04584
G1 X-1.498 Y9.331 E0.04562
G1 X-2.281 Y8.664 E0.04562
G1 X-2.872 Y7.822 E0.04562
G1 X-3.197 Y6.999 E0.03926
G1 X-3.337 Y6.130 E0.03904
G1 X-3.298 Y-0.450 E0.29187
G1 X-2.945 Y-0.448 F10800.000
G1 F1741
G1 X-2.713 Y-1.322 E0.04012
G1 X-2.286 Y-2.095 E0.03917
G1 X-1.691 Y-2.742 E0.03896
G1 X-0.957 Y-3.233 E0.03917
G1 X-0.174 Y-3.526 E0.03707
G1 X0.654 Y-3.636 E0.03707
G1 X19.505 Y-3.636 E0.83611
G1 X20.167 Y-3.576 E0.02951
G1 X20.813 Y-3.396 E0.02972
G1 X21.412 Y-3.106 E0.02951
G1 X21.949 Y-2.713 E0.02951
G1 X22.408 Y-2.231 E0.02951
G1 X22.775 Y-1.671 E0.02972
G1 X23.036 Y-1.053 E0.02972
G1 X23.180 Y-0.404 E0.02951
G1 X23.211 Y5.949 E0.28177
G1 X23.134 Y6.677 E0.03246
G1 X22.876 Y7.466 E0.03687
G1 X22.451 Y8.175 E0.03666
G1 X21.876 Y8.776 E0.03687
G1 X21.182 Y9.233 E0.03687
G1 X20.399 Y9.526 E0.03707
G1 X19.571 Y9.636 E0.03707
G1 X0.473 Y9.628 E0.84708
G1 X-0.463 Y9.441 E0.04231
G1 X-1.320 Y9.022 E0.04231
G1 X-2.045 Y8.395 E0.04252
G1 X-2.583 Y7.607 E0.04231
G1 X-2.864 Y6.870 E0.03498
G1 X-2.983 Y6.091 E0.03498
G1 X-2.946 Y-0.388 E0.28738
G1 X-2.595 Y-0.386 F10800.000
G1 F1741
G1 X-2.379 Y-1.200 E0.03734
G1 X-1.984 Y-1.905 E0.03584
G1 X-1.432 Y-2.495 E0.03584
G1 X-0.751 Y-2.939 E0.03604
G1 X-0.063 Y-3.187 E0.03245
G1 X0.668 Y-3.280 E0.03265
G1 X19.505 Y-3.281 E0.83551
G1 X20.112 Y-3.224 E0.02706
G1 X20.695 Y-3.061 E0.02686
G1 X21.239 Y-2.795 E0.02686
G1 X21.727 Y-2.435 E0.02686
G1 X22.142 Y-1.994 E0.02686
G1 X22.473 Y-1.482 E0.02706
G1 X22.705 Y-0.918 E0.02706
G1 X22.832 Y-0.325 E0.02686
G1 X22.856 Y5.948 E0.27825
G1 X22.790 Y6.586 E0.02846
G1 X22.554 Y7.316 E0.03405
G1 X22.157 Y7.974 E0.03405
G1 X21.622 Y8.524 E0.03405
G1 X20.976 Y8.939 E0.03405
G1 X20.283 Y9.188 E0.03265
G1 X19.553 Y9.280 E0.03265
G1 X0.503 Y9.273 E0.84494
G1 X-0.355 Y9.102 E0.03883
G1 X-1.144 Y8.712 E0.03903
G1 X-1.801 Y8.134 E0.03883
G1 X-2.289 Y7.401 E0.03903
G1 X-2.529 Y6.744 E0.03106
G1 X-2.628 Y6.055 E0.03086
G1 X-2.595 Y-0.326 E0.28303
G1 X1.400 Y0.450 F10800.000
M204 S800
G1 F1741
G1 X19.275 Y0.450 E0.85973
G1 X19.275 Y5.550 E0.24529
G1 X1.400 Y5.550 E0.85973
G1 X1.400 Y0.510 E0.24241
M204 S1000
G1 X1.798 Y0.487 F10800.000
G1 X1.786 Y0.836
M204 S800
G1 F1741
G1 X18.889 Y0.836 E0.82263
G1 X18.889 Y5.164 E0.20820
G1 X1.786 Y5.164 E0.82263
G1 X1.786 Y0.896 E0.20531
M204 S1000
G1 X2.171 Y1.221 F10800.000
M204 S800
G1 F1500.000
G1 X18.504 Y1.221 E0.78554
G1 X18.504 Y4.779 E0.17110
G1 X2.171 Y4.779 E0.78554
G1 X2.171 Y1.281 E0.16822
M204 S1000
G1 X17.662 Y4.721 F10800.000
M204 S1250
G1 F1741
G1 X18.272 Y4.111 E0.04173
G1 X18.272 Y3.562 E0.02651
G1 X17.287 Y4.547 E0.06735
G1 X16.739 Y4.547 E0.02651
G1 X18.272 Y3.014 E0.10484
G1 X18.272 Y2.466 E0.02651
G1 X16.191 Y4.547 E0.14232
G1 X15.643 Y4.547 E0.02651
G1 X18.272 Y1.918 E0.17981
G1 X18.272 Y1.453 E0.02249
G1 X18.189 Y1.453 E0.00402
G1 X15.095 Y4.547 E0.21161
G1 X14.546 Y4.547 E0.02651
G1 X17.641 Y1.453 E0.21161
G1 X17.093 Y1.453 E0.02651
G1 X13.998 Y4.547 E0.21161
G1 X13.450 Y4.547 E0.02651
G1 X16.545 Y1.453 E0.21161
G1 X15.996 Y1.453 E0.02651
G1 X12.902 Y4.547 E0.21161
G1 X12.353 Y4.547 E0.02651
G1 X15.448 Y1.453 E0.21161
G1 X14.900 Y1.453 E0.02651
G1 X11.805 Y4.547 E0.21161
G1 X11.257 Y4.547 E0.02651
G1 X14.352 Y1.453 E0.21161
G1 X13.804 Y1.453 E0.02651
G1 X10.709 Y4.547 E0.21161
G1 X10.161 Y4.547 E0.02651
G1 X13.255 Y1.453 E0.21161
G1 X12.707 Y1.453 E0.02651
G1 X9.612 Y4.547 E0.21161
G1 X9.064 Y4.547 E0.02651
G1 X12.159 Y1.453 E0.21161
G1 X11.611 Y1.453 E0.02651
G1 X8.516 Y4.547 E0.21161
G1 X7.968 Y4.547 E0.02651
G1 X11.063 Y1.453 E0.21161
G1 X10.514 Y1.453 E0.02651
G1 X7.420 Y4.547 E0.21161
G1 X6.871 Y4.547 E0.02651
G1 X9.966 Y1.453 E0.21161
G1 X9.418 Y1.453 E0.02651
G1 X6.323 Y4.547 E0.21161
G1 X5.775 Y4.547 E0.02651
G1 X8.870 Y1.453 E0.21161
G1 X8.321 Y1.453 E0.02651
G1 X5.227 Y4.547 E0.21161
G1 X4.678 Y4.547 E0.02651
G1 X7.773 Y1.453 E0.21161
G1 X7.225 Y1.453 E0.02651
G1 X4.130 Y4.547 E0.21161
G1 X3.582 Y4.547 E0.02651
G1 X6.677 Y1.453 E0.21161
G1 X6.129 Y1.453 E0.02651
G1 X3.034 Y4.547 E0.21161
G1 X2.486 Y4.547 E0.02651
G1 X5.580 Y1.453 E0.21161
G1 X5.032 Y1.453 E0.02651
G1 X2.403 Y4.082 E0.17980
G1 X2.403 Y3.534 E0.02651
G1 X4.484 Y1.453 E0.14231
G1 X3.936 Y1.453 E0.02651
G1 X2.403 Y2.986 E0.10483
G1 X2.403 Y2.437 E0.02651
G1 X3.387 Y1.453 E0.06734
G1 X2.839 Y1.453 E0.02651
G1 X2.229 Y2.063 E0.04172
M204 S1000
;BEFORE_LAYER_CHANGE
G92 E0.0
;0.9


G1 Z0.900 F10800.000
;AFTER_LAYER_CHANGE
;0.9
G1 X1.850 Y0.600
M204 S800
G1 F900
G1 X19.275 Y0.600 E0.83808
G1 X19.275 Y5.400 E0.23086
G1 X1.850 Y5.400 E0.83808
G1 X1.850 Y0.660 E0.22798
M204 S1000
G1 X2.248 Y0.636 F10800.000
G1 X2.236 Y0.986
M204 S800
G1 F900
G1 X18.889 Y0.986 E0.80099
G1 X18.889 Y5.014 E0.19377
G1 X2.236 Y5.014 E0.80099
G1 X2.236 Y1.046 E0.19088
M204 S1000
G1 X2.621 Y1.371 F10800.000
M204 S800
G1 F900
G1 X18.504 Y1.371 E0.76390
M73 Q11 S7
M73 P11 R7
G1 X18.504 Y4.629 E0.15668
G1 X2.621 Y4.629 E0.76390
G1 X2.621 Y1.431 E0.15379
M204 S1000
G1 X18.446 Y2.228 F10800.000
M204 S1250
G1 F900
G1 X17.820 Y1.603 E0.04357
G1 X17.262 Y1.603 E0.02750
G1 X18.272 Y2.613 E0.07038
G1 X18.272 Y3.171 E0.02750
G1 X16.704 Y1.603 E0.10927
G1 X16.145 Y1.603 E0.02750
G1 X18.272 Y3.730 E0.14816
G1 X18.272 Y4.288 E0.02750
G1 X15.587 Y1.603 E0.18705
G1 X15.028 Y1.603 E0.02750
G1 X17.823 Y4.397 E0.19465
G1 X17.265 Y4.397 E0.02750
G1 X14.470 Y1.603 E0.19465
G1 X13.911 Y1.603 E0.02750
G1 X16.706 Y4.397 E0.19465
G1 X16.148 Y4.397 E0.02750
G1 X13.353 Y1.603 E0.19465
G1 X12.795 Y1.603 E0.02750
G1 X15.589 Y4.397 E0.19465
G1 X15.031 Y4.397 E0.02750
G1 X12.236 Y1.603 E0.19465
G1 X11.678 Y1.603 E0.02750
G1 X14.473 Y4.397 E0.19465
G1 X13.914 Y4.397 E0.02750
G1 X11.119 Y1.603 E0.19465
G1 X10.561 Y1.603 E0.02750
G1 X13.356 Y4.397 E0.19465
G1 X12.797 Y4.397 E0.02750
G1 X10.003 Y1.603 E0.19465
G1 X9.444 Y1.603 E0.02750
G1 X12.239 Y4.397 E0.19465
G1 X11.681 Y4.397 E0.02750
G1 X8.886 Y1.603 E0.19465
G1 X8.327 Y1.603 E0.02750
G1 X11.122 Y4.397 E0.19465
G1 X10.564 Y4.397 E0.02750
G1 X7.769 Y1.603 E0.19465
G1 X7.211 Y1.603 E0.02750
G1 X10.005 Y4.397 E0.19465
G1 X9.447 Y4.397 E0.02750
G1 X6.652 Y1.603 E0.19465
G1 X6.094 Y1.603 E0.02750
G1 X8.889 Y4.397 E0.19465
G1 X8.330 Y4.397 E0.02750
G1 X5.535 Y1.603 E0.19465
G1 X4.977 Y1.603 E0.02750
G1 X7.772 Y4.397 E0.19465
G1 X7.213 Y4.397 E0.02750
G1 X4.419 Y1.603 E0.19465
G1 X3.860 Y1.603 E0.02750
G1 X6.655 Y4.397 E0.19465
G1 X6.097 Y4.397 E0.02750
G1 X3.302 Y1.603 E0.19465
G1 X2.853 Y1.603 E0.02212
G1 X2.853 Y1.712 E0.00538
G1 X5.538 Y4.397 E0.18704
G1 X4.980 Y4.397 E0.02750
G1 X2.853 Y2.270 E0.14815
G1 X2.853 Y2.829 E0.02750
G1 X4.421 Y4.397 E0.10926
G1 X3.863 Y4.397 E0.02750
G1 X2.853 Y3.387 E0.07037
G1 X2.853 Y3.945 E0.02750
G1 X3.478 Y4.571 E0.04356
M204 S1000
;BEFORE_LAYER_CHANGE
G92 E0.0
;1.2


G1 Z1.200 F10800.000
;AFTER_LAYER_CHANGE
;1.2
G1 X2.300 Y5.250
M204 S800
G1 F900
G1 X2.300 Y0.750 E0.21643
G1 X19.275 Y0.750 E0.81644
G1 X19.275 Y5.250 E0.21643
G1 X2.360 Y5.250 E0.81355
M204 S1000
G1 X2.469 Y4.888 F10800.000
G1 X2.686 Y4.864
M204 S800
G1 F900
G1 X2.686 Y1.136 E0.17934
G1 X18.889 Y1.136 E0.77935
