; generated by PrusaSlicer 2.2.0+win64 on 2021-10-21 at 15:31:12 UTC

; 

; external perimeters extrusion width = 0.45mm
; perimeters extrusion width = 0.45mm
; infill extrusion width = 0.45mm
; solid infill extrusion width = 0.45mm
; top infill extrusion width = 0.40mm
; support material extrusion width = 0.35mm
; first layer extrusion width = 0.42mm

M73 P0 R15
M73 Q0 S15
M201 X1000 Y1000 Z1000 E5000 ; sets maximum accelerations, mm/sec^2
M203 X200 Y200 Z12 E120 ; sets maximum feedrates, mm/sec
M204 P1250 R1250 T1250 ; sets acceleration (P, T) and retract acceleration (R), mm/sec^2
M205 X8.00 Y8.00 Z0.40 E1.50 ; sets the jerk limits, mm/sec
M205 S0 T0 ; sets the minimum extruding and travel feed rate, mm/sec
M107
M190 S75 ; set bed temperature and wait for it to be reached
M104 S215 ; set temperature
M109 S215 ; set temperature and wait for it to be reached
G21 ; set units to millimeters
G90 ; use absolute coordinates
M83 ; use relative distances for extrusion
M900 K30 ; Filament gcode
;BEFORE_LAYER_CHANGE
G92 E0.0
;0.3


G1 Z0.300 F10800.000
;AFTER_LAYER_CHANGE
;0.3
G1 X-1.292 Y-0.481
M204 S1000
G1 F1200.000
G1 X-0.330 Y-0.840 E0.04552
M73 Q0 S15
M73 P0 R15
G1 X1.050 Y-1.056 E0.06198
G1 X19.460 Y-1.058 E0.81656
G1 X20.251 Y-0.985 E0.03521
G1 X21.016 Y-0.773 E0.03521
G1 X21.735 Y-0.425 E0.03544
G1 X22.375 Y0.044 E0.03521
G1 X22.919 Y0.615 E0.03498
G1 X23.352 Y1.274 E0.03498
G1 X23.684 Y2.066 E0.03808
G1 X23.860 Y2.808 E0.03383
G1 X23.907 Y8.597 E0.25676
G1 X23.781 Y9.595 E0.04461
G1 X23.449 Y10.534 E0.04421
G1 X22.948 Y11.347 E0.04232
G1 X22.278 Y12.040 E0.04278
G1 X21.472 Y12.571 E0.04278
G1 X20.541 Y12.922 E0.04415
G1 X19.555 Y13.056 E0.04415
G1 X0.817 Y13.043 E0.83110
G1 X-0.560 Y12.777 E0.06223
G1 X-1.595 Y12.310 E0.05033
G1 X-2.523 Y11.547 E0.05330
G1 X-3.211 Y10.562 E0.05330
G1 X-3.545 Y9.696 E0.04117
G1 X-3.691 Y8.784 E0.04094
G1 X-3.697 Y3.413 E0.23822
G1 X-3.632 Y2.700 E0.03177
G1 X-3.343 Y1.721 E0.04530
G1 X-2.837 Y0.834 E0.04530
G1 X-2.141 Y0.087 E0.04530
G1 X-1.342 Y-0.447 E0.04263
G1 X-1.875 Y0.328 F10800.000
G1 F1200.000
G1 X-1.075 Y-0.192 E0.04233
G1 X-0.209 Y-0.503 E0.04079
G1 X1.075 Y-0.701 E0.05763
G1 X19.460 Y-0.702 E0.81546
G1 X20.193 Y-0.634 E0.03266
G1 X20.902 Y-0.436 E0.03266
G1 X21.564 Y-0.112 E0.03266
G1 X22.156 Y0.325 E0.03266
G1 X22.657 Y0.858 E0.03244
G1 X23.052 Y1.468 E0.03222
G1 X23.356 Y2.207 E0.03544
G1 X23.513 Y2.896 E0.03134
G1 X23.552 Y8.590 E0.25257
G1 X23.439 Y9.498 E0.04057
G1 X23.127 Y10.383 E0.04163
G1 X22.656 Y11.144 E0.03970
G1 X22.018 Y11.793 E0.04036
G1 X21.256 Y12.281 E0.04014
G1 X20.420 Y12.586 E0.03948
G1 X19.538 Y12.701 E0.03948
G1 X0.852 Y12.689 E0.82880
G1 X-0.459 Y12.436 E0.05921
G1 X-1.423 Y11.999 E0.04694
G1 X-2.288 Y11.276 E0.05000
G1 X-2.922 Y10.344 E0.05000
G1 X-3.213 Y9.561 E0.03706
G1 X-3.337 Y8.735 E0.03706
G1 X-3.342 Y3.415 E0.23595
G1 X-3.280 Y2.751 E0.02958
G1 X-3.006 Y1.837 E0.04233
G1 X-2.529 Y1.016 E0.04211
G1 X-1.916 Y0.371 E0.03945
G1 X-2.931 Y2.816 F10800.000
G1 F1200.000
G1 X-2.676 Y1.970 E0.03917
G1 X-2.229 Y1.208 E0.03917
G1 X-1.614 Y0.574 E0.03917
G1 X-0.868 Y0.103 E0.03917
G1 X-0.100 Y-0.163 E0.03603
G1 X1.095 Y-0.345 E0.05361
G1 X19.460 Y-0.346 E0.81458
G1 X20.132 Y-0.284 E0.02993
G1 X20.781 Y-0.101 E0.02993
G1 X21.387 Y0.196 E0.02993
G1 X21.933 Y0.602 E0.03015
G1 X22.389 Y1.092 E0.02972
G1 X22.750 Y1.657 E0.02972
G1 X23.025 Y2.340 E0.03266
G1 X23.166 Y2.981 E0.02909
G1 X23.196 Y8.583 E0.24849
G1 X23.098 Y9.394 E0.03624
G1 X22.809 Y10.224 E0.03895
G1 X22.366 Y10.938 E0.03728
G1 X21.769 Y11.537 E0.03749
G1 X21.048 Y11.987 E0.03770
G1 X20.304 Y12.248 E0.03498
G1 X19.521 Y12.346 E0.03498
G1 X0.885 Y12.335 E0.82661
G1 X-0.349 Y12.097 E0.05574
G1 X-1.243 Y11.691 E0.04357
G1 X-2.048 Y11.012 E0.04671
G1 X-2.627 Y10.138 E0.04650
G1 X-2.878 Y9.435 E0.03309
G1 X-2.983 Y8.697 E0.03309
G1 X-2.931 Y2.876 E0.25821
G1 X-2.581 Y2.879 F10800.000
G1 F1200.000
G1 X-2.345 Y2.101 E0.03604
G1 X-1.930 Y1.403 E0.03604
G1 X-1.358 Y0.825 E0.03604
G1 X-0.665 Y0.401 E0.03604
G1 X0.003 Y0.178 E0.03126
G1 X1.110 Y0.010 E0.04965
G1 X19.460 Y0.009 E0.81388
G1 X20.071 Y0.066 E0.02726
G1 X20.667 Y0.236 E0.02746
G1 X21.221 Y0.512 E0.02746
G1 X21.712 Y0.882 E0.02726
G1 X22.124 Y1.331 E0.02706
G1 X22.446 Y1.844 E0.02686
G1 X22.695 Y2.476 E0.03009
G1 X22.817 Y3.060 E0.02646
G1 X22.840 Y8.577 E0.24471
G1 X22.757 Y9.290 E0.03186
G1 X22.490 Y10.066 E0.03638
G1 X22.080 Y10.725 E0.03445
G1 X21.522 Y11.278 E0.03485
G1 X20.847 Y11.688 E0.03505
G1 X20.192 Y11.909 E0.03066
G1 X19.505 Y11.990 E0.03066
G1 X0.922 Y11.981 E0.82426
G1 X-0.240 Y11.759 E0.05249
G1 X-1.062 Y11.385 E0.04002
G1 X-1.799 Y10.756 E0.04301
G1 X-2.328 Y9.938 E0.04320
G1 X-2.541 Y9.314 E0.02926
G1 X-2.628 Y8.664 E0.02906
G1 X-2.581 Y2.939 E0.25397
G1 X0.935 Y3.665 F10800.000
G1 F1200.000
G1 X19.275 Y3.665 E0.81346
G1 X19.275 Y8.335 E0.20714
G1 X0.935 Y8.335 E0.81346
G1 X0.935 Y3.725 E0.20448
G1 X1.334 Y3.698 F10800.000
G1 X1.291 Y4.021
G1 F1200.000
G1 X18.919 Y4.021 E0.78192
G1 X18.919 Y7.979 E0.17559
G1 X1.291 Y7.979 E0.78192
G1 X1.291 Y4.081 E0.17293
G1 X1.646 Y4.376 F10800.000
G1 F1200.000
G1 X18.564 Y4.376 E0.75037
G1 X18.564 Y7.624 E0.14405
G1 X1.646 Y7.624 E0.75037
G1 X1.646 Y4.436 E0.14138
G1 X18.510 Y5.164 F10800.000
G1 F1200.000
G1 X17.936 Y4.590 E0.03679
G1 X17.422 Y4.590 E0.02325
G1 X18.350 Y5.518 E0.05942
G1 X18.350 Y6.031 E0.02325
G1 X16.909 Y4.590 E0.09230
G1 X16.396 Y4.590 E0.02325
G1 X18.350 Y6.544 E0.12517
G1 X18.350 Y7.058 E0.02325
G1 X15.882 Y4.590 E0.15805
G1 X15.369 Y4.590 E0.02325
G1 X18.190 Y7.410 E0.18063
G1 X17.676 Y7.410 E0.02325
G1 X14.855 Y4.590 E0.18063
G1 X14.342 Y4.590 E0.02325
G1 X17.163 Y7.410 E0.18063
G1 X16.649 Y7.410 E0.02325
G1 X13.829 Y4.590 E0.18063
G1 X13.315 Y4.590 E0.02325
G1 X16.136 Y7.410 E0.18063
G1 X15.623 Y7.410 E0.02325
G1 X12.802 Y4.590 E0.18063
G1 X12.288 Y4.590 E0.02325
G1 X15.109 Y7.410 E0.18063
G1 X14.596 Y7.410 E0.02325
G1 X11.775 Y4.590 E0.18063
G1 X11.262 Y4.590 E0.02325
G1 X14.082 Y7.410 E0.18063
G1 X13.569 Y7.410 E0.02325
G1 X10.748 Y4.590 E0.18063
G1 X10.235 Y4.590 E0.02325
G1 X13.056 Y7.410 E0.18063
G1 X12.542 Y7.410 E0.02325
G1 X9.721 Y4.590 E0.18063
G1 X9.208 Y4.590 E0.02325
G1 X12.029 Y7.410 E0.18063
G1 X11.515 Y7.410 E0.02325
G1 X8.695 Y4.590 E0.18063
G1 X8.181 Y4.590 E0.02325
G1 X11.002 Y7.410 E0.18063
G1 X10.489 Y7.410 E0.02325
G1 X7.668 Y4.590 E0.18063
G1 X7.154 Y4.590 E0.02325
G1 X9.975 Y7.410 E0.18063
G1 X9.462 Y7.410 E0.02325
G1 X6.641 Y4.590 E0.18063
G1 X6.128 Y4.590 E0.02325
G1 X8.948 Y7.410 E0.18063
G1 X8.435 Y7.410 E0.02325
G1 X5.614 Y4.590 E0.18063
G1 X5.101 Y4.590 E0.02325
G1 X7.922 Y7.410 E0.18063
G1 X7.408 Y7.410 E0.02325
G1 X4.587 Y4.590 E0.18063
G1 X4.074 Y4.590 E0.02325
G1 X6.895 Y7.410 E0.18063
G1 X6.381 Y7.410 E0.02325
G1 X3.561 Y4.590 E0.18063
G1 X3.047 Y4.590 E0.02325
G1 X5.868 Y7.410 E0.18063
G1 X5.355 Y7.410 E0.02325
G1 X2.534 Y4.590 E0.18063
G1 X2.020 Y4.590 E0.02325
G1 X4.841 Y7.410 E0.18063
G1 X4.328 Y7.410 E0.02325
G1 X1.860 Y4.942 E0.15804
G1 X1.860 Y5.456 E0.02325
G1 X3.814 Y7.410 E0.12517
G1 X3.301 Y7.410 E0.02325
G1 X1.860 Y5.969 E0.09229
G1 X1.860 Y6.483 E0.02325
G1 X2.788 Y7.410 E0.05942
G1 X2.274 Y7.410 E0.02325
G1 X1.700 Y6.836 E0.03679
M106 S255
;BEFORE_LAYER_CHANGE
G92 E0.0
;0.6


G1 Z0.600 F10800.000
;AFTER_LAYER_CHANGE
;0.6
M104 S210 ; set temperature
G1 X-2.523 Y11.547
G1 F1674
G1 X-3.211 Y10.562 E0.05330
G1 X-3.545 Y9.696 E0.04117
G1 X-3.691 Y8.784 E0.04094
G1 X-3.697 Y3.413 E0.23822
G1 X-3.632 Y2.700 E0.03177
G1 X-3.343 Y1.721 E0.04530
G1 X-2.837 Y0.834 E0.04530
G1 X-2.141 Y0.087 E0.04530
G1 X-1.292 Y-0.481 E0.04530
G1 X-0.330 Y-0.840 E0.04552
G1 X1.050 Y-1.056 E0.06198
G1 X19.460 Y-1.058 E0.81656
G1 X20.251 Y-0.985 E0.03521
G1 X21.016 Y-0.773 E0.03521
G1 X21.735 Y-0.425 E0.03544
G1 X22.375 Y0.044 E0.03521
G1 X22.919 Y0.615 E0.03498
G1 X23.352 Y1.274 E0.03498
G1 X23.684 Y2.066 E0.03808
G1 X23.860 Y2.808 E0.03383
G1 X23.907 Y8.597 E0.25676
G1 X23.781 Y9.595 E0.04461
G1 X23.449 Y10.534 E0.04421
G1 X22.948 Y11.347 E0.04232
G1 X22.278 Y12.040 E0.04278
G1 X21.472 Y12.571 E0.04278
G1 X20.541 Y12.922 E0.04415
G1 X19.555 Y13.056 E0.04415
G1 X0.817 Y13.043 E0.83110
G1 X-0.560 Y12.777 E0.06223
G1 X-1.595 Y12.310 E0.05033
G1 X-2.476 Y11.585 E0.05064
G1 X-2.247 Y11.310 F10800.000
G1 F1674
G1 X-2.288 Y11.276 E0.00236
G1 X-2.922 Y10.344 E0.05000
G1 X-3.213 Y9.561 E0.03706
G1 X-3.337 Y8.735 E0.03706
G1 X-3.342 Y3.415 E0.23595
G1 X-3.280 Y2.751 E0.02958
G1 X-3.006 Y1.837 E0.04233
G1 X-2.529 Y1.016 E0.04211
G1 X-1.875 Y0.328 E0.04211
G1 X-1.075 Y-0.192 E0.04233
G1 X-0.209 Y-0.503 E0.04079
G1 X1.075 Y-0.701 E0.05763
G1 X19.460 Y-0.702 E0.81546
G1 X20.193 Y-0.634 E0.03266
G1 X20.902 Y-0.436 E0.03266
G1 X21.564 Y-0.112 E0.03266
G1 X22.156 Y0.325 E0.03266
G1 X22.657 Y0.858 E0.03244
G1 X23.052 Y1.468 E0.03222
G1 X23.356 Y2.207 E0.03544
G1 X23.513 Y2.896 E0.03134
G1 X23.552 Y8.590 E0.25257
G1 X23.439 Y9.498 E0.04057
G1 X23.127 Y10.383 E0.04163
G1 X22.656 Y11.144 E0.03970
G1 X22.018 Y11.793 E0.04036
G1 X21.256 Y12.281 E0.04014
G1 X20.420 Y12.586 E0.03948
G1 X19.538 Y12.701 E0.03948
G1 X0.852 Y12.689 E0.82880
G1 X-0.459 Y12.436 E0.05921
G1 X-1.423 Y11.999 E0.04694
G1 X-2.201 Y11.349 E0.04498
G1 X-2.048 Y11.012 F10800.000
G1 F1674
G1 X-2.627 Y10.138 E0.04650
G1 X-2.878 Y9.435 E0.03309
G1 X-2.983 Y8.697 E0.03309
G1 X-2.931 Y2.816 E0.26088
G1 X-2.676 Y1.970 E0.03917
G1 X-2.229 Y1.208 E0.03917
G1 X-1.614 Y0.574 E0.03917
G1 X-0.868 Y0.103 E0.03917
G1 X-0.100 Y-0.163 E0.03603
G1 X1.095 Y-0.345 E0.05361
G1 X19.460 Y-0.346 E0.81458
G1 X20.132 Y-0.284 E0.02993
G1 X20.781 Y-0.101 E0.02993
G1 X21.387 Y0.196 E0.02993
G1 X21.933 Y0.602 E0.03015
G1 X22.389 Y1.092 E0.02972
G1 X22.750 Y1.657 E0.02972
G1 X23.025 Y2.340 E0.03266
G1 X23.166 Y2.981 E0.02909
G1 X23.196 Y8.583 E0.24849
G1 X23.098 Y9.394 E0.03624
G1 X22.809 Y10.224 E0.03895
G1 X22.366 Y10.938 E0.03728
G1 X21.769 Y11.537 E0.03749
G1 X21.048 Y11.987 E0.03770
G1 X20.304 Y12.248 E0.03498
G1 X19.521 Y12.346 E0.03498
G1 X0.885 Y12.335 E0.82661
G1 X-0.349 Y12.097 E0.05574
G1 X-1.243 Y11.691 E0.04357
G1 X-2.002 Y11.051 E0.04405
G1 X-1.771 Y10.780 F10800.000
G1 F1674
G1 X-2.328 Y9.938 E0.04479
G1 X-2.541 Y9.314 E0.02926
G1 X-2.628 Y8.664 E0.02906
G1 X-2.581 Y2.879 E0.25663
G1 X-2.345 Y2.101 E0.03604
G1 X-1.930 Y1.403 E0.03604
G1 X-1.358 Y0.825 E0.03604
G1 X-0.665 Y0.401 E0.03604
G1 X0.003 Y0.178 E0.03126
G1 X1.110 Y0.010 E0.04965
G1 X19.460 Y0.009 E0.81388
G1 X20.071 Y0.066 E0.02726
G1 X20.667 Y0.236 E0.02746
G1 X21.221 Y0.512 E0.02746
G1 X21.712 Y0.882 E0.02726
G1 X22.124 Y1.331 E0.02706
G1 X22.446 Y1.844 E0.02686
G1 X22.695 Y2.476 E0.03009
G1 X22.817 Y3.060 E0.02646
G1 X22.840 Y8.577 E0.24471
G1 X22.757 Y9.290 E0.03186
G1 X22.490 Y10.066 E0.03638
G1 X22.080 Y10.725 E0.03445
G1 X21.522 Y11.278 E0.03485
G1 X20.847 Y11.688 E0.03505
G1 X20.192 Y11.909 E0.03066
G1 X19.505 Y11.990 E0.03066
G1 X0.922 Y11.981 E0.82426
G1 X-0.240 Y11.759 E0.05249
G1 X-1.062 Y11.385 E0.04002
G1 X-1.725 Y10.819 E0.03870
G1 X1.400 Y8.410 F10800.000
M204 S800
G1 F1674
G1 X1.400 Y3.590 E0.23183
G1 X19.230 Y3.590 E0.85755
G1 X19.230 Y8.410 E0.23183
G1 X1.460 Y8.410 E0.85466
M204 S1000
G1 X1.569 Y8.047 F10800.000
G1 X1.786 Y8.024
M204 S800
G1 F1674
G1 X1.786 Y3.976 E0.19474
G1 X18.844 Y3.976 E0.82045
G1 X18.844 Y8.024 E0.19474
G1 X1.846 Y8.024 E0.81757
M204 S1000
G1 X2.172 Y7.639 F10800.000
M204 S800
G1 F1500.000
G1 X2.172 Y4.361 E0.15764
G1 X18.459 Y4.361 E0.78336
G1 X18.459 Y7.639 E0.15764
G1 X2.232 Y7.639 E0.78047
M204 S1000
G1 X17.608 Y7.581 F10800.000
M204 S1250
G1 F1674
G1 X18.227 Y6.961 E0.04288
G1 X18.227 Y6.407 E0.02713
G1 X17.226 Y7.407 E0.06924
G1 X16.672 Y7.407 E0.02713
G1 X18.227 Y5.852 E0.10760
G1 X18.227 Y5.297 E0.02713
G1 X16.117 Y7.407 E0.14596
G1 X15.563 Y7.407 E0.02713
G1 X18.227 Y4.743 E0.18432
G1 X18.227 Y4.593 E0.00735
G1 X17.823 Y4.593 E0.01978
G1 X15.008 Y7.407 E0.19471
G1 X14.454 Y7.407 E0.02713
G1 X17.268 Y4.593 E0.19471
G1 X16.714 Y4.593 E0.02713
G1 X13.899 Y7.407 E0.19471
G1 X13.344 Y7.407 E0.02713
G1 X16.159 Y4.593 E0.19471
G1 X15.605 Y4.593 E0.02713
G1 X12.790 Y7.407 E0.19471
G1 X12.235 Y7.407 E0.02713
G1 X15.050 Y4.593 E0.19471
G1 X14.495 Y4.593 E0.02713
G1 X11.681 Y7.407 E0.19471
G1 X11.126 Y7.407 E0.02713
G1 X13.941 Y4.593 E0.19471
G1 X13.386 Y4.593 E0.02713
G1 X10.571 Y7.407 E0.19471
G1 X10.017 Y7.407 E0.02713
G1 X12.832 Y4.593 E0.19471
G1 X12.277 Y4.593 E0.02713
G1 X9.462 Y7.407 E0.19471
G1 X8.908 Y7.407 E0.02713
G1 X11.723 Y4.593 E0.19471
G1 X11.168 Y4.593 E0.02713
G1 X8.353 Y7.407 E0.19471
G1 X7.798 Y7.407 E0.02713
G1 X10.613 Y4.593 E0.19471
G1 X10.059 Y4.593 E0.02713
G1 X7.244 Y7.407 E0.19471
G1 X6.689 Y7.407 E0.02713
G1 X9.504 Y4.593 E0.19471
G1 X8.950 Y4.593 E0.02713
G1 X6.135 Y7.407 E0.19471
G1 X5.580 Y7.407 E0.02713
G1 X8.395 Y4.593 E0.19471
G1 X7.840 Y4.593 E0.02713
G1 X5.026 Y7.407 E0.19471
G1 X4.471 Y7.407 E0.02713
G1 X7.286 Y4.593 E0.19471
G1 X6.731 Y4.593 E0.02713
G1 X3.916 Y7.407 E0.19471
G1 X3.362 Y7.407 E0.02713
G1 X6.177 Y4.593 E0.19471
G1 X5.622 Y4.593 E0.02713
G1 X2.807 Y7.407 E0.19471
G1 X2.403 Y7.407 E0.01977
G1 X2.403 Y7.257 E0.00735
G1 X5.067 Y4.593 E0.18431
G1 X4.513 Y4.593 E0.02713
G1 X2.403 Y6.703 E0.14595
G1 X2.403 Y6.148 E0.02713
G1 X3.958 Y4.593 E0.10759
G1 X3.404 Y4.593 E0.02713
G1 X2.403 Y5.593 E0.06923
G1 X2.403 Y5.039 E0.02713
G1 X3.023 Y4.419 E0.04287
M204 S1000
;BEFORE_LAYER_CHANGE
G92 E0.0
;0.9


G1 Z0.900 F10800.000
;AFTER_LAYER_CHANGE
;0.9
G1 X1.850 Y3.500
M204 S800
G1 F900
G1 X19.200 Y3.500 E0.83445
G1 X19.200 Y8.500 E0.24049
G1 X1.850 Y8.500 E0.83445
G1 X1.850 Y3.560 E0.23761
M204 S1000
G1 X2.249 Y3.537 F10800.000
G1 X2.236 Y3.886
M204 S800
G1 F900
G1 X18.814 Y3.886 E0.79736
G1 X18.814 Y8.114 E0.20340
G1 X2.236 Y8.114 E0.79736
G1 X2.236 Y3.946 E0.20051
M204 S1000
G1 X2.622 Y4.271 F10800.000
M204 S800
G1 F900
G1 X18.429 Y4.271 E0.76026
G1 X18.429 Y7.729 E0.16630
G1 X2.622 Y7.729 E0.76026
G1 X2.622 Y4.331 E0.16342
M204 S1000
G1 X18.371 Y5.110 F10800.000
M204 S1250
G1 F900
G1 X17.764 Y4.503 E0.04134
G1 X17.218 Y4.503 E0.02629
G1 X18.197 Y5.482 E0.06670
G1 X18.197 Y6.028 E0.02629
G1 X16.672 Y4.503 E0.10389
G1 X16.126 Y4.503 E0.02629
G1 X18.197 Y6.574 E0.14107
M73 Q6 S14
M73 P6 R14
G1 X18.197 Y7.120 E0.02629
G1 X15.580 Y4.503 E0.17826
G1 X15.034 Y4.503 E0.02629
G1 X18.029 Y7.497 E0.20396
G1 X17.483 Y7.497 E0.02629
G1 X14.488 Y4.503 E0.20396
G1 X13.942 Y4.503 E0.02629
G1 X16.937 Y7.497 E0.20396
G1 X16.391 Y7.497 E0.02629
G1 X13.396 Y4.503 E0.20396
G1 X12.850 Y4.503 E0.02629
G1 X15.845 Y7.497 E0.20396
G1 X15.299 Y7.497 E0.02629
G1 X12.304 Y4.503 E0.20396
G1 X11.758 Y4.503 E0.02629
G1 X14.753 Y7.497 E0.20396
G1 X14.207 Y7.497 E0.02629
G1 X11.212 Y4.503 E0.20396
G1 X10.666 Y4.503 E0.02629
G1 X13.661 Y7.497 E0.20396
G1 X13.115 Y7.497 E0.02629
G1 X10.120 Y4.503 E0.20396
G1 X9.574 Y4.503 E0.02629
G1 X12.569 Y7.497 E0.20396
G1 X12.023 Y7.497 E0.02629
G1 X9.028 Y4.503 E0.20396
G1 X8.482 Y4.503 E0.02629
G1 X11.477 Y7.497 E0.20396
G1 X10.931 Y7.497 E0.02629
G1 X7.936 Y4.503 E0.20396
G1 X7.390 Y4.503 E0.02629
G1 X10.385 Y7.497 E0.20396
G1 X9.839 Y7.497 E0.02629
G1 X6.844 Y4.503 E0.20396
G1 X6.298 Y4.503 E0.02629
G1 X9.293 Y7.497 E0.20396
G1 X8.747 Y7.497 E0.02629
G1 X5.752 Y4.503 E0.20396
G1 X5.206 Y4.503 E0.02629
G1 X8.201 Y7.497 E0.20396
G1 X7.655 Y7.497 E0.02629
G1 X4.660 Y4.503 E0.20396
G1 X4.114 Y4.503 E0.02629
G1 X7.109 Y7.497 E0.20396
G1 X6.563 Y7.497 E0.02629
G1 X3.568 Y4.503 E0.20396
G1 X3.022 Y4.503 E0.02629
G1 X6.017 Y7.497 E0.20396
G1 X5.471 Y7.497 E0.02629
G1 X2.853 Y4.880 E0.17825
G1 X2.853 Y5.426 E0.02629
G1 X4.925 Y7.497 E0.14107
G1 X4.378 Y7.497 E0.02629
G1 X2.853 Y5.972 E0.10388
G1 X2.853 Y6.518 E0.02629
G1 X3.832 Y7.497 E0.06670
G1 X3.286 Y7.497 E0.02629
G1 X2.680 Y6.891 E0.04133
M204 S1000
;BEFORE_LAYER_CHANGE
G92 E0.0
;1.2


G1 Z1.200 F10800.000
;AFTER_LAYER_CHANGE
;1.2
G1 X2.301 Y8.590
M204 S800
G1 F900
G1 X2.301 Y3.410 E0.24915
G1 X19.170 Y3.410 E0.81135
G1 X19.170 Y8.590 E0.24915
G1 X2.361 Y8.590 E0.80847
M204 S1000
G1 X2.465 Y8.226 F10800.000
G1 X2.686 Y8.205
M204 S800
G1 F900
G1 X2.686 Y3.795 E0.21206
G1 X18.784 Y3.795 E0.77426
