; generated by PrusaSlicer 2.2.0+win64 on 2021-10-18 at 20:17:22 UTC

; 

; external perimeters extrusion width = 0.45mm
; perimeters extrusion width = 0.45mm
; infill extrusion width = 0.45mm
; solid infill extrusion width = 0.45mm
; top infill extrusion width = 0.40mm
; support material extrusion width = 0.35mm
; first layer extrusion width = 0.42mm

M73 P0 R12
M73 Q0 S12
M201 X1000 Y1000 Z1000 E5000 ; sets maximum accelerations, mm/sec^2
M203 X200 Y200 Z12 E120 ; sets maximum feedrates, mm/sec
M204 P1250 R1250 T1250 ; sets acceleration (P, T) and retract acceleration (R), mm/sec^2
M205 X8.00 Y8.00 Z0.40 E1.50 ; sets the jerk limits, mm/sec
M205 S0 T0 ; sets the minimum extruding and travel feed rate, mm/sec
M107
M190 S75 ; set bed temperature and wait for it to be reached
M104 S215 ; set temperature
M109 S215 ; set temperature and wait for it to be reached
G21 ; set units to millimeters
G90 ; use absolute coordinates
M83 ; use relative distances for extrusion
M900 K30 ; Filament gcode
;BEFORE_LAYER_CHANGE
G92 E0.0
;0.3


G1 Z0.300 F10800.000
;AFTER_LAYER_CHANGE
;0.3
G1 X-3.331 Y-1.763
M204 S1000
G1 F1200.000
G1 X-2.815 Y-2.650 E0.04552
M73 Q0 S12
M73 P0 R12
G1 X-2.113 Y-3.392 E0.04530
G1 X-1.259 Y-3.952 E0.04530
G1 X-0.345 Y-4.291 E0.04324
G1 X0.626 Y-4.421 E0.04346
G1 X19.505 Y-4.422 E0.83739
G1 X20.286 Y-4.352 E0.03475
G1 X21.041 Y-4.145 E0.03475
G1 X21.748 Y-3.808 E0.03475
G1 X22.389 Y-3.348 E0.03498
G1 X22.938 Y-2.782 E0.03498
G1 X23.375 Y-2.132 E0.03475
G1 X23.692 Y-1.409 E0.03498
G1 X23.875 Y-0.648 E0.03475
G1 X23.922 Y5.057 E0.25304
G1 X23.791 Y6.070 E0.04530
G1 X23.464 Y6.961 E0.04209
G1 X22.951 Y7.765 E0.04232
G1 X22.282 Y8.438 E0.04209
G1 X21.484 Y8.952 E0.04209
G1 X20.565 Y9.292 E0.04346
G1 X19.594 Y9.421 E0.04346
G1 X0.372 Y9.408 E0.85259
G1 X-0.738 Y9.173 E0.05033
G1 X-1.747 Y8.667 E0.05010
G1 X-2.596 Y7.921 E0.05010
G1 X-3.227 Y6.984 E0.05010
G1 X-3.550 Y6.131 E0.04049
G1 X-3.692 Y5.229 E0.04049
G1 X-3.697 Y-0.047 E0.23401
G1 X-3.627 Y-0.786 E0.03291
G1 X-3.348 Y-1.705 E0.04263
G1 X-3.008 Y-1.601 F10800.000
G1 F1200.000
G1 X-2.511 Y-2.463 E0.04413
G1 X-1.848 Y-3.149 E0.04233
G1 X-1.043 Y-3.662 E0.04233
G1 X-0.219 Y-3.956 E0.03882
G1 X0.644 Y-4.066 E0.03860
G1 X19.505 Y-4.067 E0.83656
G1 X20.228 Y-4.001 E0.03222
G1 X20.929 Y-3.808 E0.03222
G1 X21.588 Y-3.490 E0.03244
G1 X22.175 Y-3.063 E0.03222
G1 X22.677 Y-2.538 E0.03222
G1 X23.078 Y-1.933 E0.03222
G1 X23.365 Y-1.265 E0.03222
G1 X23.528 Y-0.557 E0.03222
G1 X23.567 Y5.050 E0.24871
G1 X23.450 Y5.967 E0.04101
G1 X23.143 Y6.808 E0.03970
G1 X22.662 Y7.557 E0.03948
G1 X22.027 Y8.187 E0.03970
G1 X21.268 Y8.662 E0.03970
G1 X20.444 Y8.956 E0.03882
G1 X19.576 Y9.066 E0.03882
G1 X0.406 Y9.054 E0.85025
G1 X-0.624 Y8.837 E0.04672
G1 X-1.568 Y8.359 E0.04694
G1 X-2.357 Y7.653 E0.04694
G1 X-2.937 Y6.768 E0.04694
G1 X-3.218 Y5.997 E0.03640
G1 X-3.338 Y5.185 E0.03640
G1 X-3.342 Y-0.040 E0.23176
G1 X-3.276 Y-0.728 E0.03068
G1 X-3.026 Y-1.544 E0.03783
G1 X-2.687 Y-1.439 F10800.000
G1 F1200.000
G1 X-2.667 Y-1.507 E0.00312
G1 X-2.212 Y-2.269 E0.03938
G1 X-1.592 Y-2.899 E0.03917
G1 X-0.838 Y-3.366 E0.03938
G1 X-0.105 Y-3.617 E0.03435
G1 X0.664 Y-3.711 E0.03435
G1 X19.505 Y-3.711 E0.83569
G1 X20.167 Y-3.651 E0.02951
G1 X20.813 Y-3.471 E0.02972
G1 X21.412 Y-3.181 E0.02951
G1 X21.953 Y-2.785 E0.02972
G1 X22.411 Y-2.302 E0.02951
G1 X22.777 Y-1.741 E0.02972
G1 X23.037 Y-1.124 E0.02972
G1 X23.181 Y-0.474 E0.02951
G1 X23.211 Y5.043 E0.24470
G1 X23.110 Y5.863 E0.03666
G1 X22.825 Y6.649 E0.03707
G1 X22.371 Y7.351 E0.03707
G1 X21.772 Y7.934 E0.03707
G1 X21.063 Y8.366 E0.03687
G1 X20.330 Y8.617 E0.03435
G1 X19.561 Y8.711 E0.03435
G1 X0.444 Y8.701 E0.84792
G1 X-0.512 Y8.499 E0.04336
G1 X-1.387 Y8.052 E0.04357
G1 X-2.113 Y7.391 E0.04357
G1 X-2.641 Y6.563 E0.04357
G1 X-2.882 Y5.872 E0.03246
G1 X-2.983 Y5.147 E0.03246
G1 X-2.986 Y-0.038 E0.22998
G1 X-2.927 Y-0.663 E0.02783
G1 X-2.705 Y-1.382 E0.03339
G1 X-2.578 Y-0.594 F10800.000
G1 F1200.000
G1 X-2.336 Y-1.375 E0.03624
G1 X-1.916 Y-2.070 E0.03604
G1 X-1.337 Y-2.647 E0.03624
G1 X-0.640 Y-3.065 E0.03604
G1 X0.003 Y-3.277 E0.03006
G1 X0.677 Y-3.355 E0.03006
G1 X19.505 Y-3.356 E0.83511
G1 X20.112 Y-3.299 E0.02706
G1 X20.695 Y-3.136 E0.02686
G1 X21.243 Y-2.867 E0.02706
G1 X21.730 Y-2.507 E0.02686
G1 X22.147 Y-2.062 E0.02706
G1 X22.475 Y-1.553 E0.02686
G1 X22.705 Y-0.993 E0.02686
G1 X22.832 Y-0.396 E0.02706
G1 X22.855 Y5.036 E0.24095
G1 X22.769 Y5.758 E0.03225
G1 X22.507 Y6.489 E0.03445
G1 X22.087 Y7.137 E0.03425
G1 X21.530 Y7.672 E0.03425
G1 X20.865 Y8.065 E0.03425
G1 X20.222 Y8.277 E0.03006
G1 X19.544 Y8.355 E0.03026
G1 X0.481 Y8.347 E0.84554
G1 X-0.402 Y8.161 E0.04002
G1 X-1.204 Y7.746 E0.04002
G1 X-1.866 Y7.133 E0.04002
G1 X-2.340 Y6.365 E0.04002
G1 X-2.545 Y5.753 E0.02866
G1 X-2.629 Y5.116 E0.02846
G1 X-2.578 Y-0.534 E0.25064
G1 X0.935 Y0.210 F10800.000
G1 F1200.000
G1 X19.290 Y0.210 E0.81413
G1 X19.290 Y4.790 E0.20315
G1 X0.935 Y4.790 E0.81413
G1 X0.935 Y0.270 E0.20048
G1 X1.334 Y0.243 F10800.000
G1 X1.291 Y0.566
G1 F1200.000
G1 X18.934 Y0.566 E0.78259
G1 X18.934 Y4.434 E0.17160
G1 X1.291 Y4.434 E0.78259
G1 X1.291 Y0.626 E0.16894
G1 X1.646 Y0.921 F10800.000
G1 F1200.000
G1 X18.579 Y0.921 E0.75104
G1 X18.579 Y4.079 E0.14005
G1 X1.646 Y4.079 E0.75104
G1 X1.646 Y0.981 E0.13739
G1 X18.525 Y1.706 F10800.000
G1 F1200.000
G1 X17.954 Y1.135 E0.03647
G1 X17.442 Y1.135 E0.02307
G1 X18.365 Y2.058 E0.05889
G1 X18.365 Y2.569 E0.02307
G1 X16.931 Y1.135 E0.09152
G1 X16.419 Y1.135 E0.02307
G1 X18.365 Y3.081 E0.12415
G1 X18.365 Y3.592 E0.02307
G1 X15.908 Y1.135 E0.15678
G1 X15.396 Y1.135 E0.02307
G1 X18.127 Y3.865 E0.17421
G1 X17.616 Y3.865 E0.02307
G1 X14.885 Y1.135 E0.17421
G1 X14.373 Y1.135 E0.02307
G1 X17.104 Y3.865 E0.17421
G1 X16.593 Y3.865 E0.02307
G1 X13.862 Y1.135 E0.17421
G1 X13.350 Y1.135 E0.02307
G1 X16.081 Y3.865 E0.17421
G1 X15.570 Y3.865 E0.02307
G1 X12.839 Y1.135 E0.17421
G1 X12.327 Y1.135 E0.02307
G1 X15.058 Y3.865 E0.17421
G1 X14.547 Y3.865 E0.02307
G1 X11.816 Y1.135 E0.17421
G1 X11.304 Y1.135 E0.02307
G1 X14.035 Y3.865 E0.17421
G1 X13.524 Y3.865 E0.02307
G1 X10.793 Y1.135 E0.17421
G1 X10.281 Y1.135 E0.02307
G1 X13.012 Y3.865 E0.17421
G1 X12.501 Y3.865 E0.02307
G1 X9.770 Y1.135 E0.17421
G1 X9.259 Y1.135 E0.02307
G1 X11.989 Y3.865 E0.17421
G1 X11.478 Y3.865 E0.02307
G1 X8.747 Y1.135 E0.17421
G1 X8.236 Y1.135 E0.02307
G1 X10.966 Y3.865 E0.17421
G1 X10.455 Y3.865 E0.02307
G1 X7.724 Y1.135 E0.17421
G1 X7.213 Y1.135 E0.02307
G1 X9.943 Y3.865 E0.17421
G1 X9.432 Y3.865 E0.02307
G1 X6.701 Y1.135 E0.17421
G1 X6.190 Y1.135 E0.02307
G1 X8.920 Y3.865 E0.17421
G1 X8.409 Y3.865 E0.02307
G1 X5.678 Y1.135 E0.17421
G1 X5.167 Y1.135 E0.02307
G1 X7.897 Y3.865 E0.17421
G1 X7.386 Y3.865 E0.02307
G1 X4.655 Y1.135 E0.17421
G1 X4.144 Y1.135 E0.02307
G1 X6.874 Y3.865 E0.17421
G1 X6.363 Y3.865 E0.02307
G1 X3.632 Y1.135 E0.17421
G1 X3.121 Y1.135 E0.02307
G1 X5.852 Y3.865 E0.17421
G1 X5.340 Y3.865 E0.02307
G1 X2.609 Y1.135 E0.17421
G1 X2.098 Y1.135 E0.02307
G1 X4.829 Y3.865 E0.17421
G1 X4.317 Y3.865 E0.02307
G1 X1.860 Y1.408 E0.15677
G1 X1.860 Y1.919 E0.02307
G1 X3.806 Y3.865 E0.12414
G1 X3.294 Y3.865 E0.02307
G1 X1.860 Y2.431 E0.09151
G1 X1.860 Y2.942 E0.02307
G1 X2.783 Y3.865 E0.05888
G1 X2.271 Y3.865 E0.02307
G1 X1.700 Y3.294 E0.03646
M106 S255
;BEFORE_LAYER_CHANGE
G92 E0.0
;0.6


G1 Z0.600 F10800.000
;AFTER_LAYER_CHANGE
;0.6
M104 S210 ; set temperature
G1 X-2.596 Y7.921
G1 F1634
G1 X-3.227 Y6.984 E0.05010
G1 X-3.550 Y6.131 E0.04049
G1 X-3.692 Y5.229 E0.04049
G1 X-3.697 Y-0.047 E0.23401
G1 X-3.627 Y-0.786 E0.03291
G1 X-3.331 Y-1.763 E0.04530
G1 X-2.815 Y-2.650 E0.04552
G1 X-2.113 Y-3.392 E0.04530
G1 X-1.259 Y-3.952 E0.04530
G1 X-0.345 Y-4.291 E0.04324
G1 X0.626 Y-4.421 E0.04346
G1 X19.505 Y-4.422 E0.83739
G1 X20.286 Y-4.352 E0.03475
G1 X21.041 Y-4.145 E0.03475
G1 X21.748 Y-3.808 E0.03475
G1 X22.389 Y-3.348 E0.03498
G1 X22.938 Y-2.782 E0.03498
G1 X23.375 Y-2.132 E0.03475
G1 X23.692 Y-1.409 E0.03498
G1 X23.875 Y-0.648 E0.03475
G1 X23.922 Y5.057 E0.25304
G1 X23.791 Y6.070 E0.04530
G1 X23.464 Y6.961 E0.04209
G1 X22.951 Y7.765 E0.04232
G1 X22.282 Y8.438 E0.04209
G1 X21.484 Y8.952 E0.04209
G1 X20.565 Y9.292 E0.04346
G1 X19.594 Y9.421 E0.04346
G1 X0.372 Y9.408 E0.85259
G1 X-0.738 Y9.173 E0.05033
G1 X-1.747 Y8.667 E0.05010
G1 X-2.551 Y7.960 E0.04744
G1 X-2.312 Y7.694 F10800.000
G1 F1634
G1 X-2.357 Y7.653 E0.00268
G1 X-2.937 Y6.768 E0.04694
G1 X-3.218 Y5.997 E0.03640
G1 X-3.338 Y5.185 E0.03640
G1 X-3.342 Y-0.040 E0.23176
G1 X-3.276 Y-0.728 E0.03068
G1 X-2.996 Y-1.641 E0.04233
G1 X-2.511 Y-2.463 E0.04233
G1 X-1.848 Y-3.149 E0.04233
G1 X-1.043 Y-3.662 E0.04233
G1 X-0.219 Y-3.956 E0.03882
G1 X0.644 Y-4.066 E0.03860
G1 X19.505 Y-4.067 E0.83656
G1 X20.228 Y-4.001 E0.03222
G1 X20.929 Y-3.808 E0.03222
G1 X21.588 Y-3.490 E0.03244
G1 X22.175 Y-3.063 E0.03222
G1 X22.677 Y-2.538 E0.03222
G1 X23.078 Y-1.933 E0.03222
G1 X23.365 Y-1.265 E0.03222
G1 X23.528 Y-0.557 E0.03222
G1 X23.567 Y5.050 E0.24871
G1 X23.450 Y5.967 E0.04101
G1 X23.143 Y6.808 E0.03970
G1 X22.662 Y7.557 E0.03948
G1 X22.027 Y8.187 E0.03970
G1 X21.268 Y8.662 E0.03970
G1 X20.444 Y8.956 E0.03882
G1 X19.576 Y9.066 E0.03882
G1 X0.406 Y9.054 E0.85025
G1 X-0.624 Y8.837 E0.04672
G1 X-1.568 Y8.359 E0.04694
G1 X-2.267 Y7.734 E0.04160
G1 X-2.113 Y7.391 F10800.000
G1 F1634
G1 X-2.641 Y6.563 E0.04357
G1 X-2.882 Y5.872 E0.03246
G1 X-2.983 Y5.147 E0.03246
G1 X-2.986 Y-0.038 E0.22998
G1 X-2.927 Y-0.663 E0.02783
G1 X-2.667 Y-1.507 E0.03917
G1 X-2.212 Y-2.269 E0.03938
G1 X-1.592 Y-2.899 E0.03917
G1 X-0.838 Y-3.366 E0.03938
G1 X-0.105 Y-3.617 E0.03435
G1 X0.664 Y-3.711 E0.03435
G1 X19.505 Y-3.711 E0.83569
G1 X20.167 Y-3.651 E0.02951
G1 X20.813 Y-3.471 E0.02972
G1 X21.412 Y-3.181 E0.02951
G1 X21.953 Y-2.785 E0.02972
G1 X22.411 Y-2.302 E0.02951
G1 X22.777 Y-1.741 E0.02972
G1 X23.037 Y-1.124 E0.02972
G1 X23.181 Y-0.474 E0.02951
G1 X23.211 Y5.043 E0.24470
G1 X23.110 Y5.863 E0.03666
G1 X22.825 Y6.649 E0.03707
G1 X22.371 Y7.351 E0.03707
G1 X21.772 Y7.934 E0.03707
G1 X21.063 Y8.366 E0.03687
G1 X20.330 Y8.617 E0.03435
G1 X19.561 Y8.711 E0.03435
G1 X0.444 Y8.701 E0.84792
G1 X-0.512 Y8.499 E0.04336
G1 X-1.387 Y8.052 E0.04357
G1 X-2.069 Y7.431 E0.04091
G1 X-1.826 Y7.169 F10800.000
G1 F1634
G1 X-1.866 Y7.133 E0.00238
G1 X-2.340 Y6.365 E0.04002
G1 X-2.545 Y5.753 E0.02866
G1 X-2.629 Y5.116 E0.02846
G1 X-2.578 Y-0.594 E0.25330
G1 X-2.336 Y-1.375 E0.03624
G1 X-1.916 Y-2.070 E0.03604
G1 X-1.337 Y-2.647 E0.03624
G1 X-0.640 Y-3.065 E0.03604
G1 X0.003 Y-3.277 E0.03006
G1 X0.677 Y-3.355 E0.03006
G1 X19.505 Y-3.356 E0.83511
G1 X20.112 Y-3.299 E0.02706
G1 X20.695 Y-3.136 E0.02686
G1 X21.243 Y-2.867 E0.02706
G1 X21.730 Y-2.507 E0.02686
G1 X22.147 Y-2.062 E0.02706
G1 X22.475 Y-1.553 E0.02686
G1 X22.705 Y-0.993 E0.02686
G1 X22.832 Y-0.396 E0.02706
G1 X22.855 Y5.036 E0.24095
G1 X22.769 Y5.758 E0.03225
G1 X22.507 Y6.489 E0.03445
G1 X22.087 Y7.137 E0.03425
G1 X21.530 Y7.672 E0.03425
G1 X20.865 Y8.065 E0.03425
G1 X20.222 Y8.277 E0.03006
G1 X19.544 Y8.355 E0.03026
G1 X0.481 Y8.347 E0.84554
G1 X-0.402 Y8.161 E0.04002
G1 X-1.204 Y7.746 E0.04002
G1 X-1.782 Y7.210 E0.03498
G1 X1.400 Y4.775 F10800.000
M204 S800
G1 F1634
G1 X1.400 Y0.225 E0.21884
G1 X19.275 Y0.225 E0.85973
G1 X19.275 Y4.775 E0.21884
G1 X1.460 Y4.775 E0.85684
M204 S1000
G1 X1.571 Y4.413 F10800.000
G1 X1.786 Y4.389
M204 S800
G1 F1634
G1 X1.786 Y0.611 E0.18175
G1 X18.889 Y0.611 E0.82263
G1 X18.889 Y4.389 E0.18175
G1 X1.846 Y4.389 E0.81975
M204 S1000
G1 X2.171 Y4.004 F10800.000
M204 S800
G1 F1500.000
G1 X2.171 Y0.996 E0.14465
G1 X18.504 Y0.996 E0.78554
G1 X18.504 Y4.004 E0.14465
G1 X2.231 Y4.004 E0.78265
M204 S1000
G1 X17.662 Y3.946 F10800.000
M204 S1250
G1 F1634
G1 X18.272 Y3.336 E0.04172
G1 X18.272 Y2.788 E0.02650
G1 X17.288 Y3.772 E0.06734
G1 X16.739 Y3.772 E0.02650
G1 X18.272 Y2.239 E0.10481
G1 X18.272 Y1.691 E0.02650
G1 X16.191 Y3.772 E0.14229
G1 X15.643 Y3.772 E0.02650
G1 X18.188 Y1.228 E0.17399
G1 X17.640 Y1.228 E0.02650
G1 X15.095 Y3.772 E0.17399
G1 X14.547 Y3.772 E0.02650
G1 X17.091 Y1.228 E0.17399
G1 X16.543 Y1.228 E0.02650
G1 X13.999 Y3.772 E0.17399
G1 X13.450 Y3.772 E0.02650
G1 X15.995 Y1.228 E0.17399
G1 X15.447 Y1.228 E0.02650
G1 X12.902 Y3.772 E0.17399
G1 X12.354 Y3.772 E0.02650
G1 X14.899 Y1.228 E0.17399
G1 X14.351 Y1.228 E0.02650
G1 X11.806 Y3.772 E0.17399
G1 X11.258 Y3.772 E0.02650
G1 X13.802 Y1.228 E0.17399
G1 X13.254 Y1.228 E0.02650
G1 X10.710 Y3.772 E0.17399
G1 X10.161 Y3.772 E0.02650
G1 X12.706 Y1.228 E0.17399
G1 X12.158 Y1.228 E0.02650
G1 X9.613 Y3.772 E0.17399
G1 X9.065 Y3.772 E0.02650
G1 X11.610 Y1.228 E0.17399
G1 X11.062 Y1.228 E0.02650
G1 X8.517 Y3.772 E0.17399
G1 X7.969 Y3.772 E0.02650
G1 X10.514 Y1.228 E0.17399
G1 X9.965 Y1.228 E0.02650
G1 X7.421 Y3.772 E0.17399
G1 X6.872 Y3.772 E0.02650
G1 X9.417 Y1.228 E0.17399
G1 X8.869 Y1.228 E0.02650
G1 X6.324 Y3.772 E0.17399
G1 X5.776 Y3.772 E0.02650
G1 X8.321 Y1.228 E0.17399
G1 X7.773 Y1.228 E0.02650
G1 X5.228 Y3.772 E0.17399
G1 X4.680 Y3.772 E0.02650
G1 X7.225 Y1.228 E0.17399
G1 X6.676 Y1.228 E0.02650
G1 X4.132 Y3.772 E0.17399
G1 X3.583 Y3.772 E0.02650
G1 X6.128 Y1.228 E0.17399
G1 X5.580 Y1.228 E0.02650
G1 X3.035 Y3.772 E0.17399
G1 X2.487 Y3.772 E0.02650
G1 X5.032 Y1.228 E0.17399
G1 X4.484 Y1.228 E0.02650
G1 X2.403 Y3.309 E0.14228
G1 X2.403 Y2.761 E0.02650
G1 X3.936 Y1.228 E0.10481
G1 X3.387 Y1.228 E0.02650
G1 X2.403 Y2.212 E0.06733
G1 X2.403 Y1.664 E0.02650
G1 X3.013 Y1.054 E0.04171
M204 S1000
;BEFORE_LAYER_CHANGE
G92 E0.0
;0.9


G1 Z0.900 F10800.000
;AFTER_LAYER_CHANGE
;0.9
G1 X1.850 Y0.225
M204 S800
G1 F900
G1 X19.275 Y0.225 E0.83808
G1 X19.275 Y4.775 E0.21884
G1 X1.850 Y4.775 E0.83808
G1 X1.850 Y0.285 E0.21595
M204 S1000
G1 X2.249 Y0.259 F10800.000
G1 X2.236 Y0.611
M204 S800
G1 F900
G1 X18.889 Y0.611 E0.80099
G1 X18.889 Y4.389 E0.18175
G1 X2.236 Y4.389 E0.80099
G1 X2.236 Y0.671 E0.17886
M204 S1000
G1 X2.621 Y0.996 F10800.000
M204 S800
G1 F900
G1 X18.504 Y0.996 E0.76390
G1 X18.504 Y4.004 E0.14465
G1 X2.621 Y4.004 E0.76390
G1 X2.621 Y1.056 E0.14177
M204 S1000
G1 X18.446 Y1.842 F10800.000
M204 S1250
G1 F900
G1 X17.831 Y1.228 E0.04224
G1 X17.280 Y1.228 E0.02678
G1 X18.272 Y2.220 E0.06819
G1 X18.272 Y2.771 E0.02678
G1 X16.729 Y1.228 E0.10606
G1 X16.178 Y1.228 E0.02678
G1 X18.272 Y3.322 E0.14393
G1 X18.272 Y3.772 E0.02190
G1 X18.172 Y3.772 E0.00488
G1 X15.627 Y1.228 E0.17490
G1 X15.076 Y1.228 E0.02678
G1 X17.621 Y3.772 E0.17490
M73 Q8 S11
M73 P8 R11
G1 X17.070 Y3.772 E0.02678
G1 X14.525 Y1.228 E0.17490
G1 X13.974 Y1.228 E0.02678
G1 X16.519 Y3.772 E0.17490
G1 X15.968 Y3.772 E0.02678
G1 X13.423 Y1.228 E0.17490
G1 X12.872 Y1.228 E0.02678
G1 X15.417 Y3.772 E0.17490
G1 X14.866 Y3.772 E0.02678
G1 X12.321 Y1.228 E0.17490
G1 X11.770 Y1.228 E0.02678
G1 X14.315 Y3.772 E0.17490
G1 X13.764 Y3.772 E0.02678
G1 X11.219 Y1.228 E0.17490
G1 X10.668 Y1.228 E0.02678
G1 X13.212 Y3.772 E0.17490
G1 X12.661 Y3.772 E0.02678
G1 X10.117 Y1.228 E0.17490
G1 X9.566 Y1.228 E0.02678
G1 X12.110 Y3.772 E0.17490
G1 X11.559 Y3.772 E0.02678
G1 X9.015 Y1.228 E0.17490
G1 X8.463 Y1.228 E0.02678
G1 X11.008 Y3.772 E0.17490
G1 X10.457 Y3.772 E0.02678
G1 X7.912 Y1.228 E0.17490
G1 X7.361 Y1.228 E0.02678
G1 X9.906 Y3.772 E0.17490
G1 X9.355 Y3.772 E0.02678
G1 X6.810 Y1.228 E0.17490
G1 X6.259 Y1.228 E0.02678
G1 X8.804 Y3.772 E0.17490
G1 X8.253 Y3.772 E0.02678
G1 X5.708 Y1.228 E0.17490
G1 X5.157 Y1.228 E0.02678
G1 X7.702 Y3.772 E0.17490
G1 X7.151 Y3.772 E0.02678
G1 X4.606 Y1.228 E0.17490
G1 X4.055 Y1.228 E0.02678
G1 X6.600 Y3.772 E0.17490
G1 X6.049 Y3.772 E0.02678
G1 X3.504 Y1.228 E0.17490
G1 X2.953 Y1.228 E0.02678
G1 X5.498 Y3.772 E0.17490
G1 X4.947 Y3.772 E0.02678
G1 X2.853 Y1.678 E0.14393
G1 X2.853 Y2.229 E0.02678
G1 X4.396 Y3.772 E0.10605
G1 X3.845 Y3.772 E0.02678
G1 X2.853 Y2.780 E0.06818
G1 X2.853 Y3.331 E0.02678
G1 X3.467 Y3.946 E0.04223
M204 S1000
;BEFORE_LAYER_CHANGE
G92 E0.0
;1.2


G1 Z1.200 F10800.000
;AFTER_LAYER_CHANGE
;1.2
G1 X2.300 Y4.775
M204 S800
G1 F900
G1 X2.300 Y0.225 E0.21884
G1 X19.275 Y0.225 E0.81644
G1 X19.275 Y4.775 E0.21884
G1 X2.360 Y4.775 E0.81355
M204 S1000
G1 X2.469 Y4.412 F10800.000
G1 X2.686 Y4.389
M204 S800
G1 F900
