; generated by PrusaSlicer 2.2.0+win64 on 2021-09-20 at 18:17:00 UTC

; 

; external perimeters extrusion width = 0.45mm
; perimeters extrusion width = 0.45mm
; infill extrusion width = 0.45mm
; solid infill extrusion width = 0.45mm
; top infill extrusion width = 0.40mm
; support material extrusion width = 0.35mm
; first layer extrusion width = 0.42mm

M73 P0 R15
M73 Q0 S15
M201 X1000 Y1000 Z1000 E5000 ; sets maximum accelerations, mm/sec^2
M203 X200 Y200 Z12 E120 ; sets maximum feedrates, mm/sec
M204 P1250 R1250 T1250 ; sets acceleration (P, T) and retract acceleration (R), mm/sec^2
M205 X8.00 Y8.00 Z0.40 E1.50 ; sets the jerk limits, mm/sec
M205 S0 T0 ; sets the minimum extruding and travel feed rate, mm/sec
M107
M190 S75 ; set bed temperature and wait for it to be reached
M104 S215 ; set temperature
M109 S215 ; set temperature and wait for it to be reached
G21 ; set units to millimeters
G90 ; use absolute coordinates
M83 ; use relative distances for extrusion
M900 K30 ; Filament gcode
;BEFORE_LAYER_CHANGE
G92 E0.0
;0.2


G1 Z0.200 F10800.000
;AFTER_LAYER_CHANGE
;0.2
G1 X-0.533 Y-3.289
M204 S1000
G1 F1200.000
G1 X0.729 Y-3.507 E0.04016
M73 Q0 S15
M73 P0 R15
G1 X7.150 Y-3.508 E0.20133
G1 X7.938 Y-3.438 E0.02480
G1 X8.707 Y-3.229 E0.02497
G1 X9.422 Y-2.891 E0.02480
G1 X10.071 Y-2.430 E0.02497
G1 X10.629 Y-1.862 E0.02497
G1 X11.078 Y-1.204 E0.02497
G1 X11.403 Y-0.483 E0.02480
G1 X11.597 Y0.290 E0.02497
G1 X11.653 Y0.989 E0.02202
G1 X11.653 Y22.896 E0.68687
G1 X11.531 Y23.930 E0.03266
G1 X11.103 Y25.044 E0.03739
G1 X10.403 Y26.002 E0.03723
G1 X9.471 Y26.747 E0.03739
G1 X8.383 Y27.221 E0.03723
G1 X7.171 Y27.394 E0.03837
G1 X0.782 Y27.393 E0.20035
G1 X-0.190 Y27.271 E0.03070
G1 X-0.839 Y27.064 E0.02136
G1 X-1.453 Y26.758 E0.02153
G1 X-2.015 Y26.363 E0.02153
G1 X-2.509 Y25.887 E0.02153
G1 X-2.923 Y25.346 E0.02136
G1 X-3.253 Y24.743 E0.02153
G1 X-3.487 Y24.098 E0.02153
G1 X-3.620 Y23.430 E0.02136
G1 X-3.653 Y0.984 E0.70377
G1 X-3.531 Y-0.045 E0.03249
G1 X-3.123 Y-1.121 E0.03609
G1 X-2.456 Y-2.059 E0.03609
G1 X-1.574 Y-2.798 E0.03609
G1 X-0.587 Y-3.264 E0.03420
G1 X-0.354 Y-2.950 F10800.000
G1 F1200.000
G1 X0.758 Y-3.130 E0.03531
G1 X7.150 Y-3.131 E0.20042
G1 X7.884 Y-3.065 E0.02311
G1 X8.590 Y-2.870 E0.02296
G1 X9.251 Y-2.554 E0.02296
G1 X9.845 Y-2.127 E0.02296
G1 X10.355 Y-1.601 E0.02296
G1 X10.766 Y-0.989 E0.02311
G1 X11.060 Y-0.319 E0.02296
G1 X11.231 Y0.393 E0.02296
G1 X11.276 Y22.901 E0.70572
G1 X11.161 Y23.856 E0.03016
G1 X10.762 Y24.882 E0.03453
G1 X10.106 Y25.767 E0.03453
G1 X9.239 Y26.447 E0.03453
G1 X8.224 Y26.874 E0.03453
G1 X7.157 Y27.017 E0.03375
G1 X0.790 Y27.016 E0.19963
G1 X-0.115 Y26.901 E0.02860
G1 X-1.276 Y26.425 E0.03937
G1 X-2.241 Y25.621 E0.03937
G1 X-2.920 Y24.565 E0.03937
G1 X-3.250 Y23.353 E0.03937
G1 X-3.276 Y0.985 E0.70134
G1 X-3.161 Y0.030 E0.03016
G1 X-2.776 Y-0.970 E0.03360
G1 X-2.151 Y-1.834 E0.03344
G1 X-1.325 Y-2.509 E0.03344
G1 X-0.409 Y-2.926 E0.03156
G1 X-0.184 Y-2.608 F10800.000
G1 F1200.000
G1 X0.779 Y-2.753 E0.03053
G1 X7.150 Y-2.754 E0.19976
G1 X7.816 Y-2.694 E0.02098
G1 X8.466 Y-2.514 E0.02113
G1 X9.069 Y-2.224 E0.02098
G1 X9.614 Y-1.828 E0.02113
G1 X10.077 Y-1.344 E0.02098
G1 X10.449 Y-0.782 E0.02113
G1 X10.713 Y-0.167 E0.02098
G1 X10.864 Y0.490 E0.02113
G1 X10.899 Y22.895 E0.70251
G1 X10.791 Y23.782 E0.02800
G1 X10.419 Y24.723 E0.03172
G1 X9.810 Y25.530 E0.03172
G1 X9.007 Y26.146 E0.03172
G1 X8.069 Y26.525 E0.03172
G1 X7.149 Y26.640 E0.02904
G1 X0.798 Y26.639 E0.19916
G1 X-0.041 Y26.531 E0.02651
G1 X-1.098 Y26.092 E0.03588
G1 X-1.976 Y25.351 E0.03603
G1 X-2.589 Y24.379 E0.03603
G1 X-2.879 Y23.272 E0.03588
G1 X-2.899 Y0.986 E0.69879
G1 X-2.791 Y0.104 E0.02785
G1 X-2.433 Y-0.812 E0.03083
G1 X-1.850 Y-1.603 E0.03083
G1 X-1.085 Y-2.214 E0.03068
G1 X-0.239 Y-2.583 E0.02895
G1 X-0.845 Y-1.918 F10800.000
G1 F1200.000
G1 X-0.018 Y-2.262 E0.02810
G1 X0.803 Y-2.377 E0.02598
G1 X7.150 Y-2.377 E0.19899
G1 X7.759 Y-2.321 E0.01919
G1 X8.344 Y-2.157 E0.01905
G1 X8.890 Y-1.891 E0.01905
G1 X9.380 Y-1.532 E0.01905
G1 X9.798 Y-1.090 E0.01905
G1 X10.131 Y-0.577 E0.01919
G1 X10.367 Y-0.012 E0.01919
G1 X10.496 Y0.581 E0.01905
G1 X10.522 Y22.895 E0.69962
G1 X10.421 Y23.704 E0.02556
G1 X10.077 Y24.561 E0.02895
G1 X9.518 Y25.289 E0.02881
G1 X8.782 Y25.840 E0.02881
G1 X7.921 Y26.172 E0.02895
G1 X7.188 Y26.263 E0.02316
G1 X0.850 Y26.263 E0.19870
G1 X0.037 Y26.162 E0.02570
G1 X-0.917 Y25.760 E0.03247
G1 X-1.705 Y25.088 E0.03247
G1 X-2.252 Y24.209 E0.03247
G1 X-2.507 Y23.205 E0.03247
G1 X-2.522 Y0.986 E0.69665
G1 X-2.421 Y0.182 E0.02542
G1 X-2.091 Y-0.651 E0.02810
G1 X-1.553 Y-1.368 E0.02810
G1 X-0.892 Y-1.881 E0.02622
G1 X1.065 Y1.210 F10800.000
G1 F1200.000
G1 X6.935 Y1.210 E0.18405
G1 X6.935 Y22.676 E0.67304
G1 X1.065 Y22.676 E0.18405
G1 X1.065 Y1.270 E0.67116
G1 X1.428 Y1.378 F10800.000
G1 X1.442 Y1.587
G1 F1200.000
G1 X6.558 Y1.587 E0.16040
G1 X6.558 Y22.299 E0.64940
G1 X1.442 Y22.299 E0.16040
G1 X1.442 Y1.647 E0.64752
G1 X1.819 Y1.964 F10800.000
G1 F1200.000
G1 X6.181 Y1.964 E0.13676
G1 X6.181 Y21.922 E0.62575
G1 X1.819 Y21.922 E0.13676
G1 X1.819 Y2.024 E0.62387
G1 X2.196 Y2.341 F10800.000
G1 F1200.000
G1 X5.804 Y2.341 E0.11311
G1 X5.804 Y21.544 E0.60210
G1 X2.196 Y21.544 E0.11311
G1 X2.196 Y2.401 E0.60022
G1 X2.573 Y2.718 F10800.000
G1 F1200.000
G1 X5.427 Y2.718 E0.08947
G1 X5.427 Y21.167 E0.57846
G1 X2.573 Y21.167 E0.08947
G1 X2.573 Y2.778 E0.57658
G1 X2.630 Y20.335 F10800.000
G1 F1200.000
G1 X3.236 Y20.941 E0.02733
G1 X3.778 Y20.941 E0.01729
G1 X2.800 Y19.962 E0.04414
G1 X2.800 Y19.420 E0.01729
G1 X4.321 Y20.941 E0.06860
G1 X4.863 Y20.941 E0.01729
G1 X2.800 Y18.878 E0.09305
G1 X2.800 Y18.335 E0.01729
G1 X5.200 Y20.736 E0.10827
G1 X5.200 Y20.194 E0.01729
G1 X2.800 Y17.793 E0.10827
G1 X2.800 Y17.251 E0.01729
G1 X5.200 Y19.652 E0.10827
G1 X5.200 Y19.109 E0.01729
G1 X2.800 Y16.708 E0.10827
G1 X2.800 Y16.166 E0.01729
G1 X5.200 Y18.567 E0.10827
G1 X5.200 Y18.025 E0.01729
G1 X2.800 Y15.624 E0.10827
G1 X2.800 Y15.081 E0.01729
G1 X5.200 Y17.482 E0.10827
G1 X5.200 Y16.940 E0.01729
G1 X2.800 Y14.539 E0.10827
G1 X2.800 Y13.997 E0.01729
G1 X5.200 Y16.397 E0.10827
G1 X5.200 Y15.855 E0.01729
G1 X2.800 Y13.454 E0.10827
G1 X2.800 Y12.912 E0.01729
G1 X5.200 Y15.313 E0.10827
G1 X5.200 Y14.770 E0.01729
G1 X2.800 Y12.370 E0.10827
G1 X2.800 Y11.827 E0.01729
G1 X5.200 Y14.228 E0.10827
G1 X5.200 Y13.686 E0.01729
G1 X2.800 Y11.285 E0.10827
G1 X2.800 Y10.742 E0.01729
G1 X5.200 Y13.143 E0.10827
G1 X5.200 Y12.601 E0.01729
G1 X2.800 Y10.200 E0.10827
G1 X2.800 Y9.658 E0.01729
G1 X5.200 Y12.059 E0.10827
G1 X5.200 Y11.516 E0.01729
G1 X2.800 Y9.115 E0.10827
G1 X2.800 Y8.573 E0.01729
G1 X5.200 Y10.974 E0.10827
G1 X5.200 Y10.432 E0.01729
G1 X2.800 Y8.031 E0.10827
G1 X2.800 Y7.488 E0.01729
G1 X5.200 Y9.889 E0.10827
G1 X5.200 Y9.347 E0.01729
G1 X2.800 Y6.946 E0.10827
G1 X2.800 Y6.404 E0.01729
G1 X5.200 Y8.805 E0.10827
G1 X5.200 Y8.262 E0.01729
G1 X2.800 Y5.861 E0.10827
G1 X2.800 Y5.319 E0.01729
G1 X5.200 Y7.720 E0.10827
G1 X5.200 Y7.178 E0.01729
G1 X2.800 Y4.777 E0.10827
G1 X2.800 Y4.234 E0.01729
G1 X5.200 Y6.635 E0.10827
G1 X5.200 Y6.093 E0.01729
G1 X2.800 Y3.692 E0.10827
G1 X2.800 Y3.150 E0.01729
G1 X5.200 Y5.550 E0.10827
G1 X5.200 Y5.008 E0.01729
G1 X3.137 Y2.945 E0.09306
G1 X3.679 Y2.945 E0.01729
G1 X5.200 Y4.466 E0.06860
G1 X5.200 Y3.923 E0.01729
G1 X4.222 Y2.945 E0.04414
G1 X4.764 Y2.945 E0.01729
G1 X5.370 Y3.551 E0.02734
M106 S255
;BEFORE_LAYER_CHANGE
G92 E0.0
;0.4


G1 Z0.400 F10800.000
;AFTER_LAYER_CHANGE
;0.4
M104 S210 ; set temperature
G1 X11.597 Y0.290
G1 F2002
G1 X11.653 Y0.989 E0.02202
G1 X11.653 Y22.896 E0.68687
G1 X11.531 Y23.930 E0.03266
G1 X11.103 Y25.044 E0.03739
G1 X10.403 Y26.002 E0.03723
G1 X9.471 Y26.747 E0.03739
G1 X8.383 Y27.221 E0.03723
G1 X7.171 Y27.394 E0.03837
G1 X0.782 Y27.393 E0.20035
G1 X-0.190 Y27.271 E0.03070
G1 X-0.839 Y27.064 E0.02136
G1 X-1.453 Y26.758 E0.02153
G1 X-2.015 Y26.363 E0.02153
G1 X-2.509 Y25.887 E0.02153
G1 X-2.923 Y25.346 E0.02136
G1 X-3.253 Y24.743 E0.02153
G1 X-3.487 Y24.098 E0.02153
G1 X-3.620 Y23.430 E0.02136
G1 X-3.653 Y0.984 E0.70377
G1 X-3.531 Y-0.045 E0.03249
G1 X-3.123 Y-1.121 E0.03609
G1 X-2.456 Y-2.059 E0.03609
G1 X-1.574 Y-2.798 E0.03609
G1 X-0.533 Y-3.289 E0.03609
G1 X0.729 Y-3.507 E0.04016
G1 X7.150 Y-3.508 E0.20133
G1 X7.938 Y-3.438 E0.02480
G1 X8.707 Y-3.229 E0.02497
G1 X9.422 Y-2.891 E0.02480
G1 X10.071 Y-2.430 E0.02497
G1 X10.629 Y-1.862 E0.02497
G1 X11.078 Y-1.204 E0.02497
G1 X11.403 Y-0.483 E0.02480
G1 X11.582 Y0.231 E0.02309
G1 X11.214 Y0.320 F10800.000
G1 F2002
G1 X11.231 Y0.393 E0.00235
G1 X11.276 Y22.901 E0.70572
G1 X11.161 Y23.856 E0.03016
G1 X10.762 Y24.882 E0.03453
G1 X10.106 Y25.767 E0.03453
G1 X9.239 Y26.447 E0.03453
G1 X8.224 Y26.874 E0.03453
G1 X7.157 Y27.017 E0.03375
G1 X0.790 Y27.016 E0.19963
G1 X-0.115 Y26.901 E0.02860
G1 X-1.276 Y26.425 E0.03937
G1 X-2.241 Y25.621 E0.03937
G1 X-2.920 Y24.565 E0.03937
G1 X-3.250 Y23.353 E0.03937
G1 X-3.276 Y0.985 E0.70134
G1 X-3.161 Y0.030 E0.03016
G1 X-2.776 Y-0.970 E0.03360
G1 X-2.151 Y-1.834 E0.03344
G1 X-1.325 Y-2.509 E0.03344
G1 X-0.354 Y-2.950 E0.03344
G1 X0.758 Y-3.130 E0.03531
G1 X7.150 Y-3.131 E0.20042
G1 X7.884 Y-3.065 E0.02311
G1 X8.590 Y-2.870 E0.02296
G1 X9.251 Y-2.554 E0.02296
G1 X9.845 Y-2.127 E0.02296
G1 X10.355 Y-1.601 E0.02296
G1 X10.766 Y-0.989 E0.02311
G1 X11.060 Y-0.319 E0.02296
G1 X11.200 Y0.262 E0.01872
G1 X10.831 Y0.346 F10800.000
G1 F2002
G1 X10.864 Y0.490 E0.00461
G1 X10.899 Y22.895 E0.70251
G1 X10.791 Y23.782 E0.02800
G1 X10.419 Y24.723 E0.03172
G1 X9.810 Y25.530 E0.03172
G1 X9.007 Y26.146 E0.03172
G1 X8.069 Y26.525 E0.03172
G1 X7.149 Y26.640 E0.02904
G1 X0.798 Y26.639 E0.19916
G1 X-0.041 Y26.531 E0.02651
G1 X-1.098 Y26.092 E0.03588
G1 X-1.976 Y25.351 E0.03603
G1 X-2.589 Y24.379 E0.03603
G1 X-2.879 Y23.272 E0.03588
G1 X-2.899 Y0.986 E0.69879
G1 X-2.791 Y0.104 E0.02785
G1 X-2.433 Y-0.812 E0.03083
G1 X-1.850 Y-1.603 E0.03083
G1 X-1.085 Y-2.214 E0.03068
G1 X-0.184 Y-2.608 E0.03083
G1 X0.779 Y-2.753 E0.03053
G1 X7.150 Y-2.754 E0.19976
G1 X7.816 Y-2.694 E0.02098
G1 X8.466 Y-2.514 E0.02113
G1 X9.069 Y-2.224 E0.02098
G1 X9.614 Y-1.828 E0.02113
G1 X10.077 Y-1.344 E0.02098
G1 X10.449 Y-0.782 E0.02113
G1 X10.713 Y-0.167 E0.02098
G1 X10.818 Y0.288 E0.01464
G1 X10.496 Y0.581 F10800.000
G1 F2002
G1 X10.522 Y22.895 E0.69962
G1 X10.421 Y23.704 E0.02556
G1 X10.077 Y24.561 E0.02895
G1 X9.518 Y25.289 E0.02881
G1 X8.782 Y25.840 E0.02881
G1 X7.921 Y26.172 E0.02895
G1 X7.188 Y26.263 E0.02316
G1 X0.850 Y26.263 E0.19870
G1 X0.037 Y26.162 E0.02570
G1 X-0.917 Y25.760 E0.03247
G1 X-1.705 Y25.088 E0.03247
G1 X-2.252 Y24.209 E0.03247
G1 X-2.507 Y23.205 E0.03247
G1 X-2.522 Y0.986 E0.69665
G1 X-2.421 Y0.182 E0.02542
G1 X-2.091 Y-0.651 E0.02810
G1 X-1.553 Y-1.368 E0.02810
G1 X-0.845 Y-1.918 E0.02810
G1 X-0.018 Y-2.262 E0.02810
G1 X0.803 Y-2.377 E0.02598
G1 X7.150 Y-2.377 E0.19899
G1 X7.759 Y-2.321 E0.01919
G1 X8.344 Y-2.157 E0.01905
G1 X8.890 Y-1.891 E0.01905
G1 X9.380 Y-1.532 E0.01905
G1 X9.798 Y-1.090 E0.01905
G1 X10.131 Y-0.577 E0.01919
G1 X10.367 Y-0.012 E0.01919
G1 X10.483 Y0.523 E0.01717
G1 X6.720 Y1.225 F10800.000
M204 S800
G1 F2002
G1 X6.720 Y22.432 E0.71784
G1 X1.280 Y22.432 E0.18414
G1 X1.280 Y1.225 E0.71784
G1 X6.660 Y1.225 E0.18211
M204 S1000
G1 X6.687 Y1.624 F10800.000
G1 X6.313 Y1.632
M204 S800
G1 F2002
G1 X6.313 Y22.025 E0.69028
G1 X1.687 Y22.025 E0.15658
G1 X1.687 Y1.632 E0.69028
G1 X6.253 Y1.632 E0.15455
M204 S1000
G1 X5.906 Y2.039 F10800.000
M204 S800
G1 F2002
G1 X5.906 Y21.618 E0.66272
G1 X2.094 Y21.618 E0.12902
G1 X2.094 Y2.039 E0.66272
G1 X5.846 Y2.039 E0.12699
M204 S1000
G1 X5.499 Y2.446 F10800.000
M204 S800
G1 F2002
G1 X5.499 Y21.211 E0.63516
G1 X2.501 Y21.211 E0.10146
G1 X2.501 Y2.446 E0.63516
G1 X5.439 Y2.446 E0.09943
M204 S1000
G1 X5.092 Y2.853 F10800.000
M204 S800
G1 F1500.000
G1 X5.092 Y20.804 E0.60760
G1 X2.908 Y20.804 E0.07390
G1 X2.908 Y2.853 E0.60760
G1 X5.032 Y2.853 E0.07187
M204 S1000
G1 X4.190 Y20.743 F10800.000
M204 S1250
G1 F2002
G1 X4.847 Y20.086 E0.03210
G1 X4.847 Y19.498 E0.02029
G1 X3.786 Y20.560 E0.05184
G1 X3.199 Y20.560 E0.02029
G1 X4.847 Y18.911 E0.08053
G1 X4.847 Y18.323 E0.02029
G1 X3.153 Y20.018 E0.08278
G1 X3.153 Y19.431 E0.02029
G1 X4.847 Y17.736 E0.08278
G1 X4.847 Y17.149 E0.02029
G1 X3.153 Y18.843 E0.08278
G1 X3.153 Y18.256 E0.02029
G1 X4.847 Y16.561 E0.08278
G1 X4.847 Y15.974 E0.02029
G1 X3.153 Y17.669 E0.08278
G1 X3.153 Y17.081 E0.02029
G1 X4.847 Y15.386 E0.08278
G1 X4.847 Y14.799 E0.02029
G1 X3.153 Y16.494 E0.08278
G1 X3.153 Y15.907 E0.02029
G1 X4.847 Y14.212 E0.08278
G1 X4.847 Y13.624 E0.02029
G1 X3.153 Y15.319 E0.08278
G1 X3.153 Y14.732 E0.02029
G1 X4.847 Y13.037 E0.08278
G1 X4.847 Y12.450 E0.02029
G1 X3.153 Y14.144 E0.08278
G1 X3.153 Y13.557 E0.02029
G1 X4.847 Y11.862 E0.08278
G1 X4.847 Y11.275 E0.02029
G1 X3.153 Y12.970 E0.08278
G1 X3.153 Y12.382 E0.02029
G1 X4.847 Y10.687 E0.08278
G1 X4.847 Y10.100 E0.02029
G1 X3.153 Y11.795 E0.08278
G1 X3.153 Y11.207 E0.02029
G1 X4.847 Y9.513 E0.08278
G1 X4.847 Y8.925 E0.02029
G1 X3.153 Y10.620 E0.08278
G1 X3.153 Y10.033 E0.02029
G1 X4.847 Y8.338 E0.08278
G1 X4.847 Y7.750 E0.02029
G1 X3.153 Y9.445 E0.08278
G1 X3.153 Y8.858 E0.02029
G1 X4.847 Y7.163 E0.08278
G1 X4.847 Y6.576 E0.02029
G1 X3.153 Y8.271 E0.08278
G1 X3.153 Y7.683 E0.02029
G1 X4.847 Y5.988 E0.08278
G1 X4.847 Y5.401 E0.02029
G1 X3.153 Y7.096 E0.08278
G1 X3.153 Y6.508 E0.02029
G1 X4.847 Y4.814 E0.08278
G1 X4.847 Y4.226 E0.02029
G1 X3.153 Y5.921 E0.08278
G1 X3.153 Y5.334 E0.02029
G1 X4.847 Y3.639 E0.08278
G1 X4.847 Y3.098 E0.01869
G1 X4.801 Y3.098 E0.00159
G1 X3.153 Y4.746 E0.08052
G1 X3.153 Y4.159 E0.02029
G1 X4.214 Y3.098 E0.05184
G1 X3.626 Y3.098 E0.02029
G1 X2.969 Y3.755 E0.03209
M204 S1000
;BEFORE_LAYER_CHANGE
G92 E0.0
;0.6


G1 Z0.600 F10800.000
;AFTER_LAYER_CHANGE
;0.6
G1 X1.480 Y1.225
M204 S800
G1 F912
G1 X6.520 Y1.225 E0.17060
G1 X6.520 Y22.204 E0.71010
G1 X1.480 Y22.204 E0.17060
M73 Q6 S14
M73 P6 R14
G1 X1.480 Y1.285 E0.70807
M204 S1000
G1 X1.841 Y1.397 F10800.000
G1 X1.887 Y1.632
M204 S800
G1 F912
G1 X6.113 Y1.632 E0.14304
G1 X6.113 Y21.796 E0.68254
G1 X1.887 Y21.796 E0.14304
G1 X1.887 Y1.692 E0.68051
M204 S1000
G1 X2.294 Y2.039 F10800.000
M204 S800
G1 F912
G1 X5.706 Y2.039 E0.11548
G1 X5.706 Y21.389 E0.65498
G1 X2.294 Y21.389 E0.11548
G1 X2.294 Y2.099 E0.65295
M204 S1000
G1 X2.701 Y2.446 F10800.000
M204 S800
G1 F912
G1 X5.299 Y2.446 E0.08792
G1 X5.299 Y20.982 E0.62742
G1 X2.701 Y20.982 E0.08792
G1 X2.701 Y2.506 E0.62539
M204 S1000
G1 X3.108 Y2.853 F10800.000
M204 S800
G1 F912
G1 X4.892 Y2.853 E0.06036
G1 X4.892 Y20.575 E0.59987
G1 X3.108 Y20.575 E0.06036
G1 X3.108 Y2.913 E0.59784
M204 S1000
G1 X3.169 Y19.676 F10800.000
M204 S1250
G1 F912
G1 X3.825 Y20.331 E0.03194
G1 X4.411 Y20.331 E0.02020
G1 X3.353 Y19.273 E0.05157
G1 X3.353 Y18.687 E0.02020
G1 X4.647 Y19.982 E0.06311
G1 X4.647 Y19.395 E0.02020
G1 X3.353 Y18.101 E0.06311
G1 X3.353 Y17.514 E0.02020
G1 X4.647 Y18.809 E0.06311
G1 X4.647 Y18.223 E0.02020
G1 X3.353 Y16.928 E0.06311
G1 X3.353 Y16.342 E0.02020
G1 X4.647 Y17.637 E0.06311
G1 X4.647 Y17.051 E0.02020
G1 X3.353 Y15.756 E0.06311
G1 X3.353 Y15.170 E0.02020
G1 X4.647 Y16.465 E0.06311
G1 X4.647 Y15.879 E0.02020
G1 X3.353 Y14.584 E0.06311
G1 X3.353 Y13.998 E0.02020
G1 X4.647 Y15.292 E0.06311
G1 X4.647 Y14.706 E0.02020
G1 X3.353 Y13.411 E0.06311
G1 X3.353 Y12.825 E0.02020
G1 X4.647 Y14.120 E0.06311
G1 X4.647 Y13.534 E0.02020
G1 X3.353 Y12.239 E0.06311
G1 X3.353 Y11.653 E0.02020
G1 X4.647 Y12.948 E0.06311
G1 X4.647 Y12.362 E0.02020
G1 X3.353 Y11.067 E0.06311
G1 X3.353 Y10.481 E0.02020
G1 X4.647 Y11.776 E0.06311
G1 X4.647 Y11.190 E0.02020
G1 X3.353 Y9.895 E0.06311
G1 X3.353 Y9.309 E0.02020
G1 X4.647 Y10.603 E0.06311
G1 X4.647 Y10.017 E0.02020
G1 X3.353 Y8.722 E0.06311
G1 X3.353 Y8.136 E0.02020
G1 X4.647 Y9.431 E0.06311
G1 X4.647 Y8.845 E0.02020
G1 X3.353 Y7.550 E0.06311
G1 X3.353 Y6.964 E0.02020
G1 X4.647 Y8.259 E0.06311
G1 X4.647 Y7.673 E0.02020
G1 X3.353 Y6.378 E0.06311
G1 X3.353 Y5.792 E0.02020
G1 X4.647 Y7.087 E0.06311
G1 X4.647 Y6.500 E0.02020
G1 X3.353 Y5.206 E0.06311
G1 X3.353 Y4.619 E0.02020
G1 X4.647 Y5.914 E0.06311
