; generated by PrusaSlicer 2.2.0+win64 on 2021-01-21 at 15:10:01 UTC

; 

; external perimeters extrusion width = 0.45mm
; perimeters extrusion width = 0.45mm
; infill extrusion width = 0.45mm
; solid infill extrusion width = 0.45mm
; top infill extrusion width = 0.40mm
; support material extrusion width = 0.35mm
; first layer extrusion width = 0.42mm

M73 P0 R13
M73 Q0 S13
M201 X1000 Y1000 Z1000 E5000 ; sets maximum accelerations, mm/sec^2
M203 X200 Y200 Z12 E120 ; sets maximum feedrates, mm/sec
M204 P1250 R1250 T1250 ; sets acceleration (P, T) and retract acceleration (R), mm/sec^2
M205 X8.00 Y8.00 Z0.40 E1.50 ; sets the jerk limits, mm/sec
M205 S0 T0 ; sets the minimum extruding and travel feed rate, mm/sec
M107
M862.3 P "MK3S" ; printer model check
M862.1 P0.4 ; nozzle diameter check
M115 U3.8.1 ; tell printer latest fw version
G90 ; use absolute coordinates
M83 ; extruder relative mode
M104 S215 ; set extruder temp
M140 S75 ; set bed temp
M190 S75 ; wait for bed temp
M109 S215 ; wait for extruder temp
G28 W ; home all without mesh bed level
G80 ; mesh bed leveling
G1 X0.0 Y0.0 Z0.0 F1000.0
G1 Y-3.0 F1000.0 ; go outside print area
G92 E0.0
G1 X60.0 E9.0 F1000.0 ; intro line
M73 Q0 S13
M73 P0 R13
G1 X100.0 E12.5 F1000.0 ; intro line
G92 E0.0
M221 S95
G21 ; set units to millimeters
G90 ; use absolute coordinates
M83 ; use relative distances for extrusion
M900 K30 ; Filament gcode
;BEFORE_LAYER_CHANGE
G92 E0.0
;0.2


G1 E-0.80000 F2100.00000
G1 Z0.600 F10800.000
;AFTER_LAYER_CHANGE
;0.2
G1 X2.061 Y3.921
G1 Z0.200
G1 E0.80000 F2100.00000
M204 S1000
G1 F1200.000
G1 X2.508 Y3.104 E0.02922
G1 X2.947 Y2.636 E0.02011
G1 X3.472 Y2.267 E0.02011
G1 X4.061 Y2.013 E0.02011
G1 X4.694 Y1.884 E0.02025
G1 X15.004 Y1.869 E0.32327
G1 X16.083 Y2.062 E0.03436
G1 X17.026 Y2.612 E0.03423
G1 X17.725 Y3.457 E0.03436
G1 X18.089 Y4.490 E0.03436
G1 X18.128 Y15.153 E0.33432
G1 X17.942 Y16.071 E0.02936
G1 X17.492 Y16.896 E0.02950
G1 X17.020 Y17.393 E0.02148
G1 X16.447 Y17.777 E0.02161
G1 X15.804 Y18.026 E0.02161
G1 X15.127 Y18.129 E0.02148
G1 X4.834 Y18.127 E0.32274
G1 X3.921 Y17.939 E0.02922
G1 X3.104 Y17.492 E0.02922
G1 X2.607 Y17.020 E0.02148
G1 X2.223 Y16.447 E0.02161
G1 X1.974 Y15.804 E0.02161
G1 X1.871 Y15.127 E0.02148
G1 X1.873 Y4.834 E0.32274
G1 X2.049 Y3.980 E0.02734
G1 X2.416 Y4.055 F10800.000
G1 F1200.000
G1 E-0.5
G1 X2.833 Y3.300 E0.02707
G1 X3.226 Y2.893 E0.01771
G1 X3.689 Y2.578 E0.01758
G1 X4.207 Y2.362 E0.01758
G1 X4.762 Y2.256 E0.01771
G1 X15.004 Y2.246 E0.32114
G1 X15.959 Y2.418 E0.03044
G1 X16.799 Y2.914 E0.03056
G1 X17.410 Y3.668 E0.03044
G1 X17.724 Y4.591 E0.03056
G1 X17.751 Y15.127 E0.33036
G1 X17.582 Y15.959 E0.02663
G1 X17.167 Y16.700 E0.02663
G1 X16.746 Y17.130 E0.01886
G1 X16.245 Y17.457 E0.01873
G1 X15.682 Y17.668 E0.01886
G1 X15.091 Y17.753 E0.01873
G1 X4.865 Y17.751 E0.32063
G1 X4.037 Y17.580 E0.02651
G1 X3.300 Y17.167 E0.02651
G1 X2.870 Y16.746 E0.01886
G1 X2.543 Y16.245 E0.01873
G1 X2.332 Y15.682 E0.01886
G1 X2.247 Y15.091 E0.01873
G1 X2.249 Y4.865 E0.32063
G1 X2.404 Y4.114 E0.02403
G1 F8640.000
G1 X2.833 Y3.300 E-0.21265
G1 X3.226 Y2.893 E-0.13042
G1 X3.689 Y2.578 E-0.12947
G1 X4.207 Y2.362 E-0.12947
G1 X4.762 Y2.256 E-0.13042
G1 X4.881 Y2.256 E-0.02758
G1 E-0.04000 F2100.00000
G1 Z0.800 F10800.000
G1 X3.896 Y2.895
G1 Z0.200
G1 E0.80000 F2100.00000
G1 F1200.000
G1 X4.824 Y2.629 E0.03024
G1 X15.004 Y2.623 E0.31918
G1 X15.842 Y2.777 E0.02673
G1 X16.569 Y3.215 E0.02661
G1 X17.096 Y3.880 E0.02661
G1 X17.356 Y4.687 E0.02661
G1 X17.375 Y15.103 E0.32657
G1 X17.223 Y15.842 E0.02367
G1 X16.849 Y16.494 E0.02355
G1 X16.486 Y16.856 E0.01609
G1 X16.053 Y17.131 E0.01609
G1 X15.571 Y17.308 E0.01609
G1 X15.062 Y17.376 E0.01609
G1 X4.893 Y17.375 E0.31883
G1 X4.158 Y17.223 E0.02355
G1 X3.506 Y16.849 E0.02355
G1 X3.144 Y16.486 E0.01609
G1 X2.869 Y16.053 E0.01609
G1 X2.692 Y15.571 E0.01609
G1 X2.624 Y15.062 E0.01609
G1 X2.625 Y4.893 E0.31883
G1 X2.777 Y4.158 E0.02355
G1 X3.151 Y3.506 E0.02355
G1 X3.850 Y2.933 E0.02836
G1 F8640.000
G1 X4.824 Y2.629 E-0.23550
G1 X7.095 Y2.628 E-0.52450
G1 E-0.04000 F2100.00000
G1 Z0.800 F10800.000
G1 X5.210 Y5.210
G1 Z0.200
G1 E0.80000 F2100.00000
G1 F1200.000
G1 X14.790 Y5.210 E0.30037
G1 X14.790 Y14.790 E0.30037
G1 X5.210 Y14.790 E0.30037
G1 X5.210 Y5.270 E0.29849
G1 X5.596 Y5.314 F10800.000
G1 X5.587 Y5.587
G1 F1200.000
G1 X14.413 Y5.587 E0.27673
G1 X14.413 Y14.413 E0.27673
G1 X5.587 Y14.413 E0.27673
G1 X5.587 Y5.647 E0.27485
G1 X5.964 Y5.964 F10800.000
G1 F1200.000
G1 X14.036 Y5.964 E0.25308
G1 X14.036 Y14.036 E0.25308
G1 X5.964 Y14.036 E0.25308
G1 X5.964 Y6.024 E0.25120
G1 X6.341 Y6.341 F10800.000
G1 F1200.000
G1 X13.659 Y6.341 E0.22944
G1 X13.659 Y13.659 E0.22944
G1 X6.341 Y13.659 E0.22944
G1 X6.341 Y6.401 E0.22755
G1 X6.718 Y6.718 F10800.000
G1 F1200.000
G1 X13.282 Y6.718 E0.20579
G1 X13.282 Y13.282 E0.20579
G1 X6.718 Y13.282 E0.20579
G1 X6.718 Y6.778 E0.20391
G1 F8640.000
G1 X10.010 Y6.748 E-0.76000
G1 E-0.04000 F2100.00000
G1 Z0.800 F10800.000
G1 X13.225 Y7.548
G1 Z0.200
G1 E0.80000 F2100.00000
G1 F1200.000
G1 X12.621 Y6.945 E0.02714
G1 X12.081 Y6.945 E0.01719
G1 X13.055 Y7.919 E0.04382
G1 X13.055 Y8.460 E0.01719
G1 X11.540 Y6.945 E0.06812
G1 X10.999 Y6.945 E0.01719
G1 X13.055 Y9.001 E0.09243
G1 X13.055 Y9.541 E0.01719
G1 X10.459 Y6.945 E0.11674
G1 X9.918 Y6.945 E0.01719
G1 X13.055 Y10.082 E0.14104
G1 X13.055 Y10.623 E0.01719
G1 X9.377 Y6.945 E0.16535
G1 X8.837 Y6.945 E0.01719
G1 X13.055 Y11.163 E0.18965
G1 X13.055 Y11.704 E0.01719
G1 X8.296 Y6.945 E0.21396
G1 X7.755 Y6.945 E0.01719
G1 X13.055 Y12.245 E0.23827
G1 X13.055 Y12.785 E0.01719
G1 X7.215 Y6.945 E0.26257
G1 X6.945 Y6.945 E0.00859
G1 X6.945 Y7.215 E0.00860
G1 X12.785 Y13.055 E0.26257
G1 X12.244 Y13.055 E0.01719
G1 X6.945 Y7.756 E0.23826
G1 X6.945 Y8.296 E0.01719
G1 X11.704 Y13.055 E0.21396
G1 X11.163 Y13.055 E0.01719
G1 X6.945 Y8.837 E0.18965
G1 X6.945 Y9.378 E0.01719
G1 X10.622 Y13.055 E0.16534
G1 X10.082 Y13.055 E0.01719
G1 X6.945 Y9.918 E0.14104
G1 X6.945 Y10.459 E0.01719
G1 X9.541 Y13.055 E0.11673
G1 X9.000 Y13.055 E0.01719
G1 X6.945 Y11.000 E0.09242
G1 X6.945 Y11.540 E0.01719
G1 X8.460 Y13.055 E0.06812
G1 X7.919 Y13.055 E0.01719
G1 X6.945 Y12.081 E0.04381
G1 X6.945 Y12.622 E0.01719
G1 X7.548 Y13.225 E0.02713
M106 S255
;BEFORE_LAYER_CHANGE
G92 E0.0
;0.4


G1 F8640.000
G1 X6.945 Y12.622 E-0.19709
G1 X6.945 Y12.081 E-0.12484
G1 X7.919 Y13.055 E-0.31823
G1 X8.438 Y13.055 E-0.11985
G1 E-0.04000 F2100.00000
G1 Z0.800 F10800.000
;AFTER_LAYER_CHANGE
;0.4
M104 S210 ; set temperature
G1 X3.921 Y17.939
G1 Z0.400
G1 E0.80000 F2100.00000
G1 F1290
G1 X3.104 Y17.492 E0.02922
G1 X2.607 Y17.020 E0.02148
G1 X2.223 Y16.447 E0.02161
G1 X1.974 Y15.804 E0.02161
G1 X1.871 Y15.127 E0.02148
G1 X1.873 Y4.834 E0.32274
G1 X2.061 Y3.921 E0.02922
G1 X2.508 Y3.104 E0.02922
G1 X2.947 Y2.636 E0.02011
G1 X3.472 Y2.267 E0.02011
G1 X4.061 Y2.013 E0.02011
G1 X4.694 Y1.884 E0.02025
G1 X15.004 Y1.869 E0.32327
G1 X16.083 Y2.062 E0.03436
G1 X17.026 Y2.612 E0.03423
G1 X17.725 Y3.457 E0.03436
G1 X18.089 Y4.490 E0.03436
G1 X18.128 Y15.153 E0.33432
G1 X17.942 Y16.071 E0.02936
G1 X17.492 Y16.896 E0.02950
G1 X17.020 Y17.393 E0.02148
G1 X16.447 Y17.777 E0.02161
G1 X15.804 Y18.026 E0.02161
G1 X15.127 Y18.129 E0.02148
G1 X4.834 Y18.127 E0.32274
G1 X3.980 Y17.951 E0.02734
G1 X4.055 Y17.584 F10800.000
G1 F1290
G1 X3.300 Y17.167 E0.02707
G1 X2.870 Y16.746 E0.01886
G1 X2.543 Y16.245 E0.01873
G1 X2.332 Y15.682 E0.01886
G1 X2.247 Y15.091 E0.01873
G1 X2.249 Y4.865 E0.32063
G1 X2.420 Y4.037 E0.02651
G1 X2.833 Y3.300 E0.02651
G1 X3.226 Y2.893 E0.01771
G1 X3.689 Y2.578 E0.01758
G1 X4.207 Y2.362 E0.01758
G1 X4.762 Y2.256 E0.01771
G1 X15.004 Y2.246 E0.32114
G1 X15.959 Y2.418 E0.03044
G1 X16.799 Y2.914 E0.03056
G1 X17.410 Y3.668 E0.03044
G1 X17.724 Y4.591 E0.03056
G1 X17.751 Y15.127 E0.33036
G1 X17.582 Y15.959 E0.02663
G1 X17.167 Y16.700 E0.02663
G1 X16.746 Y17.130 E0.01886
G1 X16.245 Y17.457 E0.01873
G1 X15.682 Y17.668 E0.01886
G1 X15.091 Y17.753 E0.01873
G1 X4.865 Y17.751 E0.32063
G1 X4.114 Y17.596 E0.02403
G1 X4.190 Y17.230 F10800.000
G1 F1290
G1 X3.506 Y16.849 E0.02452
G1 X3.144 Y16.486 E0.01609
G1 X2.869 Y16.053 E0.01609
G1 X2.692 Y15.571 E0.01609
G1 X2.624 Y15.062 E0.01609
G1 X2.625 Y4.893 E0.31883
G1 X2.777 Y4.158 E0.02355
G1 X3.151 Y3.506 E0.02355
G1 X3.896 Y2.895 E0.03024
G1 X4.824 Y2.629 E0.03024
G1 X15.004 Y2.623 E0.31918
G1 X15.842 Y2.777 E0.02673
G1 X16.569 Y3.215 E0.02661
G1 X17.096 Y3.880 E0.02661
G1 X17.356 Y4.687 E0.02661
G1 X17.375 Y15.103 E0.32657
G1 X17.223 Y15.842 E0.02367
G1 X16.849 Y16.494 E0.02355
G1 X16.486 Y16.856 E0.01609
G1 X16.053 Y17.131 E0.01609
G1 X15.571 Y17.308 E0.01609
G1 X15.062 Y17.376 E0.01609
G1 X4.893 Y17.375 E0.31883
G1 X4.249 Y17.242 E0.02064
G1 F8640.000
G1 X3.506 Y16.849 E-0.19385
G1 X3.144 Y16.486 E-0.11850
G1 X2.869 Y16.053 E-0.11850
G1 X2.692 Y15.571 E-0.11850
G1 X2.624 Y15.062 E-0.11850
G1 X2.624 Y14.663 E-0.09214
G1 E-0.04000 F2100.00000
G1 Z1.000 F10800.000
G1 X5.225 Y14.775
G1 Z0.400
G1 E0.80000 F2100.00000
M204 S800
G1 F1290
G1 X5.225 Y5.225 E0.32326
G1 X14.775 Y5.225 E0.32326
G1 X14.775 Y14.775 E0.32326
G1 X5.285 Y14.775 E0.32123
M204 S1000
G1 X5.329 Y14.389 F10800.000
G1 X5.632 Y14.368
M204 S800
G1 F1290
G1 X5.632 Y5.632 E0.29570
G1 X14.368 Y5.632 E0.29570
G1 X14.368 Y14.368 E0.29570
G1 X5.692 Y14.368 E0.29367
M204 S1000
G1 X6.039 Y13.961 F10800.000
M204 S800
G1 F1290
G1 X6.039 Y6.039 E0.26814
G1 X13.961 Y6.039 E0.26814
G1 X13.961 Y13.961 E0.26814
G1 X6.099 Y13.961 E0.26611
M204 S1000
G1 X6.446 Y13.554 F10800.000
M204 S800
G1 F1290
G1 X6.446 Y6.446 E0.24058
G1 X13.554 Y6.446 E0.24058
G1 X13.554 Y13.554 E0.24058
G1 X6.506 Y13.554 E0.23855
M204 S1000
G1 X6.853 Y13.147 F10800.000
M204 S800
G1 F1290
G1 X6.853 Y6.853 E0.21302
G1 X13.147 Y6.853 E0.21302
G1 X13.147 Y13.147 E0.21302
G1 X6.913 Y13.147 E0.21099
M204 S1000
G1 F8640.000
G1 X6.882 Y9.855 E-0.76000
G1 E-0.04000 F2100.00000
G1 Z1.000 F10800.000
G1 X7.761 Y6.914
G1 Z0.400
G1 E0.80000 F2100.00000
M204 S1250
G1 F1290
G1 X7.098 Y7.578 E0.03264
G1 X7.098 Y8.169 E0.02058
G1 X8.169 Y7.098 E0.05273
G1 X8.761 Y7.098 E0.02058
G1 X7.098 Y8.761 E0.08183
G1 X7.098 Y9.353 E0.02058
G1 X9.353 Y7.098 E0.11094
G1 X9.944 Y7.098 E0.02058
G1 X7.098 Y9.944 E0.14004
G1 X7.098 Y10.536 E0.02058
G1 X10.536 Y7.098 E0.16914
G1 X11.128 Y7.098 E0.02058
G1 X7.098 Y11.128 E0.19825
G1 X7.098 Y11.719 E0.02058
G1 X11.719 Y7.098 E0.22735
G1 X12.311 Y7.098 E0.02058
G1 X7.098 Y12.311 E0.25645
G1 X7.098 Y12.902 E0.02058
G1 X12.902 Y7.098 E0.28556
G1 X12.902 Y7.689 E0.02058
G1 X7.689 Y12.902 E0.25646
G1 X8.281 Y12.902 E0.02058
G1 X12.902 Y8.281 E0.22736
G1 X12.902 Y8.872 E0.02058
G1 X8.872 Y12.902 E0.19825
G1 X9.464 Y12.902 E0.02058
G1 X12.902 Y9.464 E0.16915
G1 X12.902 Y10.056 E0.02058
G1 X10.056 Y12.902 E0.14005
G1 X10.647 Y12.902 E0.02058
G1 X12.902 Y10.647 E0.11094
G1 X12.902 Y11.239 E0.02058
G1 X11.239 Y12.902 E0.08184
G1 X11.830 Y12.902 E0.02058
G1 X12.902 Y11.830 E0.05274
G1 X12.902 Y12.422 E0.02058
G1 X12.239 Y13.086 E0.03264
M204 S1000
;BEFORE_LAYER_CHANGE
G92 E0.0
;0.6


G1 F8640.000
G1 X12.902 Y12.422 E-0.21670
G1 X12.902 Y11.830 E-0.13661
G1 X11.830 Y12.902 E-0.35007
G1 X11.585 Y12.902 E-0.05663
G1 E-0.04000 F2100.00000
G1 Z1.000 F10800.000
;AFTER_LAYER_CHANGE
;0.6
G1 X17.725 Y3.457
G1 Z0.600
G1 E0.80000 F2100.00000
G1 F1293
G1 X18.089 Y4.490 E0.03436
G1 X18.128 Y15.153 E0.33432
G1 X17.942 Y16.071 E0.02936
G1 X17.492 Y16.896 E0.02950
G1 X17.020 Y17.393 E0.02148
G1 X16.447 Y17.777 E0.02161
G1 X15.804 Y18.026 E0.02161
G1 X15.127 Y18.129 E0.02148
G1 X4.834 Y18.127 E0.32274
G1 X3.921 Y17.939 E0.02922
G1 X3.104 Y17.492 E0.02922
G1 X2.607 Y17.020 E0.02148
G1 X2.223 Y16.447 E0.02161
G1 X1.974 Y15.804 E0.02161
G1 X1.871 Y15.127 E0.02148
G1 X1.873 Y4.834 E0.32274
G1 X2.061 Y3.921 E0.02922
G1 X2.508 Y3.104 E0.02922
G1 X2.947 Y2.636 E0.02011
G1 X3.472 Y2.267 E0.02011
G1 X4.061 Y2.013 E0.02011
G1 X4.694 Y1.884 E0.02025
G1 X15.004 Y1.869 E0.32327
G1 X16.083 Y2.062 E0.03436
G1 X17.026 Y2.612 E0.03423
G1 X17.686 Y3.411 E0.03248
G1 X17.394 Y3.648 F10800.000
G1 F1293
G1 X17.724 Y4.591 E0.03132
G1 X17.751 Y15.127 E0.33036
G1 X17.582 Y15.959 E0.02663
G1 X17.167 Y16.700 E0.02663
G1 X16.746 Y17.130 E0.01886
G1 X16.245 Y17.457 E0.01873
G1 X15.682 Y17.668 E0.01886
G1 X15.091 Y17.753 E0.01873
G1 X4.865 Y17.751 E0.32063
G1 X4.037 Y17.580 E0.02651
G1 X3.300 Y17.167 E0.02651
G1 X2.870 Y16.746 E0.01886
G1 X2.543 Y16.245 E0.01873
G1 X2.332 Y15.682 E0.01886
G1 X2.247 Y15.091 E0.01873
G1 X2.249 Y4.865 E0.32063
G1 X2.420 Y4.037 E0.02651
G1 X2.833 Y3.300 E0.02651
G1 X3.226 Y2.893 E0.01771
G1 X3.689 Y2.578 E0.01758
G1 X4.207 Y2.362 E0.01758
G1 X4.762 Y2.256 E0.01771
G1 X15.004 Y2.246 E0.32114
G1 X15.959 Y2.418 E0.03044
G1 X16.799 Y2.914 E0.03056
G1 X17.357 Y3.601 E0.02775
G1 X17.096 Y3.880 F10800.000
G1 F1293
G1 X17.356 Y4.687 E0.02661
G1 X17.375 Y15.103 E0.32657
G1 X17.223 Y15.842 E0.02367
G1 X16.849 Y16.494 E0.02355
G1 X16.486 Y16.856 E0.01609
G1 X16.053 Y17.131 E0.01609
G1 X15.571 Y17.308 E0.01609
G1 X15.062 Y17.376 E0.01609
G1 X4.893 Y17.375 E0.31883
G1 X4.158 Y17.223 E0.02355
G1 X3.506 Y16.849 E0.02355
G1 X3.144 Y16.486 E0.01609
G1 X2.869 Y16.053 E0.01609
G1 X2.692 Y15.571 E0.01609
G1 X2.624 Y15.062 E0.01609
G1 X2.625 Y4.893 E0.31883
G1 X2.777 Y4.158 E0.02355
G1 X3.151 Y3.506 E0.02355
G1 X3.896 Y2.895 E0.03024
G1 X4.824 Y2.629 E0.03024
G1 X15.004 Y2.623 E0.31918
G1 X15.842 Y2.777 E0.02673
G1 X16.569 Y3.215 E0.02661
G1 X17.059 Y3.833 E0.02473
G1 F8640.000
G1 X17.356 Y4.687 E-0.20898
G1 X17.361 Y7.074 E-0.55102
G1 E-0.04000 F2100.00000
G1 Z1.200 F10800.000
G1 X14.775 Y5.225
G1 Z0.600
G1 E0.80000 F2100.00000
M204 S800
G1 F1293
G1 X14.775 Y14.775 E0.32326
G1 X5.225 Y14.775 E0.32326
G1 X5.225 Y5.225 E0.32326
G1 X14.715 Y5.225 E0.32123
M204 S1000
G1 X14.671 Y5.611 F10800.000
G1 X14.368 Y5.632
M204 S800
G1 F1293
G1 X14.368 Y14.368 E0.29570
M73 Q8 S12
G1 X5.632 Y14.368 E0.29570
M73 P8 R12
G1 X5.632 Y5.632 E0.29570
G1 X14.308 Y5.632 E0.29367
M204 S1000
G1 X13.961 Y6.039 F10800.000
M204 S800
G1 F1293
G1 X13.961 Y13.961 E0.26814
G1 X6.039 Y13.961 E0.26814
G1 X6.039 Y6.039 E0.26814
G1 X13.901 Y6.039 E0.26611
M204 S1000
G1 X13.554 Y6.446 F10800.000
M204 S800
G1 F1293
G1 X13.554 Y13.554 E0.24058
G1 X6.446 Y13.554 E0.24058
G1 X6.446 Y6.446 E0.24058
G1 X13.494 Y6.446 E0.23855
M204 S1000
G1 X13.147 Y6.853 F10800.000
M204 S800
G1 F1293
G1 X13.147 Y13.147 E0.21302
G1 X6.853 Y13.147 E0.21302
G1 X6.853 Y6.853 E0.21302
G1 X13.087 Y6.853 E0.21099
M204 S1000
G1 F8640.000
G1 X13.118 Y10.145 E-0.76000
G1 E-0.04000 F2100.00000
G1 Z1.200 F10800.000
G1 X6.914 Y12.239
G1 Z0.600
G1 E0.80000 F2100.00000
M204 S1250
G1 F1293
G1 X7.578 Y12.902 E0.03264
G1 X8.169 Y12.902 E0.02058
G1 X7.098 Y11.831 E0.05273
G1 X7.098 Y11.239 E0.02058
G1 X8.761 Y12.902 E0.08183
G1 X9.353 Y12.902 E0.02058
G1 X7.098 Y10.647 E0.11094
G1 X7.098 Y10.056 E0.02058
G1 X9.944 Y12.902 E0.14004
G1 X10.536 Y12.902 E0.02058
G1 X7.098 Y9.464 E0.16914
G1 X7.098 Y8.872 E0.02058
G1 X11.128 Y12.902 E0.19825
G1 X11.719 Y12.902 E0.02058
G1 X7.098 Y8.281 E0.22735
G1 X7.098 Y7.689 E0.02058
G1 X12.311 Y12.902 E0.25645
G1 X12.902 Y12.902 E0.02058
G1 X7.098 Y7.098 E0.28556
G1 X7.689 Y7.098 E0.02058
G1 X12.902 Y12.311 E0.25646
G1 X12.902 Y11.719 E0.02058
G1 X8.281 Y7.098 E0.22736
G1 X8.872 Y7.098 E0.02058
G1 X12.902 Y11.128 E0.19825
G1 X12.902 Y10.536 E0.02058
G1 X9.464 Y7.098 E0.16915
G1 X10.056 Y7.098 E0.02058
G1 X12.902 Y9.944 E0.14005
G1 X12.902 Y9.353 E0.02058
G1 X10.647 Y7.098 E0.11094
G1 X11.239 Y7.098 E0.02058
G1 X12.902 Y8.761 E0.08184
G1 X12.902 Y8.170 E0.02058
G1 X11.830 Y7.098 E0.05274
G1 X12.422 Y7.098 E0.02058
G1 X13.086 Y7.761 E0.03264
M204 S1000
;BEFORE_LAYER_CHANGE
G92 E0.0
;0.8


G1 F8640.000
G1 X12.422 Y7.098 E-0.21670
G1 X11.830 Y7.098 E-0.13661
G1 X12.902 Y8.170 E-0.35007
G1 X12.902 Y8.415 E-0.05663
G1 E-0.04000 F2100.00000
G1 Z1.200 F10800.000
;AFTER_LAYER_CHANGE
;0.8
G1 X14.775 Y5.225
G1 Z0.800
G1 E0.80000 F2100.00000
M204 S800
G1 F900
G1 X14.775 Y14.775 E0.32326
G1 X5.225 Y14.775 E0.32326
G1 X5.225 Y5.225 E0.32326
G1 X14.715 Y5.225 E0.32123
M204 S1000
