; generated by PrusaSlicer 2.2.0+win64 on 2021-09-20 at 18:37:32 UTC

; 

; external perimeters extrusion width = 0.45mm
; perimeters extrusion width = 0.45mm
; infill extrusion width = 0.45mm
; solid infill extrusion width = 0.45mm
; top infill extrusion width = 0.40mm
; support material extrusion width = 0.35mm
; first layer extrusion width = 0.42mm

M73 P0 R29
M73 Q0 S29
M201 X1000 Y1000 Z1000 E5000 ; sets maximum accelerations, mm/sec^2
M203 X200 Y200 Z12 E120 ; sets maximum feedrates, mm/sec
M204 P1250 R1250 T1250 ; sets acceleration (P, T) and retract acceleration (R), mm/sec^2
M205 X8.00 Y8.00 Z0.40 E1.50 ; sets the jerk limits, mm/sec
M205 S0 T0 ; sets the minimum extruding and travel feed rate, mm/sec
M107
M190 S75 ; set bed temperature and wait for it to be reached
M104 S215 ; set temperature
M109 S215 ; set temperature and wait for it to be reached
G21 ; set units to millimeters
G90 ; use absolute coordinates
M83 ; use relative distances for extrusion
M900 K30 ; Filament gcode
;BEFORE_LAYER_CHANGE
G92 E0.0
;0.2


G1 Z0.200 F10800.000
;AFTER_LAYER_CHANGE
;0.2
G1 X-3.146 Y-1.621
M204 S1000
G1 F1200.000
G1 X-2.437 Y-2.605 E0.03804
M73 Q0 S29
M73 P0 R29
G1 X-1.490 Y-3.364 E0.03804
G1 X-0.370 Y-3.845 E0.03820
G1 X0.753 Y-4.008 E0.03560
G1 X9.173 Y-4.008 E0.26401
G1 X9.987 Y-3.933 E0.02562
G1 X10.779 Y-3.711 E0.02579
G1 X11.512 Y-3.351 E0.02562
G1 X12.169 Y-2.864 E0.02562
G1 X12.730 Y-2.263 E0.02579
G1 X13.171 Y-1.575 E0.02562
G1 X13.481 Y-0.813 E0.02579
G1 X13.647 Y-0.013 E0.02562
G1 X13.676 Y33.339 E1.04573
G1 X13.568 Y34.312 E0.03070
G1 X13.131 Y35.477 E0.03902
G1 X12.393 Y36.479 E0.03902
G1 X11.413 Y37.238 E0.03886
G1 X10.259 Y37.703 E0.03902
G1 X9.179 Y37.837 E0.03413
G1 X0.779 Y37.837 E0.26335
G1 X-0.152 Y37.728 E0.02939
G1 X-0.833 Y37.518 E0.02234
G1 X-1.467 Y37.206 E0.02218
G1 X-2.046 Y36.799 E0.02218
G1 X-2.557 Y36.302 E0.02234
G1 X-2.983 Y35.731 E0.02234
G1 X-3.312 Y35.105 E0.02218
G1 X-3.540 Y34.429 E0.02235
G1 X-3.658 Y33.732 E0.02218
G1 X-3.676 Y0.490 E1.04230
G1 X-3.568 Y-0.483 E0.03070
G1 X-3.167 Y-1.565 E0.03616
G1 X-2.814 Y-1.432 F10800.000
G1 F1200.000
G1 X-2.136 Y-2.374 E0.03639
G1 X-1.249 Y-3.069 E0.03531
G1 X-0.208 Y-3.498 E0.03531
G1 X0.775 Y-3.631 E0.03110
G1 X9.173 Y-3.631 E0.26331
G1 X9.927 Y-3.561 E0.02374
G1 X10.651 Y-3.356 E0.02358
G1 X11.325 Y-3.023 E0.02358
G1 X11.932 Y-2.570 E0.02374
G1 X12.446 Y-2.014 E0.02374
G1 X12.848 Y-1.378 E0.02358
G1 X13.129 Y-0.675 E0.02374
G1 X13.276 Y0.062 E0.02358
G1 X13.299 Y33.339 E1.04335
G1 X13.198 Y34.240 E0.02844
G1 X12.790 Y35.316 E0.03609
G1 X12.100 Y36.239 E0.03609
G1 X11.184 Y36.935 E0.03609
G1 X10.110 Y37.351 E0.03609
G1 X9.168 Y37.460 E0.02974
G1 X0.787 Y37.460 E0.26279
G1 X-0.079 Y37.358 E0.02734
G1 X-0.702 Y37.164 E0.02045
G1 X-1.287 Y36.875 E0.02045
G1 X-1.822 Y36.494 E0.02060
G1 X-2.287 Y36.037 E0.02045
G1 X-2.675 Y35.513 E0.02045
G1 X-2.977 Y34.929 E0.02060
G1 X-3.181 Y34.310 E0.02045
G1 X-3.285 Y33.666 E0.02045
G1 X-3.299 Y0.490 E1.04022
G1 X-3.198 Y-0.411 E0.02844
G1 X-2.835 Y-1.376 E0.03231
G1 X-2.484 Y-1.243 F10800.000
G1 F1200.000
G1 X-2.461 Y-1.303 E0.00204
G1 X-1.843 Y-2.134 E0.03247
G1 X-1.017 Y-2.767 E0.03261
G1 X-0.054 Y-3.148 E0.03247
G1 X0.789 Y-3.254 E0.02666
G1 X9.173 Y-3.254 E0.26286
G1 X9.863 Y-3.189 E0.02173
G1 X10.525 Y-3.000 E0.02158
G1 X11.141 Y-2.694 E0.02158
G1 X11.691 Y-2.280 E0.02158
G1 X12.156 Y-1.773 E0.02158
G1 X12.523 Y-1.184 E0.02173
G1 X12.776 Y-0.539 E0.02173
G1 X12.905 Y0.137 E0.02158
G1 X12.922 Y33.338 E1.04100
G1 X12.828 Y34.164 E0.02606
G1 X12.451 Y35.149 E0.03306
G1 X11.812 Y35.993 E0.03321
G1 X10.967 Y36.624 E0.03306
G1 X9.975 Y36.995 E0.03321
G1 X9.206 Y37.083 E0.02427
G1 X0.827 Y37.083 E0.26271
G1 X-0.003 Y36.989 E0.02621
G1 X-1.104 Y36.545 E0.03721
G1 X-2.012 Y35.780 E0.03721
G1 X-2.635 Y34.769 E0.03721
G1 X-2.912 Y33.610 E0.03736
G1 X-2.922 Y0.490 E1.03845
G1 X-2.828 Y-0.335 E0.02606
G1 X-2.505 Y-1.187 E0.02855
G1 X-2.121 Y-1.139 F10800.000
G1 F1200.000
G1 X-1.550 Y-1.894 E0.02965
G1 X-0.793 Y-2.460 E0.02965
G1 X0.091 Y-2.795 E0.02965
G1 X0.803 Y-2.877 E0.02245
G1 X9.173 Y-2.877 E0.26243
G1 X9.795 Y-2.818 E0.01962
G1 X10.393 Y-2.647 E0.01947
G1 X10.948 Y-2.370 E0.01947
G1 X11.447 Y-1.992 E0.01962
G1 X11.868 Y-1.529 E0.01962
G1 X12.196 Y-0.996 E0.01962
G1 X12.420 Y-0.412 E0.01962
G1 X12.532 Y0.199 E0.01947
G1 X12.545 Y33.338 E1.03904
G1 X12.459 Y34.085 E0.02358
G1 X12.112 Y34.984 E0.03022
G1 X11.528 Y35.745 E0.03008
G1 X10.753 Y36.311 E0.03008
G1 X9.846 Y36.637 E0.03022
G1 X9.193 Y36.706 E0.02061
G1 X0.827 Y36.706 E0.26229
G1 X0.076 Y36.620 E0.02372
G1 X-0.917 Y36.217 E0.03359
G1 X-1.734 Y35.524 E0.03359
G1 X-2.293 Y34.610 E0.03359
G1 X-2.537 Y33.562 E0.03373
G1 X-2.545 Y0.491 E1.03692
G1 X-2.459 Y-0.256 E0.02358
G1 X-2.142 Y-1.083 E0.02777
G1 X1.042 Y0.710 F10800.000
G1 F1200.000
G1 X8.958 Y0.710 E0.24821
G1 X8.958 Y33.119 E1.01615
G1 X1.042 Y33.119 E0.24821
G1 X1.042 Y0.770 E1.01427
G1 X1.403 Y0.882 F10800.000
G1 X1.419 Y1.087
G1 F1200.000
G1 X8.581 Y1.087 E0.22456
G1 X8.581 Y32.741 E0.99250
G1 X1.419 Y32.741 E0.22456
G1 X1.419 Y1.147 E0.99062
G1 X1.796 Y1.464 F10800.000
G1 F1200.000
G1 X8.204 Y1.464 E0.20091
G1 X8.204 Y32.364 E0.96886
G1 X1.796 Y32.364 E0.20091
G1 X1.796 Y1.524 E0.96697
G1 X2.173 Y1.841 F10800.000
G1 F1200.000
G1 X7.827 Y1.841 E0.17727
G1 X7.827 Y31.987 E0.94521
G1 X2.173 Y31.987 E0.17727
G1 X2.173 Y1.901 E0.94333
G1 X2.550 Y2.218 F10800.000
G1 F1200.000
G1 X7.450 Y2.218 E0.15362
G1 X7.450 Y31.610 E0.92156
G1 X2.550 Y31.610 E0.15362
G1 X2.550 Y2.278 E0.91968
G1 X3.369 Y31.554 F10800.000
G1 F1200.000
G1 X2.776 Y30.961 E0.02629
G1 X2.776 Y30.427 E0.01673
G1 X3.733 Y31.384 E0.04243
G1 X4.266 Y31.384 E0.01673
G1 X2.776 Y29.894 E0.06609
G1 X2.776 Y29.361 E0.01673
G1 X4.800 Y31.384 E0.08975
G1 X5.333 Y31.384 E0.01673
G1 X2.776 Y28.827 E0.11341
G1 X2.776 Y28.294 E0.01673
G1 X5.867 Y31.384 E0.13707
G1 X6.400 Y31.384 E0.01673
G1 X2.776 Y27.760 E0.16074
G1 X2.776 Y27.227 E0.01673
G1 X6.934 Y31.384 E0.18440
G1 X7.224 Y31.384 E0.00909
G1 X7.224 Y31.140 E0.00764
G1 X2.776 Y26.693 E0.19725
G1 X2.776 Y26.160 E0.01673
G1 X7.224 Y30.607 E0.19725
G1 X7.224 Y30.074 E0.01673
G1 X2.776 Y25.626 E0.19725
G1 X2.776 Y25.093 E0.01673
G1 X7.224 Y29.540 E0.19725
G1 X7.224 Y29.007 E0.01673
G1 X2.776 Y24.560 E0.19725
G1 X2.776 Y24.026 E0.01673
G1 X7.224 Y28.473 E0.19725
G1 X7.224 Y27.940 E0.01673
G1 X2.776 Y23.493 E0.19725
G1 X2.776 Y22.959 E0.01673
G1 X7.224 Y27.406 E0.19725
G1 X7.224 Y26.873 E0.01673
G1 X2.776 Y22.426 E0.19725
G1 X2.776 Y21.892 E0.01673
G1 X7.224 Y26.339 E0.19725
G1 X7.224 Y25.806 E0.01673
G1 X2.776 Y21.359 E0.19725
G1 X2.776 Y20.825 E0.01673
G1 X7.224 Y25.272 E0.19725
G1 X7.224 Y24.739 E0.01673
G1 X2.776 Y20.292 E0.19725
G1 X2.776 Y19.759 E0.01673
G1 X7.224 Y24.206 E0.19725
G1 X7.224 Y23.672 E0.01673
G1 X2.776 Y19.225 E0.19725
G1 X2.776 Y18.692 E0.01673
G1 X7.224 Y23.139 E0.19725
G1 X7.224 Y22.605 E0.01673
G1 X2.776 Y18.158 E0.19725
G1 X2.776 Y17.625 E0.01673
G1 X7.224 Y22.072 E0.19725
G1 X7.224 Y21.538 E0.01673
G1 X2.776 Y17.091 E0.19725
G1 X2.776 Y16.558 E0.01673
G1 X7.224 Y21.005 E0.19725
G1 X7.224 Y20.471 E0.01673
G1 X2.776 Y16.024 E0.19725
G1 X2.776 Y15.491 E0.01673
G1 X7.224 Y19.938 E0.19725
G1 X7.224 Y19.405 E0.01673
G1 X2.776 Y14.958 E0.19725
G1 X2.776 Y14.424 E0.01673
G1 X7.224 Y18.871 E0.19725
G1 X7.224 Y18.338 E0.01673
G1 X2.776 Y13.891 E0.19725
G1 X2.776 Y13.357 E0.01673
G1 X7.224 Y17.804 E0.19725
G1 X7.224 Y17.271 E0.01673
G1 X2.776 Y12.824 E0.19725
G1 X2.776 Y12.290 E0.01673
G1 X7.224 Y16.737 E0.19725
G1 X7.224 Y16.204 E0.01673
G1 X2.776 Y11.757 E0.19725
G1 X2.776 Y11.223 E0.01673
G1 X7.224 Y15.670 E0.19725
G1 X7.224 Y15.137 E0.01673
G1 X2.776 Y10.690 E0.19725
G1 X2.776 Y10.157 E0.01673
G1 X7.224 Y14.604 E0.19725
G1 X7.224 Y14.070 E0.01673
G1 X2.776 Y9.623 E0.19725
G1 X2.776 Y9.090 E0.01673
G1 X7.224 Y13.537 E0.19725
G1 X7.224 Y13.003 E0.01673
G1 X2.776 Y8.556 E0.19725
G1 X2.776 Y8.023 E0.01673
G1 X7.224 Y12.470 E0.19725
G1 X7.224 Y11.936 E0.01673
G1 X2.776 Y7.489 E0.19725
G1 X2.776 Y6.956 E0.01673
G1 X7.224 Y11.403 E0.19725
G1 X7.224 Y10.869 E0.01673
G1 X2.776 Y6.422 E0.19725
G1 X2.776 Y5.889 E0.01673
G1 X7.224 Y10.336 E0.19725
G1 X7.224 Y9.803 E0.01673
G1 X2.776 Y5.355 E0.19725
G1 X2.776 Y4.822 E0.01673
G1 X7.224 Y9.269 E0.19725
G1 X7.224 Y8.736 E0.01673
G1 X2.776 Y4.289 E0.19725
G1 X2.776 Y3.755 E0.01673
G1 X7.224 Y8.202 E0.19725
G1 X7.224 Y7.669 E0.01673
G1 X2.776 Y3.222 E0.19725
G1 X2.776 Y2.688 E0.01673
G1 X7.224 Y7.135 E0.19725
G1 X7.224 Y6.602 E0.01673
G1 X3.066 Y2.445 E0.18440
G1 X3.600 Y2.445 E0.01673
G1 X7.224 Y6.068 E0.16074
G1 X7.224 Y5.535 E0.01673
G1 X4.133 Y2.445 E0.13708
G1 X4.667 Y2.445 E0.01673
G1 X7.224 Y5.002 E0.11342
G1 X7.224 Y4.468 E0.01673
G1 X5.200 Y2.445 E0.08976
G1 X5.733 Y2.445 E0.01673
G1 X7.224 Y3.935 E0.06609
M73 Q3 S28
G1 X7.224 Y3.401 E0.01673
G1 X6.267 Y2.445 E0.04243
M73 P3 R28
G1 X6.800 Y2.445 E0.01673
G1 X7.393 Y3.037 E0.02630
M106 S255
;BEFORE_LAYER_CHANGE
G92 E0.0
;0.4


G1 Z0.400 F10800.000
;AFTER_LAYER_CHANGE
;0.4
M104 S210 ; set temperature
G1 X13.647 Y-0.013
G1 F3000.000
G1 X13.676 Y33.339 E1.04573
G1 X13.568 Y34.312 E0.03070
G1 X13.131 Y35.477 E0.03902
G1 X12.393 Y36.479 E0.03902
G1 X11.413 Y37.238 E0.03886
G1 X10.259 Y37.703 E0.03902
G1 X9.179 Y37.837 E0.03413
G1 X0.779 Y37.837 E0.26335
G1 X-0.152 Y37.728 E0.02939
G1 X-0.833 Y37.518 E0.02234
G1 X-1.467 Y37.206 E0.02218
G1 X-2.046 Y36.799 E0.02218
G1 X-2.557 Y36.302 E0.02234
G1 X-2.983 Y35.731 E0.02234
G1 X-3.312 Y35.105 E0.02218
G1 X-3.540 Y34.429 E0.02235
G1 X-3.658 Y33.732 E0.02218
G1 X-3.676 Y0.490 E1.04230
G1 X-3.568 Y-0.483 E0.03070
G1 X-3.146 Y-1.621 E0.03804
G1 X-2.437 Y-2.605 E0.03804
G1 X-1.490 Y-3.364 E0.03804
G1 X-0.370 Y-3.845 E0.03820
G1 X0.753 Y-4.008 E0.03560
G1 X9.173 Y-4.008 E0.26401
G1 X9.987 Y-3.933 E0.02562
G1 X10.779 Y-3.711 E0.02579
G1 X11.512 Y-3.351 E0.02562
G1 X12.169 Y-2.864 E0.02562
G1 X12.730 Y-2.263 E0.02579
G1 X13.171 Y-1.575 E0.02562
G1 X13.481 Y-0.813 E0.02579
G1 X13.635 Y-0.072 E0.02374
G1 X13.264 Y0.002 F10800.000
G1 F3000.000
G1 X13.299 Y33.339 E1.04524
G1 X13.198 Y34.240 E0.02844
G1 X12.790 Y35.316 E0.03609
G1 X12.100 Y36.239 E0.03609
G1 X11.184 Y36.935 E0.03609
G1 X10.110 Y37.351 E0.03609
G1 X9.168 Y37.460 E0.02974
G1 X0.787 Y37.460 E0.26279
G1 X-0.079 Y37.358 E0.02734
G1 X-0.702 Y37.164 E0.02045
G1 X-1.287 Y36.875 E0.02045
G1 X-1.822 Y36.494 E0.02060
G1 X-2.287 Y36.037 E0.02045
G1 X-2.675 Y35.513 E0.02045
G1 X-2.977 Y34.929 E0.02060
G1 X-3.181 Y34.310 E0.02045
G1 X-3.285 Y33.666 E0.02045
G1 X-3.299 Y0.490 E1.04022
G1 X-3.198 Y-0.411 E0.02844
G1 X-2.802 Y-1.466 E0.03531
G1 X-2.136 Y-2.374 E0.03531
G1 X-1.249 Y-3.069 E0.03531
G1 X-0.208 Y-3.498 E0.03531
G1 X0.775 Y-3.631 E0.03110
G1 X9.173 Y-3.631 E0.26331
G1 X9.927 Y-3.561 E0.02374
G1 X10.651 Y-3.356 E0.02358
G1 X11.325 Y-3.023 E0.02358
G1 X11.932 Y-2.570 E0.02374
G1 X12.446 Y-2.014 E0.02374
G1 X12.848 Y-1.378 E0.02358
G1 X13.129 Y-0.675 E0.02374
G1 X13.252 Y-0.056 E0.01978
G1 X12.881 Y0.014 F10800.000
G1 F3000.000
G1 X12.905 Y0.137 E0.00392
G1 X12.922 Y33.338 E1.04100
G1 X12.828 Y34.164 E0.02606
G1 X12.451 Y35.149 E0.03306
G1 X11.812 Y35.993 E0.03321
G1 X10.967 Y36.624 E0.03306
G1 X9.975 Y36.995 E0.03321
G1 X9.206 Y37.083 E0.02427
G1 X0.827 Y37.083 E0.26271
G1 X-0.003 Y36.989 E0.02621
G1 X-1.104 Y36.545 E0.03721
G1 X-2.012 Y35.780 E0.03721
G1 X-2.635 Y34.769 E0.03721
G1 X-2.912 Y33.610 E0.03736
G1 X-2.922 Y0.490 E1.03845
G1 X-2.828 Y-0.335 E0.02606
G1 X-2.461 Y-1.303 E0.03247
G1 X-1.843 Y-2.134 E0.03247
G1 X-1.017 Y-2.767 E0.03261
G1 X-0.054 Y-3.148 E0.03247
G1 X0.789 Y-3.254 E0.02666
G1 X9.173 Y-3.254 E0.26286
G1 X9.863 Y-3.189 E0.02173
G1 X10.525 Y-3.000 E0.02158
G1 X11.141 Y-2.694 E0.02158
G1 X11.691 Y-2.280 E0.02158
G1 X12.156 Y-1.773 E0.02158
G1 X12.523 Y-1.184 E0.02173
G1 X12.776 Y-0.539 E0.02173
G1 X12.870 Y-0.045 E0.01578
G1 X12.500 Y0.023 F10800.000
G1 F3000.000
G1 X12.532 Y0.199 E0.00559
G1 X12.545 Y33.338 E1.03904
G1 X12.459 Y34.085 E0.02358
G1 X12.112 Y34.984 E0.03022
G1 X11.528 Y35.745 E0.03008
G1 X10.753 Y36.311 E0.03008
G1 X9.846 Y36.637 E0.03022
G1 X9.193 Y36.706 E0.02061
G1 X0.827 Y36.706 E0.26229
G1 X0.076 Y36.620 E0.02372
G1 X-0.917 Y36.217 E0.03359
G1 X-1.734 Y35.524 E0.03359
G1 X-2.293 Y34.610 E0.03359
G1 X-2.537 Y33.562 E0.03373
G1 X-2.545 Y0.491 E1.03692
G1 X-2.459 Y-0.256 E0.02358
G1 X-2.121 Y-1.139 E0.02965
G1 X-1.550 Y-1.894 E0.02965
G1 X-0.793 Y-2.460 E0.02965
G1 X0.091 Y-2.795 E0.02965
G1 X0.803 Y-2.877 E0.02245
G1 X9.173 Y-2.877 E0.26243
G1 X9.795 Y-2.818 E0.01962
G1 X10.393 Y-2.647 E0.01947
G1 X10.948 Y-2.370 E0.01947
G1 X11.447 Y-1.992 E0.01962
G1 X11.868 Y-1.529 E0.01962
G1 X12.196 Y-0.996 E0.01962
G1 X12.420 Y-0.412 E0.01962
G1 X12.489 Y-0.036 E0.01200
G1 X8.678 Y0.725 F10800.000
M204 S800
G1 F2100.000
G1 X8.678 Y32.761 E1.08437
G1 X1.322 Y32.761 E0.24899
G1 X1.322 Y0.725 E1.08437
G1 X8.618 Y0.725 E0.24696
M204 S1000
G1 X8.648 Y1.124 F10800.000
G1 X8.271 Y1.132
M204 S800
G1 F3600.000
G1 X8.271 Y32.354 E1.05681
G1 X1.729 Y32.354 E0.22143
G1 X1.729 Y1.132 E1.05681
G1 X8.211 Y1.132 E0.21940
M204 S1000
G1 X7.864 Y1.539 F10800.000
M204 S800
G1 F3600.000
G1 X7.864 Y31.947 E1.02925
G1 X2.136 Y31.947 E0.19388
G1 X2.136 Y1.539 E1.02925
G1 X7.804 Y1.539 E0.19185
M204 S1000
G1 X7.457 Y1.946 F10800.000
M204 S800
G1 F3600.000
G1 X7.457 Y31.539 E1.00170
G1 X2.543 Y31.539 E0.16632
G1 X2.543 Y1.946 E1.00170
G1 X7.397 Y1.946 E0.16429
M204 S1000
G1 X7.050 Y2.353 F10800.000
M204 S800
G1 F3600.000
G1 X7.050 Y31.132 E0.97414
G1 X2.950 Y31.132 E0.13876
G1 X2.950 Y2.353 E0.97414
G1 X6.990 Y2.353 E0.13673
M204 S1000
G1 X6.153 Y31.071 F10800.000
M204 S1250
G1 F3935
G1 X6.805 Y30.419 E0.03170
G1 X6.805 Y29.835 E0.02007
G1 X5.752 Y30.888 E0.05118
G1 X5.168 Y30.888 E0.02007
G1 X6.805 Y29.250 E0.07956
G1 X6.805 Y28.666 E0.02007
G1 X4.584 Y30.888 E0.10793
G1 X3.999 Y30.888 E0.02007
G1 X6.805 Y28.082 E0.13631
G1 X6.805 Y27.498 E0.02007
G1 X3.415 Y30.888 E0.16469
G1 X3.195 Y30.888 E0.00758
G1 X3.195 Y30.525 E0.01249
G1 X6.805 Y26.914 E0.17541
G1 X6.805 Y26.329 E0.02007
G1 X3.195 Y29.940 E0.17541
G1 X3.195 Y29.356 E0.02007
G1 X6.805 Y25.745 E0.17541
G1 X6.805 Y25.161 E0.02007
G1 X3.195 Y28.772 E0.17541
G1 X3.195 Y28.188 E0.02007
G1 X6.805 Y24.577 E0.17541
G1 X6.805 Y23.993 E0.02007
G1 X3.195 Y27.603 E0.17541
G1 X3.195 Y27.019 E0.02007
G1 X6.805 Y23.408 E0.17541
G1 X6.805 Y22.824 E0.02007
G1 X3.195 Y26.435 E0.17541
G1 X3.195 Y25.851 E0.02007
G1 X6.805 Y22.240 E0.17541
G1 X6.805 Y21.656 E0.02007
G1 X3.195 Y25.267 E0.17541
G1 X3.195 Y24.682 E0.02007
G1 X6.805 Y21.072 E0.17541
G1 X6.805 Y20.487 E0.02007
G1 X3.195 Y24.098 E0.17541
G1 X3.195 Y23.514 E0.02007
G1 X6.805 Y19.903 E0.17541
G1 X6.805 Y19.319 E0.02007
G1 X3.195 Y22.930 E0.17541
G1 X3.195 Y22.346 E0.02007
G1 X6.805 Y18.735 E0.17541
G1 X6.805 Y18.150 E0.02007
G1 X3.195 Y21.761 E0.17541
G1 X3.195 Y21.177 E0.02007
G1 X6.805 Y17.566 E0.17541
G1 X6.805 Y16.982 E0.02007
G1 X3.195 Y20.593 E0.17541
G1 X3.195 Y20.009 E0.02007
G1 X6.805 Y16.398 E0.17541
G1 X6.805 Y15.814 E0.02007
G1 X3.195 Y19.425 E0.17541
G1 X3.195 Y18.840 E0.02007
G1 X6.805 Y15.229 E0.17541
G1 X6.805 Y14.645 E0.02007
G1 X3.195 Y18.256 E0.17541
G1 X3.195 Y17.672 E0.02007
G1 X6.805 Y14.061 E0.17541
G1 X6.805 Y13.477 E0.02007
G1 X3.195 Y17.088 E0.17541
G1 X3.195 Y16.504 E0.02007
G1 X6.805 Y12.893 E0.17541
G1 X6.805 Y12.308 E0.02007
G1 X3.195 Y15.919 E0.17541
G1 X3.195 Y15.335 E0.02007
G1 X6.805 Y11.724 E0.17541
G1 X6.805 Y11.140 E0.02007
G1 X3.195 Y14.751 E0.17541
G1 X3.195 Y14.167 E0.02007
G1 X6.805 Y10.556 E0.17541
G1 X6.805 Y9.972 E0.02007
G1 X3.195 Y13.582 E0.17541
G1 X3.195 Y12.998 E0.02007
G1 X6.805 Y9.387 E0.17541
G1 X6.805 Y8.803 E0.02007
G1 X3.195 Y12.414 E0.17541
G1 X3.195 Y11.830 E0.02007
G1 X6.805 Y8.219 E0.17541
G1 X6.805 Y7.635 E0.02007
G1 X3.195 Y11.246 E0.17541
G1 X3.195 Y10.661 E0.02007
G1 X6.805 Y7.051 E0.17541
G1 X6.805 Y6.466 E0.02007
G1 X3.195 Y10.077 E0.17541
G1 X3.195 Y9.493 E0.02007
G1 X6.805 Y5.882 E0.17541
G1 X6.805 Y5.298 E0.02007
G1 X3.195 Y8.909 E0.17541
G1 X3.195 Y8.325 E0.02007
G1 X6.805 Y4.714 E0.17541
