; generated by PrusaSlicer 2.2.0+win64 on 2021-09-20 at 14:58:40 UTC

; 

G1 Z0.200 F10800.000
;AFTER_LAYER_CHANGE
;0.2
G1 X-4.057 Y-1.898
M204 S1000
G1 F1200.000
G1 X-3.459 Y-2.937 E0.03757
M73 Q0 S18
M73 P0 R18
G1 X-2.627 Y-3.799 E0.03757
G1 X-1.610 Y-4.432 E0.03757
G1 X-0.778 Y-4.730 E0.02770
G1 X0.089 Y-4.872 E0.02753
G1 X4.560 Y-4.885 E0.14021
G1 X5.408 Y-4.810 E0.02668
G1 X6.230 Y-4.589 E0.02668
G1 X7.000 Y-4.229 E0.02668
G1 X7.701 Y-3.737 E0.02685
G1 X8.302 Y-3.135 E0.02668
G1 X8.789 Y-2.437 E0.02668
G1 X9.148 Y-1.666 E0.02668
G1 X9.367 Y-0.844 E0.02668
G1 X9.440 Y-0.007 E0.02633
G1 X9.440 Y21.782 E0.68320
G1 X9.383 Y22.517 E0.02309
G1 X9.039 Y23.710 E0.03893
G1 X8.406 Y24.778 E0.03893
G1 X7.524 Y25.651 E0.03893
G1 X6.455 Y26.272 E0.03876
G1 X5.640 Y26.535 E0.02685
G1 X4.792 Y26.651 E0.02685
G1 X-0.300 Y26.600 E0.15966
G1 X-1.054 Y26.421 E0.02429
G1 X-1.770 Y26.126 E0.02429
G1 X-2.430 Y25.721 E0.02429
G1 X-3.018 Y25.217 E0.02429
G1 X-3.520 Y24.626 E0.02429
G1 X-3.921 Y23.964 E0.02429
G1 X-4.213 Y23.246 E0.02429
G1 X-4.387 Y22.491 E0.02429
G1 X-4.440 Y21.784 E0.02224
G1 X-4.440 Y0.000 E0.68303
G1 X-4.383 Y-0.745 E0.02343
G1 X-4.073 Y-1.840 E0.03569
G1 X-3.710 Y-1.736 F10800.000
G1 F1200.000
G1 X-3.133 Y-2.742 E0.03637
G1 X-2.347 Y-3.540 E0.03511
G1 X-1.384 Y-4.121 E0.03527
G1 X-0.636 Y-4.377 E0.02480
G1 X0.151 Y-4.499 E0.02497
G1 X4.560 Y-4.508 E0.13824
G1 X5.348 Y-4.438 E0.02480
G1 X6.117 Y-4.229 E0.02497
G1 X6.832 Y-3.891 E0.02480
G1 X7.477 Y-3.433 E0.02480
G1 X8.032 Y-2.870 E0.02480
G1 X8.480 Y-2.218 E0.02480
G1 X8.807 Y-1.498 E0.02480
G1 X9.004 Y-0.731 E0.02480
G1 X9.063 Y0.000 E0.02300
G1 X9.063 Y21.782 E0.68296
G1 X9.009 Y22.471 E0.02169
G1 X8.682 Y23.586 E0.03641
G1 X8.085 Y24.576 E0.03625
G1 X7.256 Y25.381 E0.03625
G1 X6.249 Y25.949 E0.03625
G1 X5.508 Y26.178 E0.02431
G1 X4.744 Y26.276 E0.02415
G1 X-0.255 Y26.225 E0.15675
G1 X-0.953 Y26.057 E0.02251
G1 X-1.616 Y25.781 E0.02251
G1 X-2.226 Y25.403 E0.02251
G1 X-2.769 Y24.933 E0.02251
G1 X-3.230 Y24.383 E0.02251
G1 X-3.598 Y23.767 E0.02251
G1 X-3.863 Y23.100 E0.02251
G1 X-4.020 Y22.394 E0.02267
G1 X-4.063 Y0.000 E0.70214
G1 X-4.009 Y-0.700 E0.02202
G1 X-3.727 Y-1.678 E0.03192
G1 X-3.365 Y-1.573 F10800.000
G1 F1200.000
G1 X-3.342 Y-1.650 E0.00253
G1 X-2.809 Y-2.545 E0.03266
G1 X-2.069 Y-3.278 E0.03266
G1 X-1.169 Y-3.803 E0.03266
G1 X-0.492 Y-4.023 E0.02233
G1 X0.208 Y-4.124 E0.02217
G1 X4.560 Y-4.131 E0.13647
G1 X5.284 Y-4.066 E0.02280
G1 X5.991 Y-3.874 E0.02296
G1 X6.652 Y-3.559 E0.02296
G1 X7.247 Y-3.133 E0.02296
G1 X7.755 Y-2.613 E0.02280
G1 X8.166 Y-2.007 E0.02296
G1 X8.464 Y-1.338 E0.02296
G1 X8.638 Y-0.627 E0.02296
G1 X8.686 Y21.771 E0.70228
G1 X8.635 Y22.422 E0.02045
G1 X8.328 Y23.454 E0.03375
G1 X7.769 Y24.367 E0.03360
G1 X6.989 Y25.110 E0.03375
G1 X6.049 Y25.623 E0.03360
G1 X5.389 Y25.818 E0.02154
G1 X4.707 Y25.900 E0.02154
G1 X-0.205 Y25.851 E0.15403
G1 X-0.848 Y25.695 E0.02076
G1 X-1.459 Y25.438 E0.02076
G1 X-2.020 Y25.087 E0.02076
G1 X-2.518 Y24.650 E0.02076
G1 X-2.940 Y24.140 E0.02076
G1 X-3.275 Y23.569 E0.02076
G1 X-3.514 Y22.951 E0.02076
G1 X-3.652 Y22.304 E0.02076
G1 X-3.686 Y-0.005 E0.69948
G1 X-3.635 Y-0.650 E0.02029
G1 X-3.382 Y-1.515 E0.02825
G1 X-3.262 Y-0.596 F10800.000
G1 F1200.000
G1 X-2.989 Y-1.516 E0.03009
G1 X-2.490 Y-2.341 E0.03023
G1 X-1.801 Y-3.008 E0.03009
G1 X-0.960 Y-3.481 E0.03023
G1 X-0.362 Y-3.666 E0.01964
G1 X0.259 Y-3.750 E0.01964
G1 X4.560 Y-3.754 E0.13486
G1 X5.226 Y-3.694 E0.02098
G1 X5.871 Y-3.516 E0.02098
G1 X6.475 Y-3.226 E0.02098
G1 X7.021 Y-2.831 E0.02113
G1 X7.484 Y-2.348 E0.02098
G1 X7.855 Y-1.791 E0.02098
G1 X8.120 Y-1.176 E0.02098
G1 X8.272 Y-0.524 E0.02098
G1 X8.262 Y22.367 E0.71775
G1 X7.976 Y23.318 E0.03113
G1 X7.454 Y24.157 E0.03098
G1 X6.731 Y24.831 E0.03098
G1 X5.858 Y25.292 E0.03098
G1 X4.670 Y25.524 E0.03796
G1 X-0.151 Y25.478 E0.15115
G1 X-1.299 Y25.096 E0.03796
G1 X-2.263 Y24.371 E0.03781
G1 X-2.948 Y23.378 E0.03781
G1 X-3.283 Y22.215 E0.03796
G1 X-3.262 Y-0.536 E0.71334
G1 X-2.888 Y-0.535 F10800.000
G1 F1200.000
G1 X-2.634 Y-1.388 E0.02788
G1 X-2.169 Y-2.138 E0.02768
G1 X-1.529 Y-2.740 E0.02754
G1 X-0.756 Y-3.156 E0.02754
G1 X0.307 Y-3.374 E0.03402
G1 X4.560 Y-3.377 E0.13334
G1 X5.165 Y-3.322 E0.01905
G1 X5.750 Y-3.159 E0.01905
G1 X6.296 Y-2.893 E0.01905
G1 X6.787 Y-2.535 E0.01905
G1 X7.205 Y-2.094 E0.01905
G1 X7.537 Y-1.585 E0.01905
G1 X7.773 Y-1.025 E0.01905
G1 X7.904 Y-0.432 E0.01905
G1 X7.887 Y22.318 E0.71332
G1 X7.622 Y23.184 E0.02838
G1 X7.140 Y23.945 E0.02824
G1 X6.470 Y24.553 E0.02838
G1 X5.666 Y24.960 E0.02824
G1 X4.639 Y25.147 E0.03275
G1 X-0.102 Y25.104 E0.14864
G1 X-1.134 Y24.756 E0.03416
G1 X-2.006 Y24.095 E0.03430
G1 X-2.620 Y23.190 E0.03430
G1 X-2.912 Y22.136 E0.03430
G1 X-2.888 Y-0.475 E0.70896
G1 X0.655 Y0.210 F10800.000
G1 F1200.000
G1 X4.345 Y0.210 E0.11570
G1 X4.345 Y21.561 E0.66946
G1 X0.655 Y21.561 E0.11570
G1 X0.655 Y0.270 E0.66758
G1 X1.012 Y0.390 F10800.000
G1 X1.032 Y0.587
G1 F1200.000
G1 X3.968 Y0.587 E0.09205
G1 X3.968 Y21.184 E0.64581
G1 X1.032 Y21.184 E0.09205
G1 X1.032 Y0.647 E0.64393
G1 X1.409 Y0.964 F10800.000
G1 F1200.000
G1 X3.591 Y0.964 E0.06841
G1 X3.591 Y20.807 E0.62217
G1 X1.409 Y20.807 E0.06841
G1 X1.409 Y1.024 E0.62029
G1 X1.786 Y1.341 F10800.000
G1 F1200.000
G1 X3.214 Y1.341 E0.04476
G1 X3.214 Y20.430 E0.59852
G1 X1.786 Y20.430 E0.04476
G1 X1.786 Y1.401 E0.59664
G1 X2.163 Y1.718 F10800.000
G1 F1200.000
G1 X2.837 Y1.718 E0.02111
G1 X2.837 Y20.053 E0.57487
G1 X2.163 Y20.053 E0.02111
G1 X2.163 Y1.778 E0.57299
G1 X2.500 Y19.865 F10800.000
G1 F1200.000
G1 X2.500 Y1.907 E0.44242
M106 S255
;BEFORE_LAYER_CHANGE
G92 E0.0
;0.4


G1 Z0.400 F10800.000
;AFTER_LAYER_CHANGE
;0.4
M104 S210 ; set temperature
G1 X-2.627 Y-3.799
G1 F1879
G1 X-1.610 Y-4.432 E0.03757
G1 X-0.778 Y-4.730 E0.02770
G1 X0.089 Y-4.872 E0.02753
G1 X4.560 Y-4.885 E0.14021
G1 X5.408 Y-4.810 E0.02668
G1 X6.230 Y-4.589 E0.02668
G1 X7.000 Y-4.229 E0.02668
G1 X7.701 Y-3.737 E0.02685
G1 X8.302 Y-3.135 E0.02668
G1 X8.789 Y-2.437 E0.02668
G1 X9.148 Y-1.666 E0.02668
G1 X9.367 Y-0.844 E0.02668
G1 X9.440 Y-0.007 E0.02633
G1 X9.440 Y21.782 E0.68320
G1 X9.383 Y22.517 E0.02309
G1 X9.039 Y23.710 E0.03893
G1 X8.406 Y24.778 E0.03893
G1 X7.524 Y25.651 E0.03893
G1 X6.455 Y26.272 E0.03876
G1 X5.640 Y26.535 E0.02685
G1 X4.792 Y26.651 E0.02685
G1 X-0.300 Y26.600 E0.15966
G1 X-1.054 Y26.421 E0.02429
G1 X-1.770 Y26.126 E0.02429
G1 X-2.430 Y25.721 E0.02429
G1 X-3.018 Y25.217 E0.02429
G1 X-3.520 Y24.626 E0.02429
G1 X-3.921 Y23.964 E0.02429
G1 X-4.213 Y23.246 E0.02429
G1 X-4.387 Y22.491 E0.02429
G1 X-4.440 Y21.784 E0.02224
G1 X-4.440 Y0.000 E0.68303
G1 X-4.383 Y-0.745 E0.02343
G1 X-4.057 Y-1.898 E0.03757
G1 X-3.459 Y-2.937 E0.03757
G1 X-2.668 Y-3.756 E0.03569
G1 X-2.397 Y-3.489 F10800.000
G1 F1879
G1 X-2.347 Y-3.540 E0.00225
G1 X-1.384 Y-4.121 E0.03527
G1 X-0.636 Y-4.377 E0.02480
G1 X0.151 Y-4.499 E0.02497
G1 X4.560 Y-4.508 E0.13824
G1 X5.348 Y-4.438 E0.02480
G1 X6.117 Y-4.229 E0.02497
G1 X6.832 Y-3.891 E0.02480
G1 X7.477 Y-3.433 E0.02480
G1 X8.032 Y-2.870 E0.02480
G1 X8.480 Y-2.218 E0.02480
G1 X8.807 Y-1.498 E0.02480
G1 X9.004 Y-0.731 E0.02480
G1 X9.063 Y0.000 E0.02300
G1 X9.063 Y21.782 E0.68296
G1 X9.009 Y22.471 E0.02169
G1 X8.682 Y23.586 E0.03641
G1 X8.085 Y24.576 E0.03625
G1 X7.256 Y25.381 E0.03625
G1 X6.249 Y25.949 E0.03625
G1 X5.508 Y26.178 E0.02431
G1 X4.744 Y26.276 E0.02415
G1 X-0.255 Y26.225 E0.15675
G1 X-0.953 Y26.057 E0.02251
G1 X-1.616 Y25.781 E0.02251
G1 X-2.226 Y25.403 E0.02251
G1 X-2.769 Y24.933 E0.02251
G1 X-3.230 Y24.383 E0.02251
G1 X-3.598 Y23.767 E0.02251
G1 X-3.863 Y23.100 E0.02251
G1 X-4.020 Y22.394 E0.02267
G1 X-4.063 Y0.000 E0.70214
G1 X-4.009 Y-0.700 E0.02202
G1 X-3.699 Y-1.776 E0.03511
G1 X-3.133 Y-2.742 E0.03511
G1 X-2.440 Y-3.446 E0.03098
G1 X-2.069 Y-3.278 F10800.000
G1 F1879
G1 X-1.169 Y-3.803 E0.03266
G1 X-0.492 Y-4.023 E0.02233
G1 X0.208 Y-4.124 E0.02217
G1 X4.560 Y-4.131 E0.13647
G1 X5.284 Y-4.066 E0.02280
G1 X5.991 Y-3.874 E0.02296
G1 X6.652 Y-3.559 E0.02296
G1 X7.247 Y-3.133 E0.02296
G1 X7.755 Y-2.613 E0.02280
G1 X8.166 Y-2.007 E0.02296
G1 X8.464 Y-1.338 E0.02296
G1 X8.638 Y-0.627 E0.02296
G1 X8.686 Y21.771 E0.70228
G1 X8.635 Y22.422 E0.02045
G1 X8.328 Y23.454 E0.03375
G1 X7.769 Y24.367 E0.03360
G1 X6.989 Y25.110 E0.03375
G1 X6.049 Y25.623 E0.03360
G1 X5.389 Y25.818 E0.02154
G1 X4.707 Y25.900 E0.02154
G1 X-0.205 Y25.851 E0.15403
G1 X-0.848 Y25.695 E0.02076
G1 X-1.459 Y25.438 E0.02076
G1 X-2.020 Y25.087 E0.02076
G1 X-2.518 Y24.650 E0.02076
G1 X-2.940 Y24.140 E0.02076
G1 X-3.275 Y23.569 E0.02076
G1 X-3.514 Y22.951 E0.02076
G1 X-3.652 Y22.304 E0.02076
G1 X-3.686 Y-0.005 E0.69948
G1 X-3.635 Y-0.650 E0.02029
G1 X-3.342 Y-1.650 E0.03266
G1 X-2.809 Y-2.545 E0.03266
G1 X-2.112 Y-3.236 E0.03078
G1 X-3.262 Y-0.596 F10800.000
G1 F1879
G1 X-2.989 Y-1.516 E0.03009
G1 X-2.490 Y-2.341 E0.03023
G1 X-1.801 Y-3.008 E0.03009
G1 X-0.960 Y-3.481 E0.03023
G1 X-0.362 Y-3.666 E0.01964
G1 X0.259 Y-3.750 E0.01964
G1 X4.560 Y-3.754 E0.13486
G1 X5.226 Y-3.694 E0.02098
G1 X5.871 Y-3.516 E0.02098
G1 X6.475 Y-3.226 E0.02098
G1 X7.021 Y-2.831 E0.02113
G1 X7.484 Y-2.348 E0.02098
G1 X7.855 Y-1.791 E0.02098
G1 X8.120 Y-1.176 E0.02098
G1 X8.272 Y-0.524 E0.02098
G1 X8.262 Y22.367 E0.71775
G1 X7.976 Y23.318 E0.03113
G1 X7.454 Y24.157 E0.03098
G1 X6.731 Y24.831 E0.03098
G1 X5.858 Y25.292 E0.03098
G1 X4.670 Y25.524 E0.03796
G1 X-0.151 Y25.478 E0.15115
G1 X-1.299 Y25.096 E0.03796
G1 X-2.263 Y24.371 E0.03781
G1 X-2.948 Y23.378 E0.03781
G1 X-3.283 Y22.215 E0.03796
G1 X-3.262 Y-0.536 E0.71334
G1 X-2.888 Y-0.535 F10800.000
G1 F1879
G1 X-2.634 Y-1.388 E0.02788
G1 X-2.169 Y-2.138 E0.02768
G1 X-1.529 Y-2.740 E0.02754
G1 X-0.756 Y-3.156 E0.02754
G1 X0.307 Y-3.374 E0.03402
G1 X4.560 Y-3.377 E0.13334
G1 X5.165 Y-3.322 E0.01905
G1 X5.750 Y-3.159 E0.01905
G1 X6.296 Y-2.893 E0.01905
G1 X6.787 Y-2.535 E0.01905
G1 X7.205 Y-2.094 E0.01905
G1 X7.537 Y-1.585 E0.01905
G1 X7.773 Y-1.025 E0.01905
G1 X7.904 Y-0.432 E0.01905
G1 X7.887 Y22.318 E0.71332
G1 X7.622 Y23.184 E0.02838
G1 X7.140 Y23.945 E0.02824
G1 X6.470 Y24.553 E0.02838
G1 X5.666 Y24.960 E0.02824
G1 X4.639 Y25.147 E0.03275
G1 X-0.102 Y25.104 E0.14864
G1 X-1.134 Y24.756 E0.03416
G1 X-2.006 Y24.095 E0.03430
G1 X-2.620 Y23.190 E0.03430
G1 X-2.912 Y22.136 E0.03430
G1 X-2.888 Y-0.475 E0.70896
G1 X0.670 Y0.225 F10800.000
M204 S800
G1 F1879
G1 X4.330 Y0.225 E0.12389
G1 X4.330 Y21.089 E0.70623
G1 X0.670 Y21.089 E0.12389
G1 X0.670 Y0.285 E0.70420
M204 S1000
G1 X1.027 Y0.405 F10800.000
G1 X1.077 Y0.632
M204 S800
G1 F1879
G1 X3.923 Y0.632 E0.09633
G1 X3.923 Y20.682 E0.67867
G1 X1.077 Y20.682 E0.09633
G1 X1.077 Y0.692 E0.67664
M204 S1000
G1 X1.484 Y1.039 F10800.000
M204 S800
G1 F1879
G1 X3.516 Y1.039 E0.06877
G1 X3.516 Y20.275 E0.65111
G1 X1.484 Y20.275 E0.06877
G1 X1.484 Y1.099 E0.64908
M204 S1000
G1 X1.891 Y1.446 F10800.000
M204 S800
G1 F1500.000
G1 X3.109 Y1.446 E0.04121
G1 X3.109 Y19.868 E0.62356
G1 X1.891 Y19.868 E0.04121
G1 X1.891 Y1.506 E0.62153
M204 S1000
G1 X2.298 Y1.853 F10800.000
M204 S800
G1 F1500.000
G1 X2.702 Y1.853 E0.01365
G1 X2.702 Y19.461 E0.59600
G1 X2.298 Y19.461 E0.01365
G1 X2.298 Y1.913 E0.59397
M204 S1000
;BEFORE_LAYER_CHANGE
G92 E0.0
;0.6


G1 Z0.600 F10800.000
;AFTER_LAYER_CHANGE
;0.6
G1 X0.670 Y0.225
M204 S800
G1 F900
G1 X4.330 Y0.225 E0.12389
G1 X4.330 Y20.632 E0.69076
G1 X0.670 Y20.632 E0.12389
G1 X0.670 Y0.285 E0.68873
M204 S1000
G1 X1.028 Y0.404 F10800.000
G1 X1.077 Y0.632
M204 S800
G1 F900
G1 X3.923 Y0.632 E0.09633
G1 X3.923 Y20.225 E0.66320
G1 X1.077 Y20.225 E0.09633
G1 X1.077 Y0.692 E0.66117
M204 S1000
G1 X1.484 Y1.039 F10800.000
M204 S800
G1 F900
G1 X3.516 Y1.039 E0.06877
G1 X3.516 Y19.818 E0.63564
M73 Q5 S17
M73 P5 R17
G1 X1.484 Y19.818 E0.06877
G1 X1.484 Y1.099 E0.63361
M204 S1000
G1 X1.891 Y1.446 F10800.000
M204 S800
G1 F900
G1 X3.109 Y1.446 E0.04121
G1 X3.109 Y19.411 E0.60808
G1 X1.891 Y19.411 E0.04121
G1 X1.891 Y1.506 E0.60605
M204 S1000
G1 X2.298 Y1.853 F10800.000
M204 S800
G1 F900
G1 X2.702 Y1.853 E0.01365
G1 X2.702 Y19.004 E0.58052
G1 X2.298 Y19.004 E0.01365
G1 X2.298 Y1.913 E0.57849
M204 S1000
;BEFORE_LAYER_CHANGE
G92 E0.0
;0.8


G1 Z0.800 F10800.000
;AFTER_LAYER_CHANGE
;0.8
G1 X0.670 Y0.225
M204 S800
G1 F900
G1 X4.330 Y0.225 E0.12389
G1 X4.330 Y20.175 E0.67528
G1 X0.670 Y20.175 E0.12389
G1 X0.670 Y0.285 E0.67325
M204 S1000
G1 X1.028 Y0.404 F10800.000
G1 X1.077 Y0.632
M204 S800
G1 F900
G1 X3.923 Y0.632 E0.09633
G1 X3.923 Y19.768 E0.64773
G1 X1.077 Y19.768 E0.09633
G1 X1.077 Y0.692 E0.64569
M204 S1000
G1 X1.484 Y1.039 F10800.000
M204 S800
G1 F900
G1 X3.516 Y1.039 E0.06877
G1 X3.516 Y19.361 E0.62017
G1 X1.484 Y19.361 E0.06877
G1 X1.484 Y1.099 E0.61814
M204 S1000
G1 X1.891 Y1.446 F10800.000
M204 S800
G1 F900
G1 X3.109 Y1.446 E0.04121
G1 X3.109 Y18.954 E0.59261
G1 X1.891 Y18.954 E0.04121
G1 X1.891 Y1.506 E0.59058
M204 S1000
G1 X2.298 Y1.853 F10800.000
M204 S800
G1 F900
G1 X2.702 Y1.853 E0.01365
G1 X2.702 Y18.547 E0.56505
G1 X2.298 Y18.547 E0.01365
G1 X2.298 Y1.913 E0.56302
M204 S1000
;BEFORE_LAYER_CHANGE
G92 E0.0
;1


G1 Z1.000 F10800.000
;AFTER_LAYER_CHANGE
;1
G1 X0.670 Y0.225
M204 S800
G1 F900
G1 X4.330 Y0.225 E0.12389
G1 X4.330 Y19.718 E0.65981
G1 X0.670 Y19.718 E0.12389
G1 X0.670 Y0.285 E0.65778
M204 S1000
G1 X1.028 Y0.403 F10800.000
G1 X1.077 Y0.632
M204 S800
G1 F900
G1 X3.923 Y0.632 E0.09633
G1 X3.923 Y19.311 E0.63225
G1 X1.077 Y19.311 E0.09633
G1 X1.077 Y0.692 E0.63022
M204 S1000
G1 X1.484 Y1.039 F10800.000
M204 S800
G1 F900
G1 X3.516 Y1.039 E0.06877
G1 X3.516 Y18.904 E0.60469
G1 X1.484 Y18.904 E0.06877
G1 X1.484 Y1.099 E0.60266
M204 S1000
G1 X1.891 Y1.446 F10800.000
M204 S800
G1 F900
G1 X3.109 Y1.446 E0.04121
G1 X3.109 Y18.497 E0.57714
G1 X1.891 Y18.497 E0.04121
G1 X1.891 Y1.506 E0.57510
M204 S1000
G1 X2.298 Y1.853 F10800.000
M204 S800
G1 F900
G1 X2.702 Y1.853 E0.01365
G1 X2.702 Y18.090 E0.54958
G1 X2.298 Y18.090 E0.01365
G1 X2.298 Y1.913 E0.54755
M204 S1000
;BEFORE_LAYER_CHANGE
G92 E0.0
;1.2


G1 Z1.200 F10800.000
;AFTER_LAYER_CHANGE
;1.2
G1 X0.670 Y0.225
M204 S800
G1 F900
G1 X4.330 Y0.225 E0.12389
G1 X4.330 Y19.261 E0.64434
G1 X0.670 Y19.261 E0.12389
G1 X0.670 Y0.285 E0.64231
M204 S1000
G1 X1.028 Y0.403 F10800.000
G1 X1.077 Y0.632
M204 S800
G1 F900
G1 X3.923 Y0.632 E0.09633
G1 X3.923 Y18.854 E0.61678
G1 X1.077 Y18.854 E0.09633
G1 X1.077 Y0.692 E0.61475
M204 S1000
G1 X1.484 Y1.039 F10800.000
M204 S800
G1 F900
G1 X3.516 Y1.039 E0.06877
G1 X3.516 Y18.447 E0.58922
G1 X1.484 Y18.447 E0.06877
G1 X1.484 Y1.099 E0.58719
M204 S1000
G1 X1.891 Y1.446 F10800.000
M204 S800
G1 F900
G1 X3.109 Y1.446 E0.04121
G1 X3.109 Y18.039 E0.56166
G1 X1.891 Y18.039 E0.04121
G1 X1.891 Y1.506 E0.55963
M204 S1000
G1 X2.298 Y1.853 F10800.000
M204 S800
G1 F900
G1 X2.702 Y1.853 E0.01365
G1 X2.702 Y17.632 E0.53410
G1 X2.298 Y17.632 E0.01365
G1 X2.298 Y1.913 E0.53207
M204 S1000
;BEFORE_LAYER_CHANGE
G92 E0.0
;1.4


G1 Z1.400 F10800.000
;AFTER_LAYER_CHANGE
;1.4
G1 X0.670 Y0.225
M204 S800
G1 F900
G1 X4.330 Y0.225 E0.12389
G1 X4.330 Y18.804 E0.62886
G1 X0.670 Y18.804 E0.12389
G1 X0.670 Y0.285 E0.62683
M204 S1000
G1 X1.029 Y0.402 F10800.000
G1 X1.077 Y0.632
M204 S800
G1 F900
G1 X3.923 Y0.632 E0.09633
G1 X3.923 Y18.396 E0.60130
G1 X1.077 Y18.396 E0.09633
G1 X1.077 Y0.692 E0.59927
M204 S1000
G1 X1.484 Y1.039 F10800.000
M204 S800
G1 F900
G1 X3.516 Y1.039 E0.06877
G1 X3.516 Y17.989 E0.57375
G1 X1.484 Y17.989 E0.06877
G1 X1.484 Y1.099 E0.57172
M204 S1000
G1 X1.891 Y1.446 F10800.000
M204 S800
G1 F900
G1 X3.109 Y1.446 E0.04121
G1 X3.109 Y17.582 E0.54619
G1 X1.891 Y17.582 E0.04121
G1 X1.891 Y1.506 E0.54416
M204 S1000
G1 X2.298 Y1.853 F10800.000
M204 S800
G1 F900
G1 X2.702 Y1.853 E0.01365
G1 X2.702 Y17.175 E0.51863
G1 X2.298 Y17.175 E0.01365
G1 X2.298 Y1.913 E0.51660
M73 Q11 S16
M73 P11 R16
M204 S1000
;BEFORE_LAYER_CHANGE
G92 E0.0
;1.6


G1 Z1.600 F10800.000
;AFTER_LAYER_CHANGE
;1.6
G1 X0.670 Y0.225
M204 S800
G1 F900
G1 X4.330 Y0.225 E0.12389
G1 X4.330 Y18.346 E0.61339
G1 X0.670 Y18.346 E0.12389
G1 X0.670 Y0.285 E0.61136
M204 S1000
G1 X1.029 Y0.402 F10800.000
G1 X1.077 Y0.632
M204 S800
G1 F900
G1 X3.923 Y0.632 E0.09633
G1 X3.923 Y17.939 E0.58583
G1 X1.077 Y17.939 E0.09633
