; generated by PrusaSlicer 2.2.0+win64 on 2021-09-20 at 14:48:22 UTC

; NIST pacman 

G1 Z0.200 F10800.000
;AFTER_LAYER_CHANGE
;0.2
G1 X-5.051 Y-1.476
M204 S1000
G1 F1200.000
G1 X-4.578 Y-2.596 E0.03812
M73 Q0 S8
M73 P0 R8
G1 X-3.860 Y-3.577 E0.03812
G1 X-2.936 Y-4.367 E0.03812
G1 X-1.855 Y-4.925 E0.03812
G1 X-1.067 Y-5.153 E0.02574
G1 X-0.258 Y-5.256 E0.02556
G1 X5.006 Y-5.262 E0.16504
G1 X5.863 Y-5.191 E0.02698
G1 X6.692 Y-4.983 E0.02680
G1 X7.477 Y-4.643 E0.02680
G1 X8.200 Y-4.178 E0.02698
G1 X8.838 Y-3.600 E0.02698
G1 X9.371 Y-2.931 E0.02680
G1 X9.787 Y-2.185 E0.02680
G1 X10.080 Y-1.376 E0.02698
G1 X10.262 Y-0.071 E0.04130
G1 X10.262 Y11.911 E0.37570
G1 X10.209 Y12.651 E0.02326
G1 X10.051 Y13.376 E0.02326
G1 X9.538 Y14.565 E0.04059
G1 X8.754 Y15.588 E0.04041
G1 X7.740 Y16.393 E0.04059
G1 X6.561 Y16.926 E0.04059
G1 X5.799 Y17.101 E0.02450
G1 X5.015 Y17.162 E0.02468
G1 X-0.170 Y17.160 E0.16256
G1 X-1.476 Y16.951 E0.04147
G1 X-2.786 Y16.365 E0.04499
G1 X-3.888 Y15.446 E0.04499
G1 X-4.702 Y14.264 E0.04499
G1 X-5.167 Y12.900 E0.04517
G1 X-5.262 Y11.937 E0.03034
G1 X-5.262 Y-0.045 E0.37570
G1 X-5.060 Y-1.417 E0.04347
G1 X-4.687 Y-1.361 F10800.000
G1 F1200.000
G1 X-4.232 Y-2.441 E0.03674
G1 X-3.552 Y-3.354 E0.03570
G1 X-2.679 Y-4.085 E0.03570
G1 X-1.656 Y-4.596 E0.03587
G1 X-0.946 Y-4.793 E0.02309
G1 X-0.215 Y-4.881 E0.02309
G1 X5.005 Y-4.885 E0.16368
G1 X5.810 Y-4.818 E0.02531
G1 X6.587 Y-4.620 E0.02514
G1 X7.326 Y-4.296 E0.02531
G1 X7.998 Y-3.858 E0.02514
G1 X8.588 Y-3.315 E0.02514
G1 X9.082 Y-2.684 E0.02514
G1 X9.468 Y-1.975 E0.02531
G1 X9.731 Y-1.217 E0.02514
G1 X9.885 Y-0.056 E0.03672
G1 X9.885 Y11.916 E0.37540
G1 X9.682 Y13.295 E0.04368
G1 X9.196 Y14.402 E0.03791
G1 X8.453 Y15.356 E0.03791
G1 X7.499 Y16.098 E0.03791
G1 X6.391 Y16.583 E0.03791
G1 X5.155 Y16.783 E0.03927
G1 X0.000 Y16.785 E0.16162
G1 X-0.702 Y16.735 E0.02207
G1 X-1.395 Y16.582 E0.02224
G1 X-2.613 Y16.028 E0.04199
G1 X-3.640 Y15.159 E0.04216
G1 X-4.388 Y14.048 E0.04199
G1 X-4.806 Y12.776 E0.04199
G1 X-4.885 Y11.929 E0.02668
G1 X-4.885 Y-0.044 E0.37540
G1 X-4.696 Y-1.301 E0.03988
G1 X-4.323 Y-1.244 F10800.000
G1 F1200.000
G1 X-4.313 Y-1.313 E0.00219
G1 X-3.886 Y-2.286 E0.03331
G1 X-3.243 Y-3.132 E0.03331
G1 X-2.420 Y-3.804 E0.03331
G1 X-1.463 Y-4.264 E0.03331
G1 X-0.168 Y-4.505 E0.04130
G1 X5.005 Y-4.508 E0.16220
G1 X5.752 Y-4.445 E0.02349
G1 X6.478 Y-4.259 E0.02349
G1 X7.163 Y-3.956 E0.02349
G1 X7.788 Y-3.543 E0.02349
G1 X8.336 Y-3.032 E0.02349
G1 X8.792 Y-2.438 E0.02349
G1 X9.144 Y-1.776 E0.02349
G1 X9.381 Y-1.065 E0.02349
G1 X9.508 Y-0.042 E0.03233
G1 X9.508 Y11.921 E0.37509
G1 X9.313 Y13.213 E0.04097
G1 X8.854 Y14.240 E0.03527
G1 X8.154 Y15.121 E0.03527
G1 X7.259 Y15.802 E0.03527
G1 X6.223 Y16.239 E0.03527
G1 X5.121 Y16.407 E0.03494
G1 X-0.016 Y16.408 E0.16105
G1 X-1.313 Y16.213 E0.04114
G1 X-2.442 Y15.690 E0.03902
G1 X-3.382 Y14.881 E0.03886
G1 X-4.068 Y13.843 E0.03902
G1 X-4.443 Y12.662 E0.03886
G1 X-4.508 Y11.921 E0.02333
G1 X-4.508 Y-0.042 E0.37509
G1 X-4.333 Y-1.185 E0.03625
G1 X-3.943 Y-1.231 F10800.000
G1 F1200.000
G1 X-3.542 Y-2.127 E0.03079
G1 X-2.936 Y-2.906 E0.03094
G1 X-2.167 Y-3.517 E0.03079
G1 X-1.276 Y-3.929 E0.03079
G1 X-0.132 Y-4.129 E0.03641
G1 X5.005 Y-4.131 E0.16107
G1 X5.695 Y-4.072 E0.02170
G1 X6.365 Y-3.899 E0.02170
G1 X6.997 Y-3.617 E0.02170
G1 X7.576 Y-3.229 E0.02186
G1 X8.079 Y-2.754 E0.02170
G1 X8.499 Y-2.197 E0.02186
G1 X8.816 Y-1.582 E0.02170
G1 X9.028 Y-0.918 E0.02186
G1 X9.131 Y-0.032 E0.02797
G1 X9.131 Y11.925 E0.37490
G1 X8.943 Y13.131 E0.03828
G1 X8.513 Y14.074 E0.03251
G1 X7.857 Y14.884 E0.03266
G1 X7.024 Y15.501 E0.03251
G1 X6.064 Y15.892 E0.03251
G1 X5.092 Y16.030 E0.03079
G1 X-0.025 Y16.031 E0.16044
G1 X-1.231 Y15.843 E0.03828
G1 X-2.267 Y15.353 E0.03594
G1 X-3.126 Y14.601 E0.03578
G1 X-3.746 Y13.643 E0.03578
G1 X-4.080 Y12.547 E0.03594
G1 X-4.131 Y-0.040 E0.39466
G1 X-3.953 Y-1.172 E0.03593
G1 X-3.581 Y-1.112 F10800.000
G1 F1200.000
G1 X-3.199 Y-1.965 E0.02930
G1 X-2.634 Y-2.675 E0.02845
G1 X-1.915 Y-3.229 E0.02845
G1 X-1.090 Y-3.593 E0.02830
G1 X-0.100 Y-3.753 E0.03142
G1 X5.005 Y-3.754 E0.16006
G1 X5.638 Y-3.699 E0.01994
G1 X6.258 Y-3.537 E0.02009
G1 X6.837 Y-3.274 E0.01994
G1 X7.363 Y-2.917 E0.01994
G1 X7.822 Y-2.476 E0.01994
G1 X8.202 Y-1.961 E0.02009
G1 X8.488 Y-1.388 E0.02009
G1 X8.672 Y-0.779 E0.01994
G1 X8.754 Y-0.024 E0.02382
G1 X8.754 Y11.929 E0.37476
G1 X8.575 Y13.045 E0.03544
G1 X8.174 Y13.906 E0.02979
G1 X7.569 Y14.638 E0.02979
G1 X6.799 Y15.195 E0.02979
G1 X5.910 Y15.542 E0.02994
G1 X5.071 Y15.653 E0.02651
G1 X-0.034 Y15.654 E0.16006
G1 X-1.145 Y15.475 E0.03529
G1 X-2.086 Y15.021 E0.03276
G1 X-2.865 Y14.326 E0.03276
G1 X-3.423 Y13.442 E0.03276
G1 X-3.715 Y12.443 E0.03261
G1 X-3.754 Y-0.038 E0.39136
G1 X-3.590 Y-1.053 E0.03222
G1 X-3.209 Y-1.054 F10800.000
G1 F1200.000
G1 X-2.858 Y-1.799 E0.02584
G1 X-2.340 Y-2.435 E0.02570
G1 X-1.680 Y-2.929 E0.02584
G1 X-0.921 Y-3.249 E0.02584
G1 X-0.075 Y-3.376 E0.02683
G1 X5.005 Y-3.377 E0.15925
G1 X6.144 Y-3.178 E0.03626
G1 X7.149 Y-2.605 E0.03626
G1 X7.899 Y-1.731 E0.03612
G1 X8.314 Y-0.652 E0.03626
G1 X8.377 Y-0.016 E0.02004
G1 X8.377 Y11.927 E0.37446
G1 X8.209 Y12.954 E0.03261
G1 X7.838 Y13.730 E0.02697
G1 X7.280 Y14.391 E0.02711
G1 X6.577 Y14.886 E0.02697
G1 X5.767 Y15.189 E0.02711
G1 X5.052 Y15.277 E0.02259
G1 X-0.041 Y15.277 E0.15968
G1 X-1.054 Y15.109 E0.03219
G1 X-1.902 Y14.691 E0.02965
G1 X-2.598 Y14.057 E0.02951
G1 X-3.095 Y13.252 E0.02965
G1 X-3.348 Y12.346 E0.02951
G1 X-3.377 Y-0.036 E0.38823
G1 X-3.218 Y-0.994 E0.03045
G1 X0.210 Y0.210 F10800.000
G1 F1200.000
G1 X4.790 Y0.210 E0.14360
G1 X4.790 Y11.690 E0.35995
G1 X0.210 Y11.690 E0.14360
G1 X0.210 Y0.270 E0.35807
G1 X0.579 Y0.365 F10800.000
G1 X0.587 Y0.587
G1 F1200.000
G1 X4.413 Y0.587 E0.11996
G1 X4.413 Y11.313 E0.33630
G1 X0.587 Y11.313 E0.11996
G1 X0.587 Y0.647 E0.33442
G1 X0.644 Y10.494 F10800.000
G1 F1200.000
G1 X1.236 Y11.087 E0.02628
G1 X1.770 Y11.087 E0.01673
G1 X0.813 Y10.130 E0.04241
G1 X0.813 Y9.597 E0.01673
G1 X2.303 Y11.087 E0.06606
G1 X2.836 Y11.087 E0.01673
G1 X0.813 Y9.064 E0.08972
G1 X0.813 Y8.530 E0.01673
G1 X3.370 Y11.087 E0.11337
G1 X3.903 Y11.087 E0.01673
G1 X0.813 Y7.997 E0.13703
G1 X0.813 Y7.464 E0.01673
G1 X4.187 Y10.837 E0.14961
G1 X4.187 Y10.304 E0.01673
G1 X0.813 Y6.930 E0.14961
G1 X0.813 Y6.397 E0.01673
G1 X4.187 Y9.770 E0.14961
G1 X4.187 Y9.237 E0.01673
G1 X0.813 Y5.863 E0.14961
G1 X0.813 Y5.330 E0.01673
G1 X4.187 Y8.703 E0.14961
G1 X4.187 Y8.170 E0.01673
G1 X0.813 Y4.797 E0.14961
G1 X0.813 Y4.263 E0.01673
G1 X4.187 Y7.637 E0.14961
G1 X4.187 Y7.103 E0.01673
G1 X0.813 Y3.730 E0.14961
G1 X0.813 Y3.197 E0.01673
G1 X4.187 Y6.570 E0.14961
G1 X4.187 Y6.037 E0.01673
G1 X0.813 Y2.663 E0.14961
G1 X0.813 Y2.130 E0.01673
G1 X4.187 Y5.503 E0.14961
G1 X4.187 Y4.970 E0.01673
G1 X0.813 Y1.597 E0.14961
G1 X0.813 Y1.063 E0.01673
G1 X4.187 Y4.437 E0.14961
G1 X4.187 Y3.903 E0.01673
G1 X1.097 Y0.813 E0.13703
G1 X1.630 Y0.813 E0.01673
G1 X4.187 Y3.370 E0.11338
G1 X4.187 Y2.836 E0.01673
G1 X2.164 Y0.813 E0.08973
G1 X2.697 Y0.813 E0.01673
G1 X4.187 Y2.303 E0.06607
G1 X4.187 Y1.770 E0.01673
G1 X3.230 Y0.813 E0.04242
G1 X3.764 Y0.813 E0.01673
G1 X4.356 Y1.406 E0.02629
M106 S255
;BEFORE_LAYER_CHANGE
G92 E0.0
;0.4


G1 Z0.400 F10800.000
;AFTER_LAYER_CHANGE
;0.4
M104 S210 ; set temperature
G1 X10.080 Y-1.376
G1 F1565
G1 X10.262 Y-0.071 E0.04130
G1 X10.262 Y11.911 E0.37570
G1 X10.209 Y12.651 E0.02326
G1 X10.051 Y13.376 E0.02326
G1 X9.538 Y14.565 E0.04059
G1 X8.754 Y15.588 E0.04041
G1 X7.740 Y16.393 E0.04059
G1 X6.561 Y16.926 E0.04059
G1 X5.799 Y17.101 E0.02450
G1 X5.015 Y17.162 E0.02468
G1 X-0.170 Y17.160 E0.16256
G1 X-1.476 Y16.951 E0.04147
G1 X-2.786 Y16.365 E0.04499
G1 X-3.888 Y15.446 E0.04499
G1 X-4.702 Y14.264 E0.04499
G1 X-5.167 Y12.900 E0.04517
G1 X-5.262 Y11.937 E0.03034
G1 X-5.262 Y-0.045 E0.37570
G1 X-5.051 Y-1.476 E0.04535
G1 X-4.578 Y-2.596 E0.03812
G1 X-3.860 Y-3.577 E0.03812
G1 X-2.936 Y-4.367 E0.03812
G1 X-1.855 Y-4.925 E0.03812
G1 X-1.067 Y-5.153 E0.02574
G1 X-0.258 Y-5.256 E0.02556
G1 X5.006 Y-5.262 E0.16504
G1 X5.863 Y-5.191 E0.02698
G1 X6.692 Y-4.983 E0.02680
G1 X7.477 Y-4.643 E0.02680
G1 X8.200 Y-4.178 E0.02698
G1 X8.838 Y-3.600 E0.02698
G1 X9.371 Y-2.931 E0.02680
G1 X9.787 Y-2.185 E0.02680
G1 X10.059 Y-1.432 E0.02510
G1 X9.700 Y-1.307 F10800.000
G1 F1565
G1 X9.731 Y-1.217 E0.00298
G1 X9.885 Y-0.056 E0.03672
G1 X9.885 Y11.916 E0.37540
G1 X9.682 Y13.295 E0.04368
G1 X9.196 Y14.402 E0.03791
G1 X8.453 Y15.356 E0.03791
G1 X7.499 Y16.098 E0.03791
G1 X6.391 Y16.583 E0.03791
G1 X5.155 Y16.783 E0.03927
G1 X0.000 Y16.785 E0.16162
G1 X-0.702 Y16.735 E0.02207
G1 X-1.395 Y16.582 E0.02224
G1 X-2.613 Y16.028 E0.04199
G1 X-3.640 Y15.159 E0.04216
G1 X-4.388 Y14.048 E0.04199
G1 X-4.806 Y12.776 E0.04199
G1 X-4.885 Y11.929 E0.02668
G1 X-4.885 Y-0.044 E0.37540
G1 X-4.682 Y-1.395 E0.04283
G1 X-4.232 Y-2.441 E0.03570
G1 X-3.552 Y-3.354 E0.03570
G1 X-2.679 Y-4.085 E0.03570
G1 X-1.656 Y-4.596 E0.03587
G1 X-0.946 Y-4.793 E0.02309
G1 X-0.215 Y-4.881 E0.02309
G1 X5.005 Y-4.885 E0.16368
G1 X5.810 Y-4.818 E0.02531
G1 X6.587 Y-4.620 E0.02514
G1 X7.326 Y-4.296 E0.02531
G1 X7.998 Y-3.858 E0.02514
G1 X8.588 Y-3.315 E0.02514
G1 X9.082 Y-2.684 E0.02514
G1 X9.468 Y-1.975 E0.02531
G1 X9.680 Y-1.364 E0.02028
G1 X9.381 Y-1.065 F10800.000
G1 F1565
G1 X9.508 Y-0.042 E0.03233
G1 X9.508 Y11.921 E0.37509
G1 X9.313 Y13.213 E0.04097
G1 X8.854 Y14.240 E0.03527
G1 X8.154 Y15.121 E0.03527
G1 X7.259 Y15.802 E0.03527
G1 X6.223 Y16.239 E0.03527
G1 X5.121 Y16.407 E0.03494
G1 X-0.016 Y16.408 E0.16105
G1 X-1.313 Y16.213 E0.04114
G1 X-2.442 Y15.690 E0.03902
G1 X-3.382 Y14.881 E0.03886
G1 X-4.068 Y13.843 E0.03902
G1 X-4.443 Y12.662 E0.03886
G1 X-4.508 Y11.921 E0.02333
G1 X-4.508 Y-0.042 E0.37509
G1 X-4.313 Y-1.313 E0.04032
G1 X-3.886 Y-2.286 E0.03331
G1 X-3.243 Y-3.132 E0.03331
G1 X-2.420 Y-3.804 E0.03331
G1 X-1.463 Y-4.264 E0.03331
G1 X-0.168 Y-4.505 E0.04130
G1 X5.005 Y-4.508 E0.16220
G1 X5.752 Y-4.445 E0.02349
G1 X6.478 Y-4.259 E0.02349
G1 X7.163 Y-3.956 E0.02349
G1 X7.788 Y-3.543 E0.02349
G1 X8.336 Y-3.032 E0.02349
G1 X8.792 Y-2.438 E0.02349
G1 X9.144 Y-1.776 E0.02349
G1 X9.362 Y-1.122 E0.02161
G1 X9.000 Y-1.007 F10800.000
G1 F1565
G1 X9.028 Y-0.918 E0.00293
G1 X9.131 Y-0.032 E0.02797
G1 X9.131 Y11.925 E0.37490
G1 X8.943 Y13.131 E0.03828
G1 X8.513 Y14.074 E0.03251
G1 X7.857 Y14.884 E0.03266
G1 X7.024 Y15.501 E0.03251
G1 X6.064 Y15.892 E0.03251
G1 X5.092 Y16.030 E0.03079
G1 X-0.025 Y16.031 E0.16044
G1 X-1.231 Y15.843 E0.03828
G1 X-2.267 Y15.353 E0.03594
G1 X-3.126 Y14.601 E0.03578
G1 X-3.746 Y13.643 E0.03578
G1 X-4.080 Y12.547 E0.03594
G1 X-4.131 Y-0.040 E0.39466
G1 X-3.943 Y-1.231 E0.03781
G1 X-3.542 Y-2.127 E0.03079
G1 X-2.936 Y-2.906 E0.03094
G1 X-2.167 Y-3.517 E0.03079
G1 X-1.276 Y-3.929 E0.03079
G1 X-0.132 Y-4.129 E0.03641
G1 X5.005 Y-4.131 E0.16107
G1 X5.695 Y-4.072 E0.02170
G1 X6.365 Y-3.899 E0.02170
G1 X6.997 Y-3.617 E0.02170
G1 X7.576 Y-3.229 E0.02186
G1 X8.079 Y-2.754 E0.02170
G1 X8.499 Y-2.197 E0.02186
G1 X8.816 Y-1.582 E0.02170
G1 X8.981 Y-1.064 E0.01705
G1 X8.672 Y-0.779 F10800.000
G1 F1565
G1 X8.754 Y-0.024 E0.02382
G1 X8.754 Y11.929 E0.37476
G1 X8.575 Y13.045 E0.03544
G1 X8.174 Y13.906 E0.02979
G1 X7.569 Y14.638 E0.02979
G1 X6.799 Y15.195 E0.02979
G1 X5.910 Y15.542 E0.02994
G1 X5.071 Y15.653 E0.02651
G1 X-0.034 Y15.654 E0.16006
G1 X-1.145 Y15.475 E0.03529
G1 X-2.086 Y15.021 E0.03276
G1 X-2.865 Y14.326 E0.03276
G1 X-3.423 Y13.442 E0.03276
G1 X-3.715 Y12.443 E0.03261
G1 X-3.754 Y-0.038 E0.39136
G1 X-3.575 Y-1.145 E0.03514
G1 X-3.199 Y-1.965 E0.02830
G1 X-2.634 Y-2.675 E0.02845
G1 X-1.915 Y-3.229 E0.02845
G1 X-1.090 Y-3.593 E0.02830
G1 X-0.100 Y-3.753 E0.03142
G1 X5.005 Y-3.754 E0.16006
G1 X5.638 Y-3.699 E0.01994
G1 X6.258 Y-3.537 E0.02009
G1 X6.837 Y-3.274 E0.01994
G1 X7.363 Y-2.917 E0.01994
G1 X7.822 Y-2.476 E0.01994
G1 X8.202 Y-1.961 E0.02009
G1 X8.488 Y-1.388 E0.02009
G1 X8.655 Y-0.836 E0.01806
G1 X7.899 Y-1.731 F10800.000
G1 F1565
G1 X8.314 Y-0.652 E0.03626
G1 X8.377 Y-0.016 E0.02004
G1 X8.377 Y11.927 E0.37446
G1 X8.209 Y12.954 E0.03261
G1 X7.838 Y13.730 E0.02697
G1 X7.280 Y14.391 E0.02711
G1 X6.577 Y14.886 E0.02697
G1 X5.767 Y15.189 E0.02711
G1 X5.052 Y15.277 E0.02259
G1 X-0.041 Y15.277 E0.15968
G1 X-1.054 Y15.109 E0.03219
G1 X-1.902 Y14.691 E0.02965
G1 X-2.598 Y14.057 E0.02951
G1 X-3.095 Y13.252 E0.02965
G1 X-3.348 Y12.346 E0.02951
G1 X-3.377 Y-0.036 E0.38823
G1 X-3.209 Y-1.054 E0.03233
G1 X-2.858 Y-1.799 E0.02584
G1 X-2.340 Y-2.435 E0.02570
G1 X-1.680 Y-2.929 E0.02584
G1 X-0.921 Y-3.249 E0.02584
G1 X-0.075 Y-3.376 E0.02683
G1 X5.005 Y-3.377 E0.15925
G1 X6.144 Y-3.178 E0.03626
G1 X7.149 Y-2.605 E0.03626
G1 X7.860 Y-1.777 E0.03424
G1 X4.775 Y0.225 F10800.000
M204 S800
G1 F1500.000
G1 X4.775 Y11.475 E0.38080
G1 X0.225 Y11.475 E0.15401
G1 X0.225 Y0.225 E0.38080
G1 X4.715 Y0.225 E0.15198
M204 S1000
G1 X4.724 Y0.622 F10800.000
G1 X4.368 Y0.632
M204 S800
G1 F1500.000
G1 X4.368 Y11.068 E0.35324
G1 X0.632 Y11.068 E0.12645
G1 X0.632 Y0.632 E0.35324
G1 X4.308 Y0.632 E0.12442
M204 S1000
G1 X3.472 Y11.007 F10800.000
M204 S1250
G1 F1565
G1 X4.124 Y10.355 E0.03163
G1 X4.124 Y9.771 E0.02003
G1 X3.071 Y10.824 E0.05107
G1 X2.488 Y10.824 E0.02003
G1 X4.124 Y9.188 E0.07940
G1 X4.124 Y8.604 E0.02003
G1 X1.904 Y10.824 E0.10773
G1 X1.320 Y10.824 E0.02003
G1 X4.124 Y8.020 E0.13606
G1 X4.124 Y7.437 E0.02003
G1 X0.876 Y10.684 E0.15761
G1 X0.876 Y10.100 E0.02003
G1 X4.124 Y6.853 E0.15761
G1 X4.124 Y6.269 E0.02003
G1 X0.876 Y9.517 E0.15761
G1 X0.876 Y8.933 E0.02003
G1 X4.124 Y5.686 E0.15761
G1 X4.124 Y5.102 E0.02003
G1 X0.876 Y8.349 E0.15761
G1 X0.876 Y7.765 E0.02003
G1 X4.124 Y4.518 E0.15761
G1 X4.124 Y3.934 E0.02003
G1 X0.876 Y7.182 E0.15761
G1 X0.876 Y6.598 E0.02003
G1 X4.124 Y3.351 E0.15761
G1 X4.124 Y2.767 E0.02003
G1 X0.876 Y6.014 E0.15761
G1 X0.876 Y5.431 E0.02003
G1 X4.124 Y2.183 E0.15761
G1 X4.124 Y1.600 E0.02003
G1 X0.876 Y4.847 E0.15761
G1 X0.876 Y4.263 E0.02003
G1 X4.124 Y1.016 E0.15761
G1 X4.124 Y0.876 E0.00479
G1 X3.680 Y0.876 E0.01524
G1 X0.876 Y3.680 E0.13605
G1 X0.876 Y3.096 E0.02003
G1 X3.096 Y0.876 E0.10773
G1 X2.512 Y0.876 E0.02003
G1 X0.876 Y2.512 E0.07940
G1 X0.876 Y1.928 E0.02003
G1 X1.928 Y0.876 E0.05107
G1 X1.345 Y0.876 E0.02003
G1 X0.693 Y1.528 E0.03163
M204 S1000
;BEFORE_LAYER_CHANGE
G92 E0.0
;0.6


G1 Z0.600 F10800.000
;AFTER_LAYER_CHANGE
;0.6
G1 X0.225 Y0.225
M204 S800
G1 F900
G1 X4.775 Y0.225 E0.15401
G1 X4.775 Y11.275 E0.37403
G1 X0.225 Y11.275 E0.15401
G1 X0.225 Y0.285 E0.37200
M204 S1000
G1 X0.594 Y0.378 F10800.000
G1 X0.632 Y0.632
M204 S800
G1 F900
G1 X4.368 Y0.632 E0.12645
G1 X4.368 Y10.868 E0.34647
G1 X0.632 Y10.868 E0.12645
G1 X0.632 Y0.692 E0.34444
M204 S1000
G1 X0.693 Y9.947 F10800.000
M204 S1250
G1 F900
G1 X1.370 Y10.624 E0.03378
G1 X1.970 Y10.624 E0.02119
G1 X0.876 Y9.530 E0.05461
G1 X0.876 Y8.929 E0.02119
G1 X2.571 Y10.624 E0.08458
G1 X3.171 Y10.624 E0.02119
G1 X0.876 Y8.329 E0.11455
G1 X0.876 Y7.729 E0.02119
G1 X3.771 Y10.624 E0.14452
G1 X4.124 Y10.624 E0.01244
G1 X4.124 Y10.376 E0.00875
G1 X0.876 Y7.128 E0.16211
G1 X0.876 Y6.528 E0.02119
G1 X4.124 Y9.775 E0.16211
G1 X4.124 Y9.175 E0.02119
G1 X0.876 Y5.928 E0.16211
G1 X0.876 Y5.327 E0.02119
G1 X4.124 Y8.575 E0.16211
G1 X4.124 Y7.974 E0.02119
G1 X0.876 Y4.727 E0.16211
G1 X0.876 Y4.126 E0.02119
G1 X4.124 Y7.374 E0.16211
G1 X4.124 Y6.773 E0.02119
G1 X0.876 Y3.526 E0.16211
G1 X0.876 Y2.926 E0.02119
G1 X4.124 Y6.173 E0.16211
G1 X4.124 Y5.573 E0.02119
G1 X0.876 Y2.325 E0.16211
G1 X0.876 Y1.725 E0.02119
G1 X4.124 Y4.972 E0.16211
G1 X4.124 Y4.372 E0.02119
G1 X0.876 Y1.124 E0.16211
G1 X0.876 Y0.876 E0.00876
G1 X1.229 Y0.876 E0.01243
G1 X4.124 Y3.771 E0.14453
G1 X4.124 Y3.171 E0.02119
G1 X1.829 Y0.876 E0.11456
G1 X2.429 Y0.876 E0.02119
G1 X4.124 Y2.571 E0.08459
G1 X4.124 Y1.970 E0.02119
G1 X3.030 Y0.876 E0.05461
G1 X3.630 Y0.876 E0.02119
G1 X4.307 Y1.553 E0.03379
M204 S1000
;BEFORE_LAYER_CHANGE
G92 E0.0
;0.8


G1 Z0.800 F10800.000
;AFTER_LAYER_CHANGE
;0.8
G1 X4.775 Y0.225
M204 S800
G1 F900
G1 X4.775 Y11.075 E0.36726
G1 X0.225 Y11.075 E0.15401
G1 X0.225 Y0.225 E0.36726
M73 Q11 S7
M73 P11 R7
G1 X4.715 Y0.225 E0.15198
M204 S1000
