; generated by PrusaSlicer 2.2.0+win64 on 2021-09-22 at 19:57:15 UTC

; 

; external perimeters extrusion width = 0.45mm
; perimeters extrusion width = 0.45mm
; infill extrusion width = 0.45mm
; solid infill extrusion width = 0.45mm
; top infill extrusion width = 0.40mm
; support material extrusion width = 0.35mm
; first layer extrusion width = 0.42mm

M73 P0 R35
M73 Q0 S35
M201 X1000 Y1000 Z200 E5000 ; sets maximum accelerations, mm/sec^2
M203 X200 Y200 Z12 E120 ; sets maximum feedrates, mm/sec
M204 P1250 R1250 T1250 ; sets acceleration (P, T) and retract acceleration (R), mm/sec^2
M205 X8.00 Y8.00 Z0.40 E4.50 ; sets the jerk limits, mm/sec
M205 S0 T0 ; sets the minimum extruding and travel feed rate, mm/sec
M107
M862.3 P "MK3S" ; printer model check
M862.1 P0.4 ; nozzle diameter check
M115 U3.10.0 ; tell printer latest fw version
G90 ; use absolute coordinates
M83 ; extruder relative mode
M104 S215 ; set extruder temp
M140 S75 ; set bed temp
M190 S75 ; wait for bed temp
M109 S215 ; wait for extruder temp
G28 W ; home all without mesh bed level
G80 ; mesh bed leveling
G1 Y-3.0 F1000.0 ; go outside print area
G92 E0.0
G1 X60.0 E9.0 F1000.0 ; intro line
M73 Q0 S35
M73 P0 R35
G1 X100.0 E12.5 F1000.0 ; intro line
G92 E0.0
M221 S95

; Don't change E values below. Excessive value can damage the printer.

G21 ; set units to millimeters
G90 ; use absolute coordinates
M83 ; use relative distances for extrusion
M900 K30 ; Filament gcode
;BEFORE_LAYER_CHANGE
G92 E0.0
;0.2


G1 E-0.80000 F2100.00000
G1 Z0.400 F10800.000
;AFTER_LAYER_CHANGE
;0.2
G1 X-1.190 Y-4.103
G1 Z0.200
G1 E0.80000 F2100.00000
M204 S1000
G1 F1200.000
G1 X-0.077 Y-4.254 E0.03522
G1 X8.005 Y-4.254 E0.25342
G1 X8.831 Y-4.181 E0.02598
G1 X9.626 Y-3.968 E0.02581
G1 X10.377 Y-3.618 E0.02598
G1 X11.051 Y-3.146 E0.02581
G1 X11.634 Y-2.565 E0.02581
G1 X12.111 Y-1.887 E0.02598
G1 X12.463 Y-1.137 E0.02598
G1 X12.680 Y-0.338 E0.02598
G1 X12.754 Y0.482 E0.02581
G1 X12.754 Y19.431 E0.59412
G1 X12.687 Y20.186 E0.02379
G1 X12.503 Y20.917 E0.02362
G1 X11.962 Y22.021 E0.03857
G1 X11.159 Y22.946 E0.03840
G1 X10.141 Y23.638 E0.03857
G1 X8.986 Y24.044 E0.03840
G1 X8.056 Y24.147 E0.02934
G1 X-0.065 Y24.147 E0.25461
G1 X-0.804 Y24.079 E0.02328
G1 X-1.524 Y23.896 E0.02328
G1 X-2.713 Y23.297 E0.04175
G1 X-3.689 Y22.391 E0.04175
G1 X-4.378 Y21.246 E0.04192
G1 X-4.720 Y19.959 E0.04175
G1 X-4.754 Y0.452 E0.61164
G1 X-4.687 Y-0.299 E0.02362
G1 X-4.503 Y-1.024 E0.02345
G1 X-3.991 Y-2.083 E0.03689
G1 X-3.234 Y-2.984 E0.03689
G1 X-2.284 Y-3.669 E0.03673
G1 X-1.246 Y-4.081 E0.03501
G1 F8640.000
G1 X-0.077 Y-4.254 E-0.27282
G1 X2.033 Y-4.254 E-0.48718
G1 E-0.04000 F2100.00000
G1 Z0.600 F10800.000
G1 X-2.057 Y-3.364
G1 Z0.200
G1 E0.80000 F2100.00000
G1 F1200.000
G1 X-1.035 Y-3.753 E0.03427
G1 X-0.058 Y-3.877 E0.03089
G1 X8.005 Y-3.877 E0.25281
G1 X8.766 Y-3.810 E0.02395
G1 X9.509 Y-3.609 E0.02412
G1 X10.205 Y-3.281 E0.02412
G1 X10.829 Y-2.840 E0.02395
G1 X11.370 Y-2.294 E0.02412
G1 X11.807 Y-1.661 E0.02412
G1 X12.124 Y-0.966 E0.02395
G1 X12.317 Y-0.221 E0.02412
G1 X12.377 Y0.489 E0.02234
G1 X12.377 Y19.429 E0.59387
G1 X12.314 Y20.134 E0.02218
G1 X12.138 Y20.819 E0.02218
G1 X11.630 Y21.838 E0.03571
G1 X10.880 Y22.689 E0.03555
G1 X9.932 Y23.320 E0.03571
G1 X8.859 Y23.685 E0.03555
G1 X8.042 Y23.770 E0.02573
G1 X-0.067 Y23.769 E0.25427
G1 X-0.756 Y23.704 E0.02169
G1 X-1.426 Y23.531 E0.02169
G1 X-2.522 Y22.970 E0.03860
G1 X-3.419 Y22.126 E0.03860
G1 X-4.045 Y21.066 E0.03860
G1 X-4.351 Y19.874 E0.03860
G1 X-4.377 Y0.453 E0.60891
G1 X-4.313 Y-0.246 E0.02202
G1 X-4.138 Y-0.926 E0.02202
G1 X-3.656 Y-1.907 E0.03427
G1 X-2.950 Y-2.734 E0.03411
G1 X-2.106 Y-3.329 E0.03239
G1 F8640.000
G1 X-1.035 Y-3.753 E-0.26580
G1 X-0.058 Y-3.877 E-0.22747
G1 X1.097 Y-3.877 E-0.26673
G1 E-0.04000 F2100.00000
G1 Z0.600 F10800.000
G1 X-2.262 Y-0.529
G1 Z0.200
G1 E0.80000 F2100.00000
G1 F1200.000
G1 X-1.958 Y-1.009 E0.01783
G1 X-1.393 Y-1.552 E0.02454
G1 X-1.022 Y-1.764 E0.01340
G1 X-0.360 Y-1.951 E0.02159
G1 X8.368 Y-1.947 E0.27366
G1 X8.811 Y-1.850 E0.01423
G1 X9.259 Y-1.642 E0.01548
G1 X9.950 Y-1.017 E0.02920
G1 X10.262 Y-0.529 E0.01818
G1 X10.451 Y0.140 E0.02179
G1 X10.451 Y19.753 E0.61494
G1 X10.262 Y20.421 E0.02179
G1 X9.958 Y20.902 E0.01783
G1 X9.393 Y21.444 E0.02454
G1 X9.022 Y21.656 E0.01339
G1 X8.360 Y21.844 E0.02158
G1 X-0.360 Y21.844 E0.27341
G1 X-1.029 Y21.654 E0.02179
G1 X-1.509 Y21.350 E0.01783
G1 X-2.052 Y20.786 E0.02454
G1 X-2.264 Y20.415 E0.01339
G1 X-2.451 Y19.753 E0.02158
G1 X-2.451 Y0.140 E0.61494
G1 X-2.278 Y-0.471 E0.01991
G1 X-2.074 Y0.168 F10800.000
G1 F1200.000
G1 X-1.908 Y-0.395 E0.01842
G1 X-1.680 Y-0.753 E0.01328
G1 X-1.149 Y-1.263 E0.02311
G1 X-0.894 Y-1.409 E0.00919
G1 X-0.332 Y-1.574 E0.01838
G1 X8.346 Y-1.570 E0.27208
G1 X8.705 Y-1.487 E0.01157
G1 X9.071 Y-1.315 E0.01268
G1 X9.676 Y-0.757 E0.02580
G1 X9.908 Y-0.395 E0.01347
G1 X10.074 Y0.168 E0.01841
G1 X10.074 Y19.725 E0.61319
G1 X9.908 Y20.288 E0.01842
G1 X9.680 Y20.645 E0.01328
G1 X9.149 Y21.156 E0.02311
G1 X8.894 Y21.301 E0.00919
G1 X8.332 Y21.467 E0.01838
G1 X-0.332 Y21.467 E0.27165
G1 X-0.895 Y21.301 E0.01842
G1 X-1.253 Y21.073 E0.01328
G1 X-1.763 Y20.542 E0.02311
G1 X-1.909 Y20.287 E0.00919
G1 X-2.074 Y19.725 E0.01838
G1 X-2.074 Y0.228 E0.61131
G1 X-1.697 Y0.198 F10800.000
G1 F1200.000
G1 X-1.556 Y-0.258 E0.01495
G1 X-1.402 Y-0.498 E0.00894
G1 X-0.936 Y-0.951 E0.02038
G1 X-0.759 Y-1.056 E0.00643
G1 X-0.302 Y-1.197 E0.01500
G1 X8.324 Y-1.193 E0.27047
G1 X8.562 Y-1.138 E0.00767
G1 X8.882 Y-0.987 E0.01109
G1 X9.401 Y-0.499 E0.02233
G1 X9.556 Y-0.258 E0.00898
G1 X9.697 Y0.198 E0.01495
G1 X9.697 Y19.695 E0.61133
G1 X9.556 Y20.151 E0.01495
G1 X9.402 Y20.391 E0.00894
G1 X8.936 Y20.844 E0.02038
G1 X8.759 Y20.949 E0.00643
G1 X8.302 Y21.090 E0.01500
G1 X-0.302 Y21.090 E0.26980
G1 X-0.758 Y20.949 E0.01495
G1 X-0.998 Y20.795 E0.00894
G1 X-1.451 Y20.329 E0.02038
G1 X-1.556 Y20.152 E0.00643
G1 X-1.697 Y19.695 E0.01500
G1 X-1.697 Y0.258 E0.60945
G1 X-1.207 Y-0.115 F10800.000
G1 F1200.000
G1 X-1.123 Y-0.244 E0.00482
G1 X-0.718 Y-0.644 E0.01785
G1 X-0.617 Y-0.706 E0.00371
G1 X-0.271 Y-0.820 E0.01143
G1 X8.302 Y-0.816 E0.26878
G1 X8.419 Y-0.789 E0.00377
G1 X8.692 Y-0.660 E0.00947
G1 X9.123 Y-0.243 E0.01880
G1 X9.207 Y-0.115 E0.00479
G1 X9.320 Y0.229 E0.01136
G1 X9.320 Y19.664 E0.60935
G1 X9.207 Y20.008 E0.01136
G1 X9.123 Y20.137 E0.00482
G1 X8.718 Y20.537 E0.01785
G1 X8.617 Y20.599 E0.00371
G1 X8.271 Y20.713 E0.01144
G1 X-0.271 Y20.713 E0.26781
G1 X-0.615 Y20.600 E0.01136
G1 X-0.744 Y20.515 E0.00482
G1 X-1.144 Y20.111 E0.01785
G1 X-1.206 Y20.010 E0.00371
G1 X-1.320 Y19.664 E0.01144
G1 X-1.320 Y0.229 E0.60935
G1 X-1.225 Y-0.058 E0.00948
G1 X-0.861 Y0.037 F10800.000
G1 F1200.000
G1 X-0.490 Y-0.343 E0.01666
G1 X-0.236 Y-0.443 E0.00856
G1 X8.250 Y-0.443 E0.26605
G1 X8.500 Y-0.333 E0.00856
G1 X8.861 Y0.037 E0.01622
G1 X8.943 Y0.264 E0.00757
G1 X8.943 Y19.628 E0.60715
G1 X8.843 Y19.883 E0.00856
G1 X8.463 Y20.254 E0.01666
G1 X8.236 Y20.336 E0.00757
G1 X-0.236 Y20.336 E0.26561
G1 X-0.490 Y20.236 E0.00856
G1 X-0.861 Y19.856 E0.01666
G1 X-0.943 Y19.628 E0.00757
G1 X-0.943 Y0.264 E0.60715
G1 X-0.881 Y0.094 E0.00569
G1 X-0.537 Y0.237 F10800.000
G1 F1200.000
G1 X-0.263 Y-0.037 E0.01215
G1 X-0.194 Y-0.066 E0.00235
G1 X8.194 Y-0.066 E0.26298
G1 X8.263 Y-0.037 E0.00235
G1 X8.537 Y0.237 E0.01215
G1 X8.566 Y0.306 E0.00235
G1 X8.566 Y19.587 E0.60452
G1 X8.537 Y19.656 E0.00235
G1 X8.263 Y19.930 E0.01215
G1 X8.194 Y19.958 E0.00235
G1 X-0.194 Y19.958 E0.26298
G1 X-0.263 Y19.930 E0.00235
G1 X-0.537 Y19.656 E0.01215
G1 X-0.566 Y19.587 E0.00235
G1 X-0.560 Y0.292 E0.60495
G1 X-0.189 Y0.422 F10800.000
G1 F1200.000
G1 X-0.078 Y0.311 E0.00490
G1 X8.078 Y0.311 E0.25573
G1 X8.189 Y0.422 E0.00490
G1 X8.189 Y19.471 E0.59727
G1 X8.078 Y19.581 E0.00490
G1 X-0.078 Y19.581 E0.25573
G1 X-0.189 Y19.471 E0.00490
G1 X-0.189 Y0.482 E0.59539
G1 X0.210 Y0.710 F10800.000
G1 F1200.000
G1 X7.790 Y0.710 E0.23767
G1 X7.790 Y19.183 E0.57920
G1 X0.210 Y19.183 E0.23767
G1 X0.210 Y0.770 E0.57732
G1 X0.579 Y0.863 F10800.000
G1 X0.587 Y1.087
G1 F1200.000
G1 X7.413 Y1.087 E0.21402
G1 X7.413 Y18.806 E0.55556
G1 X0.587 Y18.806 E0.21402
G1 X0.587 Y1.147 E0.55368
G1 X0.964 Y1.464 F10800.000
G1 F1200.000
G1 X7.036 Y1.464 E0.19037
G1 X7.036 Y18.429 E0.53191
G1 X0.964 Y18.429 E0.19037
G1 X0.964 Y1.524 E0.53003
G1 X1.341 Y1.841 F10800.000
G1 F1200.000
G1 X6.659 Y1.841 E0.16673
G1 X6.659 Y18.052 E0.50827
G1 X1.341 Y18.052 E0.16673
G1 X1.341 Y1.901 E0.50638
G1 X1.718 Y2.218 F10800.000
G1 F1200.000
G1 X6.282 Y2.218 E0.14308
G1 X6.282 Y17.675 E0.48462
G1 X1.718 Y17.675 E0.14308
G1 X1.718 Y2.278 E0.48274
G1 F8640.000
G1 X5.009 Y2.235 E-0.76000
G1 E-0.04000 F2100.00000
G1 Z0.600 F10800.000
G1 X1.775 Y16.850
G1 Z0.200
G1 E0.80000 F2100.00000
G1 F1200.000
G1 X2.373 Y17.448 E0.02670
G1 X2.910 Y17.448 E0.01695
G1 X1.945 Y16.483 E0.04310
G1 X1.945 Y15.946 E0.01695
G1 X3.447 Y17.448 E0.06708
G1 X3.984 Y17.448 E0.01695
G1 X1.945 Y15.409 E0.09106
G1 X1.945 Y14.872 E0.01695
G1 X4.521 Y17.448 E0.11504
G1 X5.058 Y17.448 E0.01695
G1 X1.945 Y14.335 E0.13901
G1 X1.945 Y13.798 E0.01695
G1 X5.595 Y17.448 E0.16299
G1 X6.055 Y17.448 E0.01454
G1 X6.055 Y17.372 E0.00241
G1 X1.945 Y13.261 E0.18356
G1 X1.945 Y12.724 E0.01695
G1 X6.055 Y16.835 E0.18356
G1 X6.055 Y16.298 E0.01695
G1 X1.945 Y12.187 E0.18356
G1 X1.945 Y11.650 E0.01695
G1 X6.055 Y15.761 E0.18356
G1 X6.055 Y15.224 E0.01695
G1 X1.945 Y11.113 E0.18356
G1 X1.945 Y10.576 E0.01695
G1 X6.055 Y14.687 E0.18356
G1 X6.055 Y14.150 E0.01695
G1 X1.945 Y10.039 E0.18356
G1 X1.945 Y9.502 E0.01695
G1 X6.055 Y13.613 E0.18356
G1 X6.055 Y13.076 E0.01695
G1 X1.945 Y8.965 E0.18356
G1 X1.945 Y8.428 E0.01695
G1 X6.055 Y12.539 E0.18356
G1 X6.055 Y12.002 E0.01695
G1 X1.945 Y7.891 E0.18356
G1 X1.945 Y7.354 E0.01695
G1 X6.055 Y11.465 E0.18356
G1 X6.055 Y10.928 E0.01695
G1 X1.945 Y6.817 E0.18356
G1 X1.945 Y6.280 E0.01695
G1 X6.055 Y10.391 E0.18356
G1 X6.055 Y9.854 E0.01695
G1 X1.945 Y5.743 E0.18356
G1 X1.945 Y5.206 E0.01695
G1 X6.055 Y9.317 E0.18356
G1 X6.055 Y8.780 E0.01695
G1 X1.945 Y4.669 E0.18356
G1 X1.945 Y4.132 E0.01695
G1 X6.055 Y8.243 E0.18356
G1 X6.055 Y7.706 E0.01695
G1 X1.945 Y3.595 E0.18356
G1 X1.945 Y3.058 E0.01695
G1 X6.055 Y7.169 E0.18356
G1 X6.055 Y6.632 E0.01695
G1 X1.945 Y2.521 E0.18356
G1 X1.945 Y2.445 E0.00242
G1 X2.405 Y2.445 E0.01454
G1 X6.055 Y6.095 E0.16300
G1 X6.055 Y5.558 E0.01695
G1 X2.942 Y2.445 E0.13902
G1 X3.479 Y2.445 E0.01695
G1 X6.055 Y5.021 E0.11504
G1 X6.055 Y4.484 E0.01695
G1 X4.016 Y2.445 E0.09106
G1 X4.553 Y2.445 E0.01695
G1 X6.055 Y3.947 E0.06709
G1 X6.055 Y3.410 E0.01695
G1 X5.090 Y2.445 E0.04311
G1 X5.627 Y2.445 E0.01695
G1 X6.225 Y3.043 E0.02671
M106 S255
;BEFORE_LAYER_CHANGE
G92 E0.0
;0.4


G1 F8640.000
G1 X5.627 Y2.445 E-0.19533
G1 X5.090 Y2.445 E-0.12399
G1 X6.055 Y3.410 E-0.31527
G1 X6.055 Y3.947 E-0.12399
G1 X6.051 Y3.943 E-0.00141
G1 E-0.04000 F2100.00000
G1 Z0.600 F10800.000
;AFTER_LAYER_CHANGE
;0.4
M104 S210 ; set temperature
G1 X-3.689 Y22.391
G1 Z0.400
G1 E0.80000 F2100.00000
G1 F1681
G1 X-4.378 Y21.246 E0.04192
G1 X-4.720 Y19.959 E0.04175
G1 X-4.754 Y0.452 E0.61164
G1 X-4.687 Y-0.299 E0.02362
G1 X-4.503 Y-1.024 E0.02345
G1 X-3.991 Y-2.083 E0.03689
G1 X-3.234 Y-2.984 E0.03689
G1 X-2.284 Y-3.669 E0.03673
G1 X-1.190 Y-4.103 E0.03689
G1 X-0.077 Y-4.254 E0.03522
G1 X8.005 Y-4.254 E0.25342
G1 X8.831 Y-4.181 E0.02598
G1 X9.626 Y-3.968 E0.02581
G1 X10.377 Y-3.618 E0.02598
G1 X11.051 Y-3.146 E0.02581
G1 X11.634 Y-2.565 E0.02581
G1 X12.111 Y-1.887 E0.02598
G1 X12.463 Y-1.137 E0.02598
G1 X12.680 Y-0.338 E0.02598
G1 X12.754 Y0.482 E0.02581
G1 X12.754 Y19.431 E0.59412
G1 X12.687 Y20.186 E0.02379
G1 X12.503 Y20.917 E0.02362
G1 X11.962 Y22.021 E0.03857
G1 X11.159 Y22.946 E0.03840
G1 X10.141 Y23.638 E0.03857
G1 X8.986 Y24.044 E0.03840
G1 X8.056 Y24.147 E0.02934
G1 X-0.065 Y24.147 E0.25461
M73 Q3 S34
G1 X-0.804 Y24.079 E0.02328
G1 X-1.524 Y23.896 E0.02328
G1 X-2.713 Y23.297 E0.04175
G1 X-3.645 Y22.432 E0.03987
G1 X-3.386 Y22.157 F10800.000
G1 F1681
G1 X-4.045 Y21.066 E0.03994
G1 X-4.351 Y19.874 E0.03860
G1 X-4.377 Y0.453 E0.60891
M73 P3 R34
G1 X-4.313 Y-0.246 E0.02202
G1 X-4.138 Y-0.926 E0.02202
G1 X-3.656 Y-1.907 E0.03427
G1 X-2.950 Y-2.734 E0.03411
G1 X-2.057 Y-3.364 E0.03427
G1 X-1.035 Y-3.753 E0.03427
G1 X-0.058 Y-3.877 E0.03089
G1 X8.005 Y-3.877 E0.25281
G1 X8.766 Y-3.810 E0.02395
G1 X9.509 Y-3.609 E0.02412
G1 X10.205 Y-3.281 E0.02412
G1 X10.829 Y-2.840 E0.02395
G1 X11.370 Y-2.294 E0.02412
G1 X11.807 Y-1.661 E0.02412
G1 X12.124 Y-0.966 E0.02395
G1 X12.317 Y-0.221 E0.02412
G1 X12.377 Y0.489 E0.02234
G1 X12.377 Y19.429 E0.59387
G1 X12.314 Y20.134 E0.02218
G1 X12.138 Y20.819 E0.02218
G1 X11.630 Y21.838 E0.03571
G1 X10.880 Y22.689 E0.03555
G1 X9.932 Y23.320 E0.03571
G1 X8.859 Y23.685 E0.03555
G1 X8.042 Y23.770 E0.02573
G1 X-0.067 Y23.769 E0.25427
G1 X-0.756 Y23.704 E0.02169
G1 X-1.426 Y23.531 E0.02169
G1 X-2.522 Y22.970 E0.03860
G1 X-3.342 Y22.198 E0.03533
G1 F8640.000
G1 X-4.045 Y21.066 E-0.30752
G1 X-4.351 Y19.874 E-0.28429
G1 X-4.352 Y19.145 E-0.16818
G1 E-0.04000 F2100.00000
G1 Z0.800 F10800.000
G1 X0.225 Y18.954
G1 Z0.400
G1 E0.80000 F2100.00000
M204 S800
G1 F1681
G1 X0.225 Y0.725 E0.61702
G1 X7.775 Y0.725 E0.25556
G1 X7.775 Y18.954 E0.61702
G1 X0.285 Y18.954 E0.25353
M204 S1000
G1 X0.277 Y18.557 F10800.000
G1 X0.632 Y18.546
M204 S800
G1 F1681
G1 X0.632 Y1.132 E0.58946
G1 X7.368 Y1.132 E0.22800
G1 X7.368 Y18.546 E0.58946
G1 X0.692 Y18.546 E0.22597
M204 S1000
G1 X1.039 Y18.139 F10800.000
M204 S800
G1 F1681
G1 X1.039 Y1.539 E0.56190
G1 X6.961 Y1.539 E0.20044
G1 X6.961 Y18.139 E0.56190
G1 X1.099 Y18.139 E0.19841
M204 S1000
G1 X1.446 Y17.732 F10800.000
M204 S800
G1 F1681
G1 X1.446 Y1.946 E0.53434
G1 X6.554 Y1.946 E0.17288
G1 X6.554 Y17.732 E0.53434
G1 X1.506 Y17.732 E0.17085
M204 S1000
G1 X1.853 Y17.325 F10800.000
M204 S800
G1 F1500.000
G1 X1.853 Y2.353 E0.50678
G1 X6.147 Y2.353 E0.14533
G1 X6.147 Y17.325 E0.50678
G1 X1.913 Y17.325 E0.14329
M204 S1000
G1 F8640.000
G1 X1.900 Y14.034 E-0.76000
G1 E-0.04000 F2100.00000
G1 Z0.800 F10800.000
G1 X2.742 Y2.414
G1 Z0.400
G1 E0.80000 F2100.00000
M204 S1250
G1 F1681
G1 X2.098 Y3.059 E0.03102
G1 X2.098 Y3.638 E0.01970
G1 X3.138 Y2.598 E0.05006
G1 X3.716 Y2.598 E0.01970
G1 X2.098 Y4.216 E0.07792
G1 X2.098 Y4.795 E0.01970
G1 X4.295 Y2.598 E0.10578
G1 X4.874 Y2.598 E0.01970
G1 X2.098 Y5.374 E0.13365
G1 X2.098 Y5.953 E0.01970
G1 X5.453 Y2.598 E0.16151
G1 X5.902 Y2.598 E0.01529
G1 X5.902 Y2.727 E0.00441
G1 X2.098 Y6.532 E0.18314
G1 X2.098 Y7.111 E0.01970
G1 X5.902 Y3.306 E0.18314
G1 X5.902 Y3.885 E0.01970
G1 X2.098 Y7.690 E0.18314
G1 X2.098 Y8.269 E0.01970
G1 X5.902 Y4.464 E0.18314
G1 X5.902 Y5.042 E0.01970
G1 X2.098 Y8.847 E0.18314
G1 X2.098 Y9.426 E0.01970
G1 X5.902 Y5.621 E0.18314
G1 X5.902 Y6.200 E0.01970
G1 X2.098 Y10.005 E0.18314
G1 X2.098 Y10.584 E0.01970
G1 X5.902 Y6.779 E0.18314
G1 X5.902 Y7.358 E0.01970
G1 X2.098 Y11.163 E0.18314
G1 X2.098 Y11.742 E0.01970
G1 X5.902 Y7.937 E0.18314
G1 X5.902 Y8.516 E0.01970
G1 X2.098 Y12.321 E0.18314
G1 X2.098 Y12.899 E0.01970
G1 X5.902 Y9.095 E0.18314
G1 X5.902 Y9.673 E0.01970
G1 X2.098 Y13.478 E0.18314
G1 X2.098 Y14.057 E0.01970
G1 X5.902 Y10.252 E0.18314
G1 X5.902 Y10.831 E0.01970
G1 X2.098 Y14.636 E0.18314
G1 X2.098 Y15.215 E0.01970
G1 X5.902 Y11.410 E0.18314
G1 X5.902 Y11.989 E0.01970
G1 X2.098 Y15.794 E0.18314
G1 X2.098 Y16.373 E0.01970
G1 X5.902 Y12.568 E0.18314
G1 X5.902 Y13.147 E0.01970
G1 X2.098 Y16.951 E0.18314
G1 X2.098 Y17.081 E0.00441
G1 X2.547 Y17.081 E0.01529
G1 X5.902 Y13.725 E0.16151
G1 X5.902 Y14.304 E0.01970
G1 X3.126 Y17.081 E0.13365
G1 X3.705 Y17.081 E0.01970
G1 X5.902 Y14.883 E0.10579
G1 X5.902 Y15.462 E0.01970
G1 X4.283 Y17.081 E0.07793
G1 X4.862 Y17.081 E0.01970
G1 X5.902 Y16.041 E0.05006
G1 X5.902 Y16.620 E0.01970
G1 X5.258 Y17.264 E0.03102
M204 S1000
;BEFORE_LAYER_CHANGE
G92 E0.0
;0.6


G1 F8640.000
G1 X5.902 Y16.620 E-0.21045
G1 X5.902 Y16.041 E-0.13366
G1 X4.862 Y17.081 E-0.33966
G1 X4.532 Y17.081 E-0.07623
G1 E-0.04000 F2100.00000
G1 Z0.800 F10800.000
;AFTER_LAYER_CHANGE
;0.6
G1 X10.141 Y23.638
G1 Z0.600
G1 E0.80000 F2100.00000
G1 F1658
